; generated by Slic3r Prusa Edition 1.38.6-prusa3d-win64 on 2018-02-17 at 23:57:22

; 

; external perimeters extrusion width = 0.60mm
; perimeters extrusion width = 0.43mm
; infill extrusion width = 0.70mm
; solid infill extrusion width = 0.70mm
; top infill extrusion width = 0.43mm
; first layer extrusion width = 0.42mm

M107
M115 U3.1.0 ; tell printer latest fw version
; Start G-Code sequence START
T0
M104 S230 ; set extruder temp
M140 S60 ; set bed temp
M190 S60 ; wait for bed temp
M109 S230 ; wait for extruder temp
G21 ; set units to millimeters
G90 ; use absolute coordinates
M83 ; use relative distances for extrusion
G28 W
G80
G92 E0.0
M203 E100 ; set max feedrate
M92 E140 ; E-steps per filament milimeter

G1 Z0.250 F7200.000
G1 X50.0 E80.0  F1000.0
G1 X160.0 E20.0  F1000.0
G1 Z0.200 F7200.000
G1 X220.0 E13 F1000.0
G1 X240.0 E0 F1000.0
G1 E-4 F1000.0

G92 E0.0
M900 K200; Filament gcode
G21 ; set units to millimeters
G90 ; use absolute coordinates
M83 ; use relative distances for extrusion
;BEFORE_LAYER_CHANGE
;0.2


G1 Z0.200 F7200.000
;AFTER_LAYER_CHANGE
;0.2
G1 E-4.00000 F4800.00000
G1 Z0.800 F7200.000
G1 X12.029 Y10.894 F7200.000
G1 Z0.200 F7200.000
G1 E4.00000 F3000.00000
M204 S1000
G1 F1800
G1 X12.523 Y9.306 E0.05268
G1 X12.957 Y8.436 E0.03078
G1 X13.491 Y7.629 E0.03064
G1 X14.585 Y6.435 E0.05130
G1 X15.846 Y5.511 E0.04951
G1 X16.964 Y4.958 E0.03948
G1 X18.420 Y4.524 E0.04813
G1 X19.967 Y4.369 E0.04924
G1 X230.004 Y4.369 E6.65142
G1 X231.589 Y4.525 E0.05042
G1 X233.110 Y4.987 E0.05034
G1 X234.516 Y5.738 E0.05048
G1 X235.739 Y6.740 E0.05006
G1 X236.757 Y7.977 E0.05076
G1 X237.505 Y9.370 E0.05006
G1 X237.971 Y10.895 E0.05048
G1 X238.130 Y12.415 E0.04841
G1 X238.131 Y197.544 E5.86263
G1 X237.969 Y199.114 E0.05000
G1 X237.475 Y200.698 E0.05255
G1 X237.043 Y201.564 E0.03064
G1 X236.509 Y202.371 E0.03064
G1 X235.415 Y203.565 E0.05130
G1 X234.154 Y204.489 E0.04951
G1 X233.036 Y205.042 E0.03948
G1 X231.576 Y205.477 E0.04827
G1 X230.028 Y205.631 E0.04925
G1 X19.991 Y205.631 E6.65141
G1 X18.394 Y205.471 E0.05083
G1 X16.806 Y204.977 E0.05269
G1 X15.936 Y204.543 E0.03077
G1 X15.129 Y204.009 E0.03064
G1 X13.935 Y202.915 E0.05130
G1 X13.011 Y201.653 E0.04951
G1 X12.458 Y200.536 E0.03947
G1 X12.023 Y199.075 E0.04827
G1 X11.869 Y197.533 E0.04910
G1 X11.869 Y12.491 E5.85986
G1 X12.023 Y10.954 E0.04893
G1 X12.396 Y10.991 F7200.000
G1 F1800
G1 X12.869 Y9.457 E0.05083
G1 X13.285 Y8.623 E0.02953
G1 X13.797 Y7.849 E0.02940
G1 X14.842 Y6.711 E0.04891
G1 X16.049 Y5.829 E0.04736
G1 X17.101 Y5.309 E0.03717
G1 X18.495 Y4.893 E0.04607
G1 X19.975 Y4.746 E0.04710
G1 X230.004 Y4.746 E6.65115
G1 X231.513 Y4.895 E0.04801
G1 X232.968 Y5.336 E0.04814
G1 X234.308 Y6.053 E0.04814
G1 X235.474 Y7.008 E0.04774
G1 X236.445 Y8.189 E0.04840
G1 X237.158 Y9.518 E0.04775
G1 X237.602 Y10.971 E0.04814
G1 X237.753 Y12.426 E0.04633
G1 X237.754 Y197.537 E5.86205
G1 X237.601 Y199.033 E0.04762
G1 X237.130 Y200.547 E0.05021
G1 X236.715 Y201.377 E0.02939
G1 X236.203 Y202.151 E0.02940
G1 X235.158 Y203.289 E0.04891
G1 X233.951 Y204.171 E0.04736
G1 X232.899 Y204.691 E0.03717
G1 X231.505 Y205.107 E0.04606
G1 X230.025 Y205.254 E0.04711
G1 X19.992 Y205.254 E6.65128
G1 X18.471 Y205.102 E0.04839
G1 X16.957 Y204.631 E0.05021
G1 X16.123 Y204.215 E0.02952
G1 X15.349 Y203.703 E0.02940
G1 X14.211 Y202.658 E0.04891
G1 X13.329 Y201.451 E0.04736
G1 X12.809 Y200.399 E0.03717
G1 X12.393 Y199.005 E0.04607
G1 X12.246 Y197.529 E0.04697
G1 X12.246 Y12.492 E5.85972
G1 X12.390 Y11.051 E0.04586
G1 X12.763 Y11.088 F7200.000
G1 F1800
G1 X13.212 Y9.612 E0.04886
G1 X13.610 Y8.813 E0.02827
G1 X14.103 Y8.068 E0.02827
G1 X15.098 Y6.988 E0.04651
G1 X16.248 Y6.149 E0.04507
G1 X17.239 Y5.660 E0.03501
G1 X18.567 Y5.264 E0.04387
G1 X19.979 Y5.123 E0.04495
G1 X230.004 Y5.123 E6.65102
G1 X231.438 Y5.264 E0.04563
G1 X232.822 Y5.684 E0.04580
G1 X234.097 Y6.365 E0.04580
G1 X235.210 Y7.277 E0.04555
G1 X236.131 Y8.397 E0.04592
G1 X236.811 Y9.665 E0.04555
G1 X237.233 Y11.048 E0.04580
G1 X237.376 Y12.441 E0.04436
G1 X237.377 Y197.530 E5.86138
G1 X237.232 Y198.956 E0.04539
G1 X236.786 Y200.392 E0.04760
G1 X236.390 Y201.187 E0.02815
G1 X235.897 Y201.931 E0.02827
G1 X234.902 Y203.012 E0.04651
G1 X233.752 Y203.851 E0.04507
G1 X232.761 Y204.340 E0.03501
G1 X231.433 Y204.736 E0.04387
G1 X230.021 Y204.877 E0.04496
G1 X19.992 Y204.877 E6.65114
G1 X18.548 Y204.733 E0.04598
G1 X17.112 Y204.287 E0.04760
G1 X16.313 Y203.890 E0.02826
G1 X15.569 Y203.397 E0.02827
G1 X14.488 Y202.402 E0.04651
G1 X13.649 Y201.252 E0.04507
G1 X13.160 Y200.261 E0.03500
G1 X12.764 Y198.933 E0.04387
G1 X12.623 Y197.524 E0.04484
G1 X12.623 Y12.492 E5.85957
G1 X12.757 Y11.148 E0.04279
G1 E-2.40000 F4800.00000
G1 F5760
G1 X13.213 Y9.612 E-1.26819
G1 F5760
G1 X13.354 Y9.327 E-0.25181
G1 E-0.08000 F4800.00000
G1 Z0.800 F7200.000
G1 X25.913 Y190.913 F7200.000
G1 Z0.200 F7200.000
G1 E4.00000 F3000.00000
G1 F1800
G1 X224.087 Y190.913 E6.27575
G1 X224.087 Y194.087 E0.10052
G1 X25.913 Y194.087 E6.27575
G1 X25.913 Y190.973 E0.09862
G1 X26.290 Y191.290 F7200.000
G1 F1800
G1 X223.710 Y191.290 E6.25187
G1 X223.710 Y193.710 E0.07664
G1 X26.290 Y193.710 E6.25187
G1 X26.290 Y191.350 E0.07474
G1 X26.091 Y190.943 F7200.000
G1 E-2.40000 F4800.00000
G1 F5760
G1 X28.210 Y191.349 E-1.52000
G1 E-0.08000 F4800.00000
G1 Z0.800 F7200.000
G1 X25.536 Y184.501 F7200.000
G1 Z0.200 F7200.000
G1 E4.00000 F3000.00000
G1 F1800
G1 X224.464 Y184.501 E6.29963
G1 X224.464 Y188.430 E0.12440
G1 X25.536 Y188.430 E6.29963
G1 X25.536 Y184.561 E0.12250
G1 X25.913 Y184.878 F7200.000
G1 F1800
G1 X224.087 Y184.878 E6.27575
G1 X224.087 Y188.053 E0.10052
G1 X25.913 Y188.053 E6.27575
G1 X25.913 Y184.938 E0.09862
G1 X26.290 Y185.256 F7200.000
G1 F1800
G1 X223.710 Y185.256 E6.25187
G1 X223.710 Y187.676 E0.07664
G1 X26.290 Y187.676 E6.25187
G1 X26.290 Y185.316 E0.07474
G1 X26.091 Y184.908 F7200.000
G1 E-2.40000 F4800.00000
G1 F5760
G1 X28.210 Y185.315 E-1.52000
G1 E-0.08000 F4800.00000
G1 Z0.800 F7200.000
G1 X224.464 Y194.464 F7200.000
G1 Z0.200 F7200.000
G1 E4.00000 F3000.00000
G1 F1800
G1 X224.464 Y190.536 E0.12440
G1 X25.536 Y190.536 E6.29963
G1 X25.536 Y194.464 E0.12440
G1 X33.484 Y194.464 E0.25170
G1 X38.198 Y201.535 E0.26911
G1 X19.736 Y201.525 E0.58463
G1 X19.213 Y201.456 E0.01672
G1 X18.688 Y201.316 E0.01721
G1 X18.471 Y201.234 E0.00736
G1 X17.983 Y200.993 E0.01721
G1 X17.531 Y200.691 E0.01721
G1 X17.343 Y200.537 E0.00769
G1 X17.118 Y200.322 E0.00988
G1 X16.801 Y199.957 E0.01531
G1 X16.498 Y199.504 E0.01727
G1 X16.387 Y199.297 E0.00742
G1 X16.195 Y198.837 E0.01581
G1 X16.042 Y198.287 E0.01806
G1 X16.002 Y198.042 E0.00786
G1 X15.964 Y197.468 E0.01821
G1 X15.964 Y181.109 E0.51808
G1 X25.155 Y182.395 E0.29388
G1 X224.845 Y182.395 E6.32378
G1 X234.036 Y181.109 E0.29388
G1 X234.036 Y197.468 E0.51808
G1 X233.998 Y198.042 E0.01821
G1 X233.960 Y198.272 E0.00736
G1 X233.816 Y198.812 E0.01771
G1 X233.733 Y199.031 E0.00742
G1 X233.514 Y199.480 E0.01581
G1 X233.201 Y199.957 E0.01806
G1 X233.044 Y200.148 E0.00786
G1 X232.648 Y200.544 E0.01771
G1 X232.469 Y200.691 E0.00736
G1 X232.017 Y200.993 E0.01721
G1 X231.529 Y201.234 E0.01721
G1 X231.312 Y201.316 E0.00736
G1 X230.787 Y201.456 E0.01721
G1 X230.248 Y201.527 E0.01721
G1 X211.802 Y201.536 E0.58416
G1 X216.516 Y194.464 E0.26915
G1 X224.404 Y194.464 E0.24980
G1 E-2.40000 F4800.00000
G1 F5760
G1 X224.433 Y192.544 E-1.52000
G1 E-0.08000 F4800.00000
G1 Z0.800 F7200.000
G1 X216.097 Y194.413 F7200.000
G1 Z0.200 F7200.000
G1 E4.00000 F3000.00000
G1 F1800
G1 X33.903 Y194.413 E5.76969
G1 X38.903 Y201.912 E0.28543
G1 X19.712 Y201.902 E0.60774
G1 X19.139 Y201.827 E0.01828
G1 X18.573 Y201.675 E0.01858
G1 X18.320 Y201.580 E0.00853
G1 X17.794 Y201.321 E0.01858
G1 X17.306 Y200.995 E0.01858
G1 X17.093 Y200.820 E0.00874
G1 X16.845 Y200.582 E0.01088
G1 X16.501 Y200.187 E0.01661
G1 X16.174 Y199.698 E0.01861
G1 X16.046 Y199.459 E0.00857
G1 X15.840 Y198.966 E0.01691
G1 X15.672 Y198.361 E0.01990
G1 X15.627 Y198.085 E0.00884
G1 X15.587 Y197.481 E0.01919
G1 X15.587 Y180.675 E0.53220
G1 X25.181 Y182.018 E0.30677
G1 X224.819 Y182.018 E6.32212
G1 X234.413 Y180.675 E0.30677
G1 X234.413 Y197.481 E0.53220
G1 X234.373 Y198.085 E0.01919
G1 X234.329 Y198.351 E0.00853
G1 X234.175 Y198.927 E0.01889
G1 X234.080 Y199.181 E0.00857
G1 X233.845 Y199.661 E0.01691
G1 X233.667 Y199.954 E0.01088
G1 X233.324 Y200.402 E0.01787
G1 X232.902 Y200.824 E0.01889
G1 X232.694 Y200.995 E0.00853
G1 X232.206 Y201.321 E0.01858
G1 X231.680 Y201.580 E0.01858
G1 X231.427 Y201.675 E0.00853
G1 X230.861 Y201.827 E0.01858
G1 X230.279 Y201.903 E0.01858
G1 X211.097 Y201.913 E0.60745
G1 X216.064 Y194.463 E0.28355
G1 X215.392 Y194.790 F7200.000
G1 F1800
G1 X34.608 Y194.790 E5.72506
G1 X39.607 Y202.290 E0.28544
G1 X19.687 Y202.279 E0.63084
G1 X19.066 Y202.198 E0.01984
G1 X18.457 Y202.034 E0.01995
G1 X18.170 Y201.927 E0.00971
G1 X17.605 Y201.648 E0.01995
G1 X17.081 Y201.298 E0.01995
G1 X16.843 Y201.102 E0.00978
G1 X16.572 Y200.843 E0.01187
G1 X16.200 Y200.416 E0.01791
G1 X15.850 Y199.892 E0.01996
G1 X15.706 Y199.621 E0.00972
G1 X15.486 Y199.096 E0.01802
G1 X15.373 Y198.739 E0.01187
G1 X15.302 Y198.434 E0.00989
G1 X15.252 Y198.129 E0.00982
G1 X15.210 Y197.493 E0.02017
G1 X15.210 Y180.241 E0.54632
G1 X25.207 Y181.641 E0.31967
G1 X224.793 Y181.641 E6.32045
G1 X234.790 Y180.241 E0.31967
G1 X234.790 Y197.493 E0.54632
G1 X234.748 Y198.129 E0.02017
G1 X234.698 Y198.431 E0.00971
G1 X234.534 Y199.043 E0.02006
G1 X234.426 Y199.330 E0.00972
G1 X234.177 Y199.842 E0.01802
G1 X233.982 Y200.162 E0.01187
G1 X233.603 Y200.656 E0.01970
G1 X233.156 Y201.103 E0.02006
G1 X232.919 Y201.298 E0.00971
G1 X232.395 Y201.648 E0.01995
G1 X231.830 Y201.927 E0.01995
G1 X231.543 Y202.034 E0.00971
G1 X230.934 Y202.198 E0.01995
G1 X230.310 Y202.280 E0.01995
G1 X210.392 Y202.290 E0.63074
G1 X215.359 Y194.840 E0.28355
G1 X215.248 Y194.417 F7200.000
G1 E-2.40000 F4800.00000
G1 F5760
G1 X213.439 Y194.839 E-1.52000
G1 E-0.08000 F4800.00000
G1 Z0.800 F7200.000
G1 X212.329 Y200.948 F7200.000
G1 Z0.200 F7200.000
G1 E4.00000 F3000.00000
G1 F1800
G1 X212.634 Y201.253 E0.01365
G1 X213.167 Y201.253 E0.01690
G1 X212.665 Y200.751 E0.02250
G1 X212.878 Y200.431 E0.01219
G1 X213.701 Y201.253 E0.03684
G1 X214.234 Y201.253 E0.01690
G1 X213.092 Y200.111 E0.05118
G1 X213.305 Y199.790 E0.01219
G1 X214.768 Y201.253 E0.06553
G1 X215.301 Y201.253 E0.01690
G1 X213.518 Y199.470 E0.07987
G1 X213.732 Y199.150 E0.01219
G1 X215.834 Y201.253 E0.09421
G1 X216.368 Y201.253 E0.01690
G1 X213.945 Y198.830 E0.10855
G1 X214.159 Y198.510 E0.01219
G1 X216.901 Y201.253 E0.12289
G1 X217.435 Y201.253 E0.01690
G1 X214.372 Y198.190 E0.13723
G1 X214.585 Y197.870 E0.01219
G1 X217.968 Y201.253 E0.15157
G1 X218.502 Y201.253 E0.01690
G1 X214.799 Y197.550 E0.16591
G1 X215.012 Y197.230 E0.01219
G1 X219.035 Y201.253 E0.18025
G1 X219.569 Y201.253 E0.01690
G1 X215.225 Y196.910 E0.19459
G1 X215.439 Y196.590 E0.01219
G1 X220.102 Y201.253 E0.20893
G1 X220.636 Y201.253 E0.01690
G1 X215.652 Y196.270 E0.22327
G1 X215.866 Y195.950 E0.01219
G1 X221.169 Y201.253 E0.23761
G1 X221.703 Y201.253 E0.01690
G1 X216.079 Y195.629 E0.25195
G1 X216.292 Y195.309 E0.01219
G1 X222.236 Y201.253 E0.26629
G1 X222.770 Y201.253 E0.01690
G1 X216.506 Y194.989 E0.28063
G1 X216.667 Y194.747 E0.00923
G1 X216.797 Y194.747 E0.00411
G1 X223.303 Y201.253 E0.29149
G1 X223.837 Y201.253 E0.01690
G1 X217.330 Y194.747 E0.29149
G1 X217.864 Y194.747 E0.01690
G1 X224.370 Y201.253 E0.29149
G1 X224.904 Y201.253 E0.01690
G1 X218.397 Y194.747 E0.29149
G1 X218.931 Y194.747 E0.01690
G1 X225.437 Y201.253 E0.29149
G1 X225.970 Y201.253 E0.01690
G1 X219.464 Y194.747 E0.29149
G1 X219.998 Y194.747 E0.01690
G1 X226.504 Y201.253 E0.29149
G1 X227.037 Y201.253 E0.01690
G1 X220.531 Y194.747 E0.29149
G1 X221.065 Y194.747 E0.01690
G1 X227.571 Y201.253 E0.29149
G1 X228.104 Y201.253 E0.01690
G1 X221.598 Y194.747 E0.29149
G1 X222.132 Y194.747 E0.01690
G1 X228.638 Y201.253 E0.29149
G1 X229.171 Y201.253 E0.01690
G1 X222.665 Y194.747 E0.29149
G1 X223.199 Y194.747 E0.01690
G1 X229.705 Y201.253 E0.29149
G1 X230.230 Y201.244 E0.01663
G1 X223.732 Y194.747 E0.29110
G1 X224.266 Y194.747 E0.01690
G1 X230.701 Y201.182 E0.28832
G1 X231.125 Y201.073 E0.01387
G1 X224.747 Y194.695 E0.28575
G1 X224.747 Y194.161 E0.01690
G1 X231.512 Y200.927 E0.30311
G1 X231.870 Y200.751 E0.01262
G1 X224.747 Y193.628 E0.31911
G1 X224.747 Y193.094 E0.01690
G1 X232.190 Y200.538 E0.33347
G1 X232.458 Y200.334 E0.01066
G1 X232.489 Y200.303 E0.00139
G1 X224.747 Y192.561 E0.34687
G1 X224.747 Y192.027 E0.01690
G1 X232.756 Y200.037 E0.35882
G1 X232.834 Y199.958 E0.00350
G1 X233.000 Y199.747 E0.00851
G1 X224.747 Y191.494 E0.36977
G1 X224.747 Y190.961 E0.01690
G1 X233.212 Y199.425 E0.37923
G1 X233.396 Y199.076 E0.01250
G1 X223.032 Y188.712 E0.46432
G1 X223.566 Y188.712 E0.01690
G1 X233.553 Y198.700 E0.44744
G1 X233.666 Y198.279 E0.01380
G1 X224.099 Y188.712 E0.42859
G1 X224.633 Y188.712 E0.01690
G1 X233.730 Y197.810 E0.40758
G1 X233.753 Y197.299 E0.01619
G1 X224.747 Y188.293 E0.40349
G1 X224.747 Y187.760 E0.01690
G1 X233.753 Y196.766 E0.40349
G1 X233.753 Y196.232 E0.01690
G1 X224.747 Y187.226 E0.40349
G1 X224.747 Y186.693 E0.01690
G1 X233.753 Y195.699 E0.40349
G1 X233.753 Y195.165 E0.01690
G1 X224.747 Y186.159 E0.40349
G1 X224.747 Y185.626 E0.01690
G1 X233.753 Y194.632 E0.40349
G1 X233.753 Y194.098 E0.01690
G1 X224.747 Y185.092 E0.40349
G1 X224.747 Y184.559 E0.01690
G1 X233.753 Y193.565 E0.40349
G1 X233.753 Y193.032 E0.01690
G1 X223.399 Y182.678 E0.46386
G1 X223.933 Y182.678 E0.01690
G1 X233.753 Y192.498 E0.43996
G1 X233.753 Y191.965 E0.01690
G1 X224.466 Y182.678 E0.41606
G1 X224.865 Y182.678 E0.01263
G1 X224.983 Y182.661 E0.00378
G1 X233.753 Y191.431 E0.39290
G1 X233.753 Y190.898 E0.01690
G1 X225.451 Y182.596 E0.37193
G1 X225.919 Y182.530 E0.01497
G1 X233.753 Y190.364 E0.35097
G1 X233.753 Y189.831 E0.01690
G1 X226.387 Y182.465 E0.33000
G1 X226.855 Y182.399 E0.01497
G1 X233.753 Y189.297 E0.30904
G1 X233.753 Y188.764 E0.01690
G1 X227.323 Y182.334 E0.28807
G1 X227.791 Y182.268 E0.01497
G1 X233.753 Y188.230 E0.26711
G1 X233.753 Y187.697 E0.01690
G1 X228.259 Y182.203 E0.24614
G1 X228.727 Y182.137 E0.01497
G1 X233.753 Y187.163 E0.22518
G1 X233.753 Y186.630 E0.01690
G1 X229.195 Y182.072 E0.20421
G1 X229.663 Y182.006 E0.01497
G1 X233.753 Y186.096 E0.18325
G1 X233.753 Y185.563 E0.01690
G1 X230.131 Y181.941 E0.16228
G1 X230.599 Y181.875 E0.01497
G1 X233.753 Y185.029 E0.14131
G1 X233.753 Y184.496 E0.01690
G1 X231.067 Y181.810 E0.12035
G1 X231.535 Y181.744 E0.01497
G1 X233.753 Y183.963 E0.09938
G1 X233.753 Y183.429 E0.01690
G1 X232.003 Y181.679 E0.07842
G1 X232.471 Y181.613 E0.01497
G1 X233.753 Y182.896 E0.05745
G1 X233.753 Y182.362 E0.01690
G1 X232.939 Y181.548 E0.03649
G1 X233.407 Y181.482 E0.01497
G1 X233.923 Y181.998 E0.02312
G1 E-2.40000 F4800.00000
G1 F5760
G1 X233.407 Y181.482 E-0.57787
G1 F5760
G1 X232.939 Y181.548 E-0.37408
G1 F5760
G1 X233.446 Y182.055 E-0.56805
G1 E-0.08000 F4800.00000
G1 Z0.800 F7200.000
G1 X224.576 Y184.388 F7200.000
G1 Z0.200 F7200.000
G1 E4.00000 F3000.00000
G1 F1800
G1 X222.866 Y182.678 E0.07662
G1 X222.333 Y182.678 E0.01690
G1 X223.873 Y184.219 E0.06902
G1 X223.340 Y184.219 E0.01690
G1 X221.799 Y182.678 E0.06902
G1 X221.266 Y182.678 E0.01690
G1 X222.806 Y184.219 E0.06902
G1 X222.273 Y184.219 E0.01690
G1 X220.732 Y182.678 E0.06902
G1 X220.199 Y182.678 E0.01690
G1 X221.739 Y184.219 E0.06902
G1 X221.206 Y184.219 E0.01690
G1 X219.665 Y182.678 E0.06902
G1 X219.132 Y182.678 E0.01690
G1 X220.672 Y184.219 E0.06902
G1 X220.139 Y184.219 E0.01690
G1 X218.598 Y182.678 E0.06902
G1 X218.065 Y182.678 E0.01690
G1 X219.605 Y184.219 E0.06902
G1 X219.072 Y184.219 E0.01690
G1 X217.531 Y182.678 E0.06902
G1 X216.998 Y182.678 E0.01690
G1 X218.538 Y184.219 E0.06902
G1 X218.005 Y184.219 E0.01690
G1 X216.464 Y182.678 E0.06902
G1 X215.931 Y182.678 E0.01690
G1 X217.471 Y184.219 E0.06902
G1 X216.938 Y184.219 E0.01690
G1 X215.397 Y182.678 E0.06902
G1 X214.864 Y182.678 E0.01690
G1 X216.405 Y184.219 E0.06902
G1 X215.871 Y184.219 E0.01690
G1 X214.330 Y182.678 E0.06902
G1 X213.797 Y182.678 E0.01690
