; generated by Slic3r Prusa Edition 1.38.6-prusa3d-win64 on 2018-02-11 at 13:56:51

; 

; external perimeters extrusion width = 0.60mm
; perimeters extrusion width = 0.43mm
; infill extrusion width = 0.70mm
; solid infill extrusion width = 0.70mm
; top infill extrusion width = 0.43mm
; first layer extrusion width = 0.42mm

M107
M115 U3.1.0 ; tell printer latest fw version
; Start G-Code sequence START
T0
M104 S230 ; set extruder temp
M140 S60 ; set bed temp
M190 S60 ; wait for bed temp
M109 S230 ; wait for extruder temp
G21 ; set units to millimeters
G90 ; use absolute coordinates
M83 ; use relative distances for extrusion
G28 W
G80
G92 E0.0
M203 E100 ; set max feedrate
M92 E140 ; E-steps per filament milimeter

G1 Z0.250 F7200.000
G1 X50.0 E80.0  F1000.0
G1 X160.0 E20.0  F1000.0
G1 Z0.200 F7200.000
G1 X220.0 E13 F1000.0
G1 X240.0 E0 F1000.0
G1 E-4 F1000.0

G92 E0.0
M900 K200; Filament gcode
G21 ; set units to millimeters
G90 ; use absolute coordinates
M83 ; use relative distances for extrusion
;BEFORE_LAYER_CHANGE
;0.2


G1 Z0.200 F7200.000
;AFTER_LAYER_CHANGE
;0.2
G1 E-4.00000 F4800.00000
G1 Z0.800 F7200.000
G1 X24.272 Y32.776 F7200.000
G1 Z0.200 F7200.000
G1 E4.00000 F3000.00000
M204 S1000
G1 F1800
G1 X24.995 Y32.662 E0.02319
G1 X224.779 Y32.662 E6.32671
G1 X225.761 Y32.787 E0.03137
G1 X226.593 Y33.275 E0.03055
G1 X226.919 Y33.636 E0.01541
G1 X227.166 Y34.060 E0.01553
G1 X227.321 Y34.526 E0.01553
G1 X227.377 Y35.013 E0.01553
G1 X227.377 Y174.976 E4.43233
G1 X227.308 Y175.531 E0.01769
G1 X227.109 Y176.057 E0.01781
G1 X226.795 Y176.519 E0.01769
G1 X226.379 Y176.897 E0.01781
G1 X225.728 Y177.224 E0.02307
G1 X225.005 Y177.338 E0.02319
G1 X24.995 Y177.338 E6.33389
G1 X24.436 Y177.270 E0.01781
G1 X23.910 Y177.073 E0.01781
G1 X23.444 Y176.758 E0.01781
G1 X23.063 Y176.339 E0.01793
G1 X22.737 Y175.688 E0.02307
G1 X22.623 Y174.968 E0.02307
G1 X22.623 Y35.031 E4.43149
G1 X22.691 Y34.473 E0.01781
G1 X22.889 Y33.947 E0.01781
G1 X23.205 Y33.481 E0.01781
G1 X23.621 Y33.103 E0.01781
G1 X24.218 Y32.803 E0.02117
G1 E-2.40000 F4800.00000
G1 F5760
G1 X24.995 Y32.662 E-0.62509
G1 F5760
G1 X26.126 Y32.662 E-0.89491
G1 E-0.08000 F4800.00000
G1 Z0.800 F7200.000
G1 X202.385 Y153.355 F7200.000
G1 Z0.200 F7200.000
G1 E4.00000 F3000.00000
G1 F1800
G1 X202.737 Y152.896 E0.01832
G1 X203.169 Y152.511 E0.01832
G1 X203.666 Y152.213 E0.01832
G1 X204.209 Y152.013 E0.01835
G1 X204.792 Y151.918 E0.01871
G1 X205.344 Y151.931 E0.01749
G1 X205.657 Y151.982 E0.01002
G1 X206.196 Y152.151 E0.01789
G1 X206.706 Y152.424 E0.01832
G1 X207.156 Y152.787 E0.01832
G1 X207.531 Y153.228 E0.01832
G1 X207.817 Y153.731 E0.01832
G1 X208.004 Y154.279 E0.01832
G1 X208.086 Y154.852 E0.01832
G1 X208.060 Y155.430 E0.01832
G1 X207.926 Y155.993 E0.01832
G1 X207.689 Y156.521 E0.01835
G1 X207.350 Y157.005 E0.01871
G1 X206.955 Y157.391 E0.01749
G1 X206.700 Y157.579 E0.01002
G1 X206.202 Y157.846 E0.01789
G1 X205.651 Y158.020 E0.01832
G1 X205.076 Y158.089 E0.01832
G1 X204.499 Y158.049 E0.01832
G1 X203.939 Y157.902 E0.01832
G1 X203.416 Y157.653 E0.01835
G1 X202.940 Y157.302 E0.01871
G1 X202.564 Y156.898 E0.01749
G1 X202.382 Y156.639 E0.01002
G1 X202.127 Y156.135 E0.01789
G1 X201.965 Y155.580 E0.01832
G1 X201.910 Y155.004 E0.01832
G1 X201.964 Y154.427 E0.01832
G1 X202.124 Y153.871 E0.01832
G1 X202.358 Y153.408 E0.01642
G1 X202.694 Y153.578 F7200.000
G1 F1800
G1 X203.015 Y153.154 E0.01684
G1 X203.394 Y152.816 E0.01608
G1 X203.829 Y152.555 E0.01608
G1 X204.306 Y152.379 E0.01609
G1 X204.819 Y152.295 E0.01645
G1 X205.309 Y152.307 E0.01554
G1 X205.569 Y152.350 E0.00835
G1 X206.049 Y152.500 E0.01592
G1 X206.497 Y152.740 E0.01608
G1 X206.892 Y153.059 E0.01608
G1 X207.221 Y153.445 E0.01608
G1 X207.472 Y153.887 E0.01608
G1 X207.636 Y154.367 E0.01608
G1 X207.708 Y154.870 E0.01608
G1 X207.685 Y155.377 E0.01608
G1 X207.567 Y155.871 E0.01608
G1 X207.360 Y156.335 E0.01609
G1 X207.061 Y156.760 E0.01645
G1 X206.710 Y157.103 E0.01554
G1 X206.498 Y157.259 E0.00835
G1 X206.055 Y157.497 E0.01592
G1 X205.571 Y157.650 E0.01608
G1 X205.067 Y157.710 E0.01608
G1 X204.560 Y157.675 E0.01608
G1 X204.069 Y157.546 E0.01608
G1 X203.610 Y157.328 E0.01609
G1 X203.192 Y157.020 E0.01645
G1 X202.858 Y156.660 E0.01554
G1 X202.706 Y156.444 E0.00835
G1 X202.479 Y155.996 E0.01592
G1 X202.337 Y155.509 E0.01608
G1 X202.289 Y155.003 E0.01608
G1 X202.336 Y154.498 E0.01608
G1 X202.476 Y154.010 E0.01608
G1 X202.667 Y153.632 E0.01340
G1 X202.505 Y153.226 F7200.000
G1 E-2.40000 F4800.00000
G1 F5760
G1 X203.015 Y153.154 E-0.46785
G1 F5760
G1 X203.394 Y152.816 E-0.40194
G1 F5760
G1 X203.829 Y152.555 E-0.40192
G1 F5760
G1 X204.123 Y152.447 E-0.24829
G1 E-0.08000 F4800.00000
G1 Z0.800 F7200.000
G1 X196.169 Y148.587 F7200.000
G1 Z0.200 F7200.000
G1 E4.00000 F3000.00000
G1 F1800
G1 X192.995 Y148.587 E0.10052
G1 X192.995 Y127.413 E0.67054
G1 X196.169 Y127.413 E0.10052
G1 X196.169 Y148.527 E0.66864
G1 X195.792 Y148.210 F7200.000
G1 F1800
G1 X193.372 Y148.210 E0.07664
G1 X193.372 Y127.790 E0.64666
G1 X195.792 Y127.790 E0.07664
G1 X195.792 Y148.150 E0.64476
G1 X195.808 Y148.610 F7200.000
G1 E-2.40000 F4800.00000
G1 F5760
G1 X193.872 Y148.198 E-1.52000
G1 E-0.08000 F4800.00000
G1 Z0.800 F7200.000
G1 X188.995 Y127.413 F7200.000
G1 Z0.200 F7200.000
G1 E4.00000 F3000.00000
G1 F1800
G1 X192.169 Y127.413 E0.10052
G1 X192.169 Y148.587 E0.67054
G1 X188.995 Y148.587 E0.10052
G1 X188.995 Y127.473 E0.66864
G1 X189.372 Y127.790 F7200.000
G1 F1800
G1 X191.792 Y127.790 E0.07664
G1 X191.792 Y148.210 E0.64666
G1 X189.372 Y148.210 E0.07664
G1 X189.372 Y127.850 E0.64476
G1 X189.356 Y127.390 F7200.000
G1 E-2.40000 F4800.00000
G1 F5760
G1 X191.291 Y127.802 E-1.52000
G1 E-0.08000 F4800.00000
G1 Z0.800 F7200.000
G1 X184.995 Y127.413 F7200.000
G1 Z0.200 F7200.000
G1 E4.00000 F3000.00000
G1 F1800
G1 X188.169 Y127.413 E0.10052
G1 X188.169 Y148.587 E0.67054
G1 X184.995 Y148.587 E0.10052
G1 X184.995 Y127.473 E0.66864
G1 X185.372 Y127.790 F7200.000
G1 F1800
G1 X187.792 Y127.790 E0.07664
G1 X187.792 Y148.210 E0.64666
G1 X185.372 Y148.210 E0.07664
G1 X185.372 Y127.850 E0.64476
G1 X185.356 Y127.390 F7200.000
G1 E-2.40000 F4800.00000
G1 F5760
G1 X187.291 Y127.802 E-1.52000
G1 E-0.08000 F4800.00000
G1 Z0.800 F7200.000
G1 X180.995 Y127.413 F7200.000
G1 Z0.200 F7200.000
G1 E4.00000 F3000.00000
G1 F1800
G1 X184.169 Y127.413 E0.10052
G1 X184.169 Y148.587 E0.67054
G1 X180.995 Y148.587 E0.10052
G1 X180.995 Y127.473 E0.66864
G1 X181.372 Y127.790 F7200.000
G1 F1800
G1 X183.792 Y127.790 E0.07664
G1 X183.792 Y148.210 E0.64666
G1 X181.372 Y148.210 E0.07664
G1 X181.372 Y127.850 E0.64476
G1 X181.356 Y127.390 F7200.000
G1 E-2.40000 F4800.00000
G1 F5760
G1 X183.291 Y127.802 E-1.52000
G1 E-0.08000 F4800.00000
G1 Z0.800 F7200.000
G1 X176.995 Y127.413 F7200.000
G1 Z0.200 F7200.000
G1 E4.00000 F3000.00000
G1 F1800
G1 X180.169 Y127.413 E0.10052
G1 X180.169 Y148.587 E0.67054
G1 X176.995 Y148.587 E0.10052
G1 X176.995 Y127.473 E0.66864
G1 X177.372 Y127.790 F7200.000
G1 F1800
G1 X179.792 Y127.790 E0.07664
G1 X179.792 Y148.210 E0.64666
G1 X177.372 Y148.210 E0.07664
G1 X177.372 Y127.850 E0.64476
G1 X177.356 Y127.390 F7200.000
G1 E-2.40000 F4800.00000
G1 F5760
G1 X179.291 Y127.802 E-1.52000
G1 E-0.08000 F4800.00000
G1 Z0.800 F7200.000
G1 X172.995 Y127.413 F7200.000
G1 Z0.200 F7200.000
G1 E4.00000 F3000.00000
G1 F1800
G1 X176.169 Y127.413 E0.10052
G1 X176.169 Y148.587 E0.67054
G1 X172.995 Y148.587 E0.10052
G1 X172.995 Y127.473 E0.66864
G1 X173.372 Y127.790 F7200.000
G1 F1800
G1 X175.792 Y127.790 E0.07664
G1 X175.792 Y148.210 E0.64666
G1 X173.372 Y148.210 E0.07664
G1 X173.372 Y127.850 E0.64476
G1 X173.356 Y127.390 F7200.000
G1 E-2.40000 F4800.00000
G1 F5760
G1 X175.291 Y127.802 E-1.52000
G1 E-0.08000 F4800.00000
G1 Z0.800 F7200.000
G1 X168.995 Y127.413 F7200.000
G1 Z0.200 F7200.000
G1 E4.00000 F3000.00000
G1 F1800
G1 X172.169 Y127.413 E0.10052
G1 X172.169 Y148.587 E0.67054
G1 X168.995 Y148.587 E0.10052
G1 X168.995 Y127.473 E0.66864
G1 X169.372 Y127.790 F7200.000
G1 F1800
G1 X171.792 Y127.790 E0.07664
G1 X171.792 Y148.210 E0.64666
G1 X169.372 Y148.210 E0.07664
G1 X169.372 Y127.850 E0.64476
G1 X169.356 Y127.390 F7200.000
G1 E-2.40000 F4800.00000
G1 F5760
G1 X171.291 Y127.802 E-1.52000
G1 E-0.08000 F4800.00000
G1 Z0.800 F7200.000
G1 X164.995 Y127.413 F7200.000
G1 Z0.200 F7200.000
G1 E4.00000 F3000.00000
G1 F1800
G1 X168.169 Y127.413 E0.10052
G1 X168.169 Y148.587 E0.67054
G1 X164.995 Y148.587 E0.10052
G1 X164.995 Y127.473 E0.66864
G1 X165.372 Y127.790 F7200.000
G1 F1800
G1 X167.792 Y127.790 E0.07664
G1 X167.792 Y148.210 E0.64666
G1 X165.372 Y148.210 E0.07664
G1 X165.372 Y127.850 E0.64476
G1 X165.356 Y127.390 F7200.000
G1 E-2.40000 F4800.00000
G1 F5760
G1 X167.291 Y127.802 E-1.52000
G1 E-0.08000 F4800.00000
G1 Z0.800 F7200.000
G1 X160.995 Y127.413 F7200.000
G1 Z0.200 F7200.000
G1 E4.00000 F3000.00000
G1 F1800
G1 X164.169 Y127.413 E0.10052
G1 X164.169 Y148.587 E0.67054
G1 X160.995 Y148.587 E0.10052
G1 X160.995 Y127.473 E0.66864
G1 X161.372 Y127.790 F7200.000
G1 F1800
G1 X163.792 Y127.790 E0.07664
G1 X163.792 Y148.210 E0.64666
G1 X161.372 Y148.210 E0.07664
G1 X161.372 Y127.850 E0.64476
G1 X161.356 Y127.390 F7200.000
G1 E-2.40000 F4800.00000
G1 F5760
G1 X163.291 Y127.802 E-1.52000
G1 E-0.08000 F4800.00000
G1 Z0.800 F7200.000
G1 X156.995 Y127.413 F7200.000
G1 Z0.200 F7200.000
G1 E4.00000 F3000.00000
G1 F1800
G1 X160.169 Y127.413 E0.10052
G1 X160.169 Y148.587 E0.67054
G1 X156.995 Y148.587 E0.10052
G1 X156.995 Y127.473 E0.66864
G1 X157.372 Y127.790 F7200.000
G1 F1800
G1 X159.792 Y127.790 E0.07664
G1 X159.792 Y148.210 E0.64666
G1 X157.372 Y148.210 E0.07664
G1 X157.372 Y127.850 E0.64476
G1 X157.356 Y127.390 F7200.000
G1 E-2.40000 F4800.00000
G1 F5760
G1 X159.291 Y127.802 E-1.52000
G1 E-0.08000 F4800.00000
G1 Z0.800 F7200.000
G1 X152.995 Y127.413 F7200.000
G1 Z0.200 F7200.000
G1 E4.00000 F3000.00000
G1 F1800
G1 X156.169 Y127.413 E0.10052
G1 X156.169 Y148.587 E0.67054
G1 X152.995 Y148.587 E0.10052
G1 X152.995 Y127.473 E0.66864
G1 X153.372 Y127.790 F7200.000
G1 F1800
G1 X155.792 Y127.790 E0.07664
G1 X155.792 Y148.210 E0.64666
G1 X153.372 Y148.210 E0.07664
G1 X153.372 Y127.850 E0.64476
G1 X153.356 Y127.390 F7200.000
G1 E-2.40000 F4800.00000
G1 F5760
G1 X155.291 Y127.802 E-1.52000
G1 E-0.08000 F4800.00000
G1 Z0.800 F7200.000
G1 X148.995 Y127.413 F7200.000
G1 Z0.200 F7200.000
G1 E4.00000 F3000.00000
G1 F1800
G1 X152.169 Y127.413 E0.10052
G1 X152.169 Y148.587 E0.67054
G1 X148.995 Y148.587 E0.10052
G1 X148.995 Y127.473 E0.66864
G1 X149.372 Y127.790 F7200.000
G1 F1800
G1 X151.792 Y127.790 E0.07664
G1 X151.792 Y148.210 E0.64666
G1 X149.372 Y148.210 E0.07664
G1 X149.372 Y127.850 E0.64476
G1 X149.356 Y127.390 F7200.000
G1 E-2.40000 F4800.00000
G1 F5760
G1 X151.291 Y127.802 E-1.52000
G1 E-0.08000 F4800.00000
G1 Z0.800 F7200.000
G1 X144.995 Y127.413 F7200.000
G1 Z0.200 F7200.000
G1 E4.00000 F3000.00000
G1 F1800
G1 X148.169 Y127.413 E0.10052
G1 X148.169 Y148.587 E0.67054
G1 X144.995 Y148.587 E0.10052
G1 X144.995 Y127.473 E0.66864
G1 X145.372 Y127.790 F7200.000
G1 F1800
G1 X147.792 Y127.790 E0.07664
G1 X147.792 Y148.210 E0.64666
G1 X145.372 Y148.210 E0.07664
G1 X145.372 Y127.850 E0.64476
G1 X145.356 Y127.390 F7200.000
G1 E-2.40000 F4800.00000
G1 F5760
G1 X147.291 Y127.802 E-1.52000
G1 E-0.08000 F4800.00000
G1 Z0.800 F7200.000
G1 X140.995 Y127.413 F7200.000
G1 Z0.200 F7200.000
G1 E4.00000 F3000.00000
G1 F1800
G1 X144.169 Y127.413 E0.10052
G1 X144.169 Y148.587 E0.67054
G1 X140.995 Y148.587 E0.10052
G1 X140.995 Y127.473 E0.66864
G1 X141.372 Y127.790 F7200.000
G1 F1800
G1 X143.792 Y127.790 E0.07664
G1 X143.792 Y148.210 E0.64666
G1 X141.372 Y148.210 E0.07664
G1 X141.372 Y127.850 E0.64476
G1 X141.356 Y127.390 F7200.000
G1 E-2.40000 F4800.00000
G1 F5760
G1 X143.291 Y127.802 E-1.52000
G1 E-0.08000 F4800.00000
G1 Z0.800 F7200.000
G1 X105.695 Y127.413 F7200.000
G1 Z0.200 F7200.000
G1 E4.00000 F3000.00000
G1 F1800
G1 X108.869 Y127.413 E0.10052
G1 X108.869 Y148.587 E0.67054
G1 X105.695 Y148.587 E0.10052
G1 X105.695 Y127.473 E0.66864
G1 X106.072 Y127.790 F7200.000
G1 F1800
G1 X108.492 Y127.790 E0.07664
G1 X108.492 Y148.210 E0.64666
G1 X106.072 Y148.210 E0.07664
G1 X106.072 Y127.850 E0.64476
G1 X106.056 Y127.390 F7200.000
G1 E-2.40000 F4800.00000
G1 F5760
G1 X107.991 Y127.802 E-1.52000
G1 E-0.08000 F4800.00000
G1 Z0.800 F7200.000
G1 X101.695 Y127.413 F7200.000
G1 Z0.200 F7200.000
G1 E4.00000 F3000.00000
G1 F1800
G1 X104.869 Y127.413 E0.10052
G1 X104.869 Y148.587 E0.67054
G1 X101.695 Y148.587 E0.10052
G1 X101.695 Y127.473 E0.66864
G1 X102.072 Y127.790 F7200.000
G1 F1800
G1 X104.492 Y127.790 E0.07664
G1 X104.492 Y148.210 E0.64666
G1 X102.072 Y148.210 E0.07664
G1 X102.072 Y127.850 E0.64476
G1 X102.056 Y127.390 F7200.000
G1 E-2.40000 F4800.00000
G1 F5760
G1 X103.991 Y127.802 E-1.52000
G1 E-0.08000 F4800.00000
G1 Z0.800 F7200.000
G1 X97.695 Y127.413 F7200.000
G1 Z0.200 F7200.000
G1 E4.00000 F3000.00000
G1 F1800
G1 X100.869 Y127.413 E0.10052
G1 X100.869 Y148.587 E0.67054
G1 X97.695 Y148.587 E0.10052
G1 X97.695 Y127.473 E0.66864
G1 X98.072 Y127.790 F7200.000
G1 F1800
G1 X100.492 Y127.790 E0.07664
G1 X100.492 Y148.210 E0.64666
G1 X98.072 Y148.210 E0.07664
G1 X98.072 Y127.850 E0.64476
G1 X98.056 Y127.390 F7200.000
G1 E-2.40000 F4800.00000
G1 F5760
G1 X99.991 Y127.802 E-1.52000
G1 E-0.08000 F4800.00000
G1 Z0.800 F7200.000
G1 X93.695 Y127.413 F7200.000
G1 Z0.200 F7200.000
G1 E4.00000 F3000.00000
G1 F1800
G1 X96.869 Y127.413 E0.10052
G1 X96.869 Y148.587 E0.67054
G1 X93.695 Y148.587 E0.10052
G1 X93.695 Y127.473 E0.66864
G1 X94.072 Y127.790 F7200.000
G1 F1800
G1 X96.492 Y127.790 E0.07664
G1 X96.492 Y148.210 E0.64666
G1 X94.072 Y148.210 E0.07664
G1 X94.072 Y127.850 E0.64476
G1 X94.056 Y127.390 F7200.000
G1 E-2.40000 F4800.00000
G1 F5760
G1 X95.991 Y127.802 E-1.52000
G1 E-0.08000 F4800.00000
G1 Z0.800 F7200.000
G1 X89.695 Y127.413 F7200.000
G1 Z0.200 F7200.000
G1 E4.00000 F3000.00000
G1 F1800
G1 X92.869 Y127.413 E0.10052
G1 X92.869 Y148.587 E0.67054
G1 X89.695 Y148.587 E0.10052
G1 X89.695 Y127.473 E0.66864
G1 X90.072 Y127.790 F7200.000
G1 F1800
G1 X92.492 Y127.790 E0.07664
G1 X92.492 Y148.210 E0.64666
G1 X90.072 Y148.210 E0.07664
G1 X90.072 Y127.850 E0.64476
G1 X90.056 Y127.390 F7200.000
G1 E-2.40000 F4800.00000
G1 F5760
G1 X91.991 Y127.802 E-1.52000
G1 E-0.08000 F4800.00000
G1 Z0.800 F7200.000
G1 X85.695 Y127.413 F7200.000
G1 Z0.200 F7200.000
G1 E4.00000 F3000.00000
G1 F1800
G1 X88.869 Y127.413 E0.10052
G1 X88.869 Y148.587 E0.67054
G1 X85.695 Y148.587 E0.10052
G1 X85.695 Y127.473 E0.66864
G1 X86.072 Y127.790 F7200.000
G1 F1800
G1 X88.492 Y127.790 E0.07664
G1 X88.492 Y148.210 E0.64666
G1 X86.072 Y148.210 E0.07664
G1 X86.072 Y127.850 E0.64476
G1 X86.056 Y127.390 F7200.000
G1 E-2.40000 F4800.00000
G1 F5760
G1 X87.991 Y127.802 E-1.52000
G1 E-0.08000 F4800.00000
G1 Z0.800 F7200.000
G1 X81.695 Y127.413 F7200.000
G1 Z0.200 F7200.000
G1 E4.00000 F3000.00000
G1 F1800
G1 X84.869 Y127.413 E0.10052
G1 X84.869 Y148.587 E0.67054
G1 X81.695 Y148.587 E0.10052
G1 X81.695 Y127.473 E0.66864
G1 X82.072 Y127.790 F7200.000
G1 F1800
G1 X84.492 Y127.790 E0.07664
G1 X84.492 Y148.210 E0.64666
G1 X82.072 Y148.210 E0.07664
G1 X82.072 Y127.850 E0.64476
G1 X82.056 Y127.390 F7200.000
G1 E-2.40000 F4800.00000
G1 F5760
G1 X83.991 Y127.802 E-1.52000
G1 E-0.08000 F4800.00000
G1 Z0.800 F7200.000
G1 X77.695 Y127.413 F7200.000
G1 Z0.200 F7200.000
G1 E4.00000 F3000.00000
G1 F1800
G1 X80.869 Y127.413 E0.10052
G1 X80.869 Y148.587 E0.67054
G1 X77.695 Y148.587 E0.10052
G1 X77.695 Y127.473 E0.66864
G1 X78.072 Y127.790 F7200.000
G1 F1800
G1 X80.492 Y127.790 E0.07664
G1 X80.492 Y148.210 E0.64666
G1 X78.072 Y148.210 E0.07664
G1 X78.072 Y127.850 E0.64476
G1 X78.056 Y127.390 F7200.000
G1 E-2.40000 F4800.00000
G1 F5760
G1 X79.991 Y127.802 E-1.52000
G1 E-0.08000 F4800.00000
G1 Z0.800 F7200.000
G1 X73.695 Y127.413 F7200.000
G1 Z0.200 F7200.000
G1 E4.00000 F3000.00000
G1 F1800
G1 X76.869 Y127.413 E0.10052
G1 X76.869 Y148.587 E0.67054
G1 X73.695 Y148.587 E0.10052
G1 X73.695 Y127.473 E0.66864
G1 X74.072 Y127.790 F7200.000
G1 F1800
G1 X76.492 Y127.790 E0.07664
