; generated by Slic3r Prusa Edition 1.38.6-prusa3d-win64 on 2018-04-08 at 10:24:26

; 

; external perimeters extrusion width = 0.60mm
; perimeters extrusion width = 0.43mm
; infill extrusion width = 0.70mm
; solid infill extrusion width = 0.70mm
; top infill extrusion width = 0.43mm
; first layer extrusion width = 0.42mm

M107
M115 U3.1.0 ; tell printer latest fw version
; Start G-Code sequence START
T0
M104 S230 ; set extruder temp
M140 S60 ; set bed temp
M190 S60 ; wait for bed temp
M109 S230 ; wait for extruder temp
G21 ; set units to millimeters
G90 ; use absolute coordinates
M83 ; use relative distances for extrusion
G28 W
G80
G92 E0.0
M203 E100 ; set max feedrate
M92 E140 ; E-steps per filament milimeter

G1 Z0.250 F7200.000
G1 X50.0 E80.0  F1000.0
G1 X160.0 E20.0  F1000.0
G1 Z0.200 F7200.000
G1 X220.0 E13 F1000.0
G1 X240.0 E0 F1000.0
G1 E-4 F1000.0

G92 E0.0
M900 K200; Filament gcode
G21 ; set units to millimeters
G90 ; use absolute coordinates
M83 ; use relative distances for extrusion
;BEFORE_LAYER_CHANGE
;0.2


G1 Z0.200 F7200.000
;AFTER_LAYER_CHANGE
;0.2
G1 E-4.00000 F4800.00000
G1 Z0.800 F7200.000
G1 X12.029 Y10.894 F7200.000
G1 Z0.200 F7200.000
G1 E4.00000 F3000.00000
M204 S1000
G1 F1800
G1 X12.523 Y9.306 E0.05268
G1 X12.957 Y8.436 E0.03078
G1 X13.491 Y7.629 E0.03064
G1 X14.585 Y6.435 E0.05130
G1 X15.846 Y5.511 E0.04951
G1 X16.964 Y4.958 E0.03948
G1 X18.420 Y4.524 E0.04813
G1 X19.968 Y4.369 E0.04924
G1 X230.004 Y4.369 E6.65141
G1 X231.585 Y4.525 E0.05028
G1 X233.110 Y4.987 E0.05048
G1 X234.516 Y5.738 E0.05048
G1 X235.739 Y6.740 E0.05006
G1 X236.757 Y7.977 E0.05076
G1 X237.505 Y9.370 E0.05006
G1 X237.971 Y10.894 E0.05047
G1 X238.130 Y12.415 E0.04842
G1 X238.131 Y197.544 E5.86263
G1 X237.969 Y199.114 E0.05000
G1 X237.473 Y200.702 E0.05269
G1 X237.043 Y201.564 E0.03050
G1 X236.509 Y202.371 E0.03064
G1 X235.415 Y203.565 E0.05130
G1 X234.154 Y204.489 E0.04951
G1 X233.036 Y205.042 E0.03948
G1 X231.580 Y205.476 E0.04813
G1 X230.028 Y205.631 E0.04938
G1 X19.991 Y205.631 E6.65141
G1 X18.394 Y205.471 E0.05083
G1 X16.806 Y204.977 E0.05269
G1 X15.936 Y204.543 E0.03077
G1 X15.129 Y204.009 E0.03064
G1 X13.935 Y202.915 E0.05131
G1 X13.011 Y201.654 E0.04950
G1 X12.458 Y200.536 E0.03948
G1 X12.024 Y199.080 E0.04813
G1 X11.869 Y197.533 E0.04924
G1 X11.869 Y12.491 E5.85986
G1 X12.023 Y10.954 E0.04893
G1 X12.396 Y10.991 F7200.000
G1 F1800
G1 X12.869 Y9.457 E0.05083
G1 X13.285 Y8.623 E0.02953
G1 X13.797 Y7.849 E0.02940
G1 X14.842 Y6.711 E0.04891
G1 X16.046 Y5.831 E0.04723
G1 X17.101 Y5.309 E0.03730
G1 X18.495 Y4.893 E0.04607
G1 X19.976 Y4.746 E0.04710
G1 X230.004 Y4.746 E6.65115
G1 X231.513 Y4.895 E0.04801
G1 X232.967 Y5.336 E0.04814
G1 X234.305 Y6.050 E0.04801
G1 X235.474 Y7.008 E0.04788
G1 X236.445 Y8.189 E0.04840
G1 X237.158 Y9.517 E0.04774
G1 X237.602 Y10.971 E0.04813
G1 X237.753 Y12.426 E0.04633
G1 X237.754 Y197.537 E5.86205
G1 X237.601 Y199.033 E0.04762
G1 X237.130 Y200.547 E0.05021
G1 X236.715 Y201.377 E0.02939
G1 X236.203 Y202.151 E0.02939
G1 X235.158 Y203.289 E0.04891
G1 X233.954 Y204.169 E0.04723
G1 X232.899 Y204.691 E0.03730
G1 X231.505 Y205.107 E0.04607
G1 X230.025 Y205.254 E0.04711
G1 X19.992 Y205.254 E6.65128
G1 X18.471 Y205.102 E0.04840
G1 X16.957 Y204.631 E0.05021
G1 X16.123 Y204.215 E0.02952
G1 X15.349 Y203.703 E0.02940
G1 X14.211 Y202.658 E0.04891
G1 X13.331 Y201.454 E0.04722
G1 X12.809 Y200.399 E0.03730
G1 X12.393 Y199.005 E0.04607
G1 X12.246 Y197.529 E0.04697
G1 X12.246 Y12.492 E5.85972
G1 X12.390 Y11.051 E0.04586
G1 X12.763 Y11.088 F7200.000
G1 F1800
G1 X13.213 Y9.612 E0.04887
G1 X13.610 Y8.813 E0.02827
G1 X14.103 Y8.069 E0.02827
G1 X15.098 Y6.988 E0.04651
G1 X16.248 Y6.149 E0.04507
G1 X17.239 Y5.660 E0.03501
G1 X18.567 Y5.263 E0.04387
G1 X19.979 Y5.123 E0.04496
G1 X230.004 Y5.123 E6.65102
G1 X231.438 Y5.264 E0.04563
G1 X232.822 Y5.684 E0.04580
G1 X234.097 Y6.365 E0.04580
G1 X235.210 Y7.277 E0.04555
G1 X236.133 Y8.400 E0.04604
G1 X236.812 Y9.668 E0.04555
G1 X237.233 Y11.048 E0.04567
G1 X237.376 Y12.441 E0.04436
G1 X237.377 Y197.530 E5.86138
G1 X237.232 Y198.956 E0.04538
G1 X236.786 Y200.392 E0.04760
G1 X236.390 Y201.187 E0.02815
G1 X235.897 Y201.931 E0.02827
G1 X234.902 Y203.012 E0.04652
G1 X233.752 Y203.851 E0.04507
G1 X232.761 Y204.340 E0.03501
G1 X231.433 Y204.736 E0.04387
G1 X230.021 Y204.877 E0.04496
G1 X19.992 Y204.877 E6.65114
G1 X18.547 Y204.733 E0.04599
G1 X17.112 Y204.287 E0.04760
G1 X16.313 Y203.890 E0.02827
G1 X15.569 Y203.397 E0.02827
G1 X14.488 Y202.402 E0.04652
G1 X13.649 Y201.252 E0.04507
G1 X13.160 Y200.261 E0.03501
G1 X12.764 Y198.933 E0.04387
G1 X12.623 Y197.524 E0.04484
G1 X12.623 Y12.492 E5.85957
G1 X12.757 Y11.148 E0.04279
G1 E-2.40000 F4800.00000
G1 F5760
G1 X13.213 Y9.612 E-1.26825
G1 F5760
G1 X13.354 Y9.327 E-0.25175
G1 E-0.08000 F4800.00000
G1 Z0.800 F7200.000
G1 X222.036 Y19.536 F7200.000
G1 Z0.200 F7200.000
G1 E4.00000 F3000.00000
G1 F1800
G1 X225.964 Y19.536 E0.12440
G1 X225.964 Y190.464 E5.41293
G1 X222.036 Y190.464 E0.12440
G1 X222.036 Y19.596 E5.41103
G1 X222.413 Y19.913 F7200.000
G1 F1800
G1 X225.587 Y19.913 E0.10052
G1 X225.587 Y190.087 E5.38905
G1 X222.413 Y190.087 E0.10052
G1 X222.413 Y19.973 E5.38715
G1 X222.790 Y20.290 F7200.000
G1 F1800
G1 X225.210 Y20.290 E0.07664
G1 X225.210 Y189.710 E5.36517
G1 X222.790 Y189.710 E0.07664
G1 X222.790 Y20.350 E5.36327
G1 X222.788 Y19.890 F7200.000
G1 E-2.40000 F4800.00000
G1 F5760
G1 X224.709 Y20.302 E-1.52000
G1 E-0.08000 F4800.00000
G1 Z0.800 F7200.000
G1 X216.001 Y19.536 F7200.000
G1 Z0.200 F7200.000
G1 E4.00000 F3000.00000
G1 F1800
G1 X219.930 Y19.536 E0.12440
G1 X219.930 Y190.464 E5.41293
G1 X216.001 Y190.464 E0.12440
G1 X216.001 Y19.596 E5.41103
G1 X216.378 Y19.913 F7200.000
G1 F1800
G1 X219.553 Y19.913 E0.10052
G1 X219.553 Y190.087 E5.38905
G1 X216.378 Y190.087 E0.10052
G1 X216.378 Y19.973 E5.38715
G1 X216.756 Y20.290 F7200.000
G1 F1800
G1 X219.176 Y20.290 E0.07664
G1 X219.176 Y189.710 E5.36517
G1 X216.756 Y189.710 E0.07664
G1 X216.756 Y20.350 E5.36327
G1 X216.754 Y19.890 F7200.000
G1 E-2.40000 F4800.00000
G1 F5760
G1 X218.675 Y20.302 E-1.52000
G1 E-0.08000 F4800.00000
G1 Z0.800 F7200.000
G1 X209.967 Y19.536 F7200.000
G1 Z0.200 F7200.000
G1 E4.00000 F3000.00000
G1 F1800
G1 X213.895 Y19.536 E0.12440
G1 X213.895 Y190.464 E5.41293
G1 X209.967 Y190.464 E0.12440
G1 X209.967 Y19.596 E5.41103
G1 X210.344 Y19.913 F7200.000
G1 F1800
G1 X213.518 Y19.913 E0.10052
G1 X213.518 Y190.087 E5.38905
G1 X210.344 Y190.087 E0.10052
G1 X210.344 Y19.973 E5.38715
G1 X210.721 Y20.290 F7200.000
G1 F1800
G1 X213.141 Y20.290 E0.07664
G1 X213.141 Y189.710 E5.36517
G1 X210.721 Y189.710 E0.07664
G1 X210.721 Y20.350 E5.36327
G1 X210.719 Y19.890 F7200.000
G1 E-2.40000 F4800.00000
G1 F5760
G1 X212.640 Y20.302 E-1.52000
G1 E-0.08000 F4800.00000
G1 Z0.800 F7200.000
G1 X204.281 Y32.024 F7200.000
G1 Z0.200 F7200.000
G1 E4.00000 F3000.00000
G1 F1800
G1 X204.805 Y32.408 E0.02057
G1 X205.248 Y32.883 E0.02057
G1 X205.594 Y33.433 E0.02057
G1 X205.832 Y34.037 E0.02057
G1 X205.953 Y34.675 E0.02057
G1 X205.953 Y35.325 E0.02057
G1 X205.832 Y35.963 E0.02057
G1 X205.594 Y36.567 E0.02057
G1 X205.248 Y37.117 E0.02057
G1 X204.804 Y37.593 E0.02062
G1 X204.269 Y37.983 E0.02096
G1 X203.715 Y38.247 E0.01943
G1 X203.362 Y38.357 E0.01171
G1 X202.744 Y38.460 E0.01985
G1 X202.094 Y38.445 E0.02057
G1 X201.459 Y38.309 E0.02057
G1 X200.861 Y38.056 E0.02057
G1 X200.319 Y37.697 E0.02057
G1 X199.854 Y37.242 E0.02062
G1 X199.476 Y36.698 E0.02096
G1 X199.226 Y36.138 E0.01943
G1 X199.123 Y35.783 E0.01171
G1 X199.035 Y35.163 E0.01985
G1 X199.066 Y34.514 E0.02057
G1 X199.217 Y33.882 E0.02057
G1 X199.483 Y33.289 E0.02057
G1 X199.855 Y32.757 E0.02057
G1 X200.319 Y32.303 E0.02057
G1 X200.861 Y31.944 E0.02057
G1 X201.461 Y31.691 E0.02062
G1 X202.108 Y31.554 E0.02096
G1 X202.722 Y31.541 E0.01943
G1 X203.089 Y31.584 E0.01171
G1 X203.695 Y31.744 E0.01985
G1 X204.227 Y31.998 E0.01867
G1 X204.064 Y32.338 F7200.000
G1 F1800
G1 X204.553 Y32.691 E0.01909
G1 X204.948 Y33.114 E0.01832
G1 X205.256 Y33.604 E0.01832
G1 X205.468 Y34.142 E0.01832
G1 X205.576 Y34.711 E0.01832
G1 X205.576 Y35.289 E0.01832
G1 X205.468 Y35.858 E0.01832
G1 X205.256 Y36.396 E0.01832
G1 X204.948 Y36.886 E0.01832
G1 X204.552 Y37.310 E0.01836
G1 X204.075 Y37.657 E0.01870
G1 X203.576 Y37.895 E0.01748
G1 X203.274 Y37.990 E0.01003
G1 X202.717 Y38.082 E0.01788
G1 X202.139 Y38.068 E0.01832
G1 X201.573 Y37.947 E0.01832
G1 X201.040 Y37.723 E0.01832
G1 X200.557 Y37.403 E0.01832
G1 X200.143 Y36.998 E0.01836
G1 X199.806 Y36.512 E0.01870
G1 X199.581 Y36.008 E0.01748
G1 X199.493 Y35.704 E0.01003
G1 X199.414 Y35.145 E0.01789
G1 X199.441 Y34.567 E0.01832
G1 X199.575 Y34.004 E0.01832
G1 X199.812 Y33.476 E0.01832
G1 X200.144 Y33.002 E0.01832
G1 X200.557 Y32.597 E0.01832
G1 X201.040 Y32.277 E0.01832
G1 X201.574 Y32.052 E0.01836
G1 X202.152 Y31.931 E0.01870
G1 X202.704 Y31.918 E0.01748
G1 X203.018 Y31.955 E0.01003
G1 X203.564 Y32.099 E0.01789
G1 X204.010 Y32.312 E0.01565
G1 X203.848 Y32.653 F7200.000
G1 F1800
G1 X204.301 Y32.974 E0.01761
G1 X204.648 Y33.345 E0.01608
G1 X204.918 Y33.775 E0.01608
G1 X205.104 Y34.247 E0.01608
G1 X205.199 Y34.746 E0.01608
G1 X205.199 Y35.254 E0.01608
G1 X205.104 Y35.753 E0.01608
G1 X204.918 Y36.225 E0.01608
G1 X204.648 Y36.654 E0.01608
G1 X204.301 Y37.026 E0.01609
G1 X203.881 Y37.332 E0.01645
G1 X203.438 Y37.543 E0.01554
G1 X203.186 Y37.622 E0.00836
G1 X202.691 Y37.704 E0.01592
G1 X202.183 Y37.692 E0.01608
G1 X201.686 Y37.586 E0.01608
G1 X201.219 Y37.389 E0.01608
G1 X200.796 Y37.108 E0.01608
G1 X200.432 Y36.753 E0.01609
G1 X200.136 Y36.326 E0.01645
G1 X199.936 Y35.878 E0.01554
G1 X199.863 Y35.625 E0.00835
G1 X199.792 Y35.127 E0.01592
G1 X199.816 Y34.620 E0.01608
G1 X199.934 Y34.126 E0.01608
G1 X200.142 Y33.663 E0.01608
G1 X200.432 Y33.247 E0.01608
G1 X200.796 Y32.892 E0.01608
G1 X201.219 Y32.611 E0.01608
G1 X201.687 Y32.414 E0.01609
G1 X202.195 Y32.307 E0.01645
G1 X202.686 Y32.296 E0.01554
G1 X202.948 Y32.327 E0.00835
G1 X203.434 Y32.455 E0.01592
G1 X203.794 Y32.627 E0.01262
G1 X204.195 Y32.454 F7200.000
G1 E-2.40000 F4800.00000
G1 F5760
G1 X204.301 Y32.974 E-0.48705
G1 F5760
G1 X204.648 Y33.345 E-0.40193
G1 F5760
G1 X204.918 Y33.775 E-0.40193
G1 F5760
G1 X205.024 Y34.044 E-0.22909
G1 E-0.08000 F4800.00000
G1 Z0.800 F7200.000
G1 X194.464 Y41.694 F7200.000
G1 Z0.200 F7200.000
G1 E4.00000 F3000.00000
G1 F1800
G1 X194.464 Y46.622 E0.15607
G1 X152.536 Y46.622 E1.32778
G1 X152.536 Y41.694 E0.15607
G1 X194.404 Y41.694 E1.32588
G1 X194.087 Y42.071 F7200.000
G1 F1800
G1 X194.087 Y46.245 E0.13219
G1 X152.913 Y46.245 E1.30390
G1 X152.913 Y42.071 E0.13219
G1 X194.027 Y42.071 E1.30200
G1 X193.710 Y42.448 F7200.000
G1 F1800
G1 X193.710 Y45.868 E0.10830
G1 X153.290 Y45.868 E1.28001
G1 X153.290 Y42.448 E0.10830
G1 X193.650 Y42.448 E1.27811
G1 X194.110 Y42.437 F7200.000
G1 E-2.40000 F4800.00000
G1 F5760
G1 X193.684 Y44.368 E-1.52000
G1 E-0.08000 F4800.00000
G1 Z0.800 F7200.000
G1 X152.536 Y48.852 F7200.000
G1 Z0.200 F7200.000
G1 E4.00000 F3000.00000
G1 F1800
G1 X194.464 Y48.852 E1.32778
G1 X194.464 Y53.780 E0.15607
G1 X152.536 Y53.780 E1.32778
G1 X152.536 Y48.912 E0.15417
G1 X152.913 Y49.229 F7200.000
G1 F1800
G1 X194.087 Y49.229 E1.30390
G1 X194.087 Y53.403 E0.13219
G1 X152.913 Y53.403 E1.30390
G1 X152.913 Y49.289 E0.13029
G1 X153.290 Y49.606 F7200.000
G1 F1800
G1 X193.710 Y49.606 E1.28001
G1 X193.710 Y53.026 E0.10830
G1 X153.290 Y53.026 E1.28001
G1 X153.290 Y49.666 E0.10640
G1 X153.100 Y49.254 F7200.000
G1 E-2.40000 F4800.00000
G1 F5760
G1 X155.210 Y49.663 E-1.52000
G1 E-0.08000 F4800.00000
G1 Z0.800 F7200.000
G1 X152.536 Y56.010 F7200.000
G1 Z0.200 F7200.000
G1 E4.00000 F3000.00000
G1 F1800
G1 X194.464 Y56.010 E1.32778
G1 X194.464 Y60.938 E0.15607
G1 X152.536 Y60.938 E1.32778
G1 X152.536 Y56.070 E0.15417
G1 X152.913 Y56.387 F7200.000
G1 F1800
G1 X194.087 Y56.387 E1.30390
G1 X194.087 Y60.561 E0.13219
G1 X152.913 Y60.561 E1.30390
G1 X152.913 Y56.447 E0.13029
G1 X153.290 Y56.764 F7200.000
G1 F1800
G1 X193.710 Y56.764 E1.28001
G1 X193.710 Y60.184 E0.10830
G1 X153.290 Y60.184 E1.28001
G1 X153.290 Y56.824 E0.10640
G1 X153.100 Y56.412 F7200.000
G1 E-2.40000 F4800.00000
G1 F5760
G1 X155.210 Y56.821 E-1.52000
G1 E-0.08000 F4800.00000
G1 Z0.800 F7200.000
G1 X152.536 Y63.167 F7200.000
G1 Z0.200 F7200.000
G1 E4.00000 F3000.00000
G1 F1800
G1 X194.464 Y63.167 E1.32778
G1 X194.464 Y68.096 E0.15607
G1 X152.536 Y68.096 E1.32778
G1 X152.536 Y63.227 E0.15417
G1 X152.913 Y63.544 F7200.000
G1 F1800
G1 X194.087 Y63.544 E1.30390
G1 X194.087 Y67.719 E0.13219
G1 X152.913 Y67.719 E1.30390
G1 X152.913 Y63.604 E0.13029
G1 X153.290 Y63.922 F7200.000
G1 F1800
G1 X193.710 Y63.922 E1.28001
G1 X193.710 Y67.342 E0.10830
G1 X153.290 Y67.342 E1.28001
G1 X153.290 Y63.982 E0.10640
G1 X153.100 Y63.570 F7200.000
G1 E-2.40000 F4800.00000
G1 F5760
G1 X155.210 Y63.979 E-1.52000
G1 E-0.08000 F4800.00000
G1 Z0.800 F7200.000
G1 X152.536 Y70.325 F7200.000
G1 Z0.200 F7200.000
G1 E4.00000 F3000.00000
G1 F1800
G1 X194.464 Y70.325 E1.32778
G1 X194.464 Y75.254 E0.15607
G1 X152.536 Y75.254 E1.32778
G1 X152.536 Y70.385 E0.15417
G1 X152.913 Y70.702 F7200.000
G1 F1800
G1 X194.087 Y70.702 E1.30390
G1 X194.087 Y74.877 E0.13219
G1 X152.913 Y74.877 E1.30390
G1 X152.913 Y70.762 E0.13029
G1 X153.290 Y71.079 F7200.000
G1 F1800
G1 X193.710 Y71.079 E1.28001
G1 X193.710 Y74.499 E0.10830
G1 X153.290 Y74.499 E1.28001
G1 X153.290 Y71.139 E0.10640
G1 X153.100 Y70.728 F7200.000
G1 E-2.40000 F4800.00000
G1 F5760
G1 X155.210 Y71.137 E-1.52000
G1 E-0.08000 F4800.00000
G1 Z0.800 F7200.000
G1 X152.536 Y77.483 F7200.000
G1 Z0.200 F7200.000
G1 E4.00000 F3000.00000
G1 F1800
G1 X194.464 Y77.483 E1.32778
G1 X194.464 Y82.412 E0.15607
G1 X152.536 Y82.412 E1.32778
G1 X152.536 Y77.543 E0.15417
G1 X152.913 Y77.860 F7200.000
G1 F1800
G1 X194.087 Y77.860 E1.30390
G1 X194.087 Y82.034 E0.13219
G1 X152.913 Y82.034 E1.30390
G1 X152.913 Y77.920 E0.13029
G1 X153.290 Y78.237 F7200.000
G1 F1800
G1 X193.710 Y78.237 E1.28001
G1 X193.710 Y81.657 E0.10830
G1 X153.290 Y81.657 E1.28001
G1 X153.290 Y78.297 E0.10640
G1 X153.100 Y77.885 F7200.000
G1 E-2.40000 F4800.00000
G1 F5760
G1 X155.210 Y78.295 E-1.52000
G1 E-0.08000 F4800.00000
G1 Z0.800 F7200.000
G1 X152.536 Y84.641 F7200.000
G1 Z0.200 F7200.000
G1 E4.00000 F3000.00000
G1 F1800
G1 X194.464 Y84.641 E1.32778
G1 X194.464 Y89.569 E0.15607
G1 X152.536 Y89.569 E1.32778
G1 X152.536 Y84.701 E0.15417
G1 X152.913 Y85.018 F7200.000
G1 F1800
G1 X194.087 Y85.018 E1.30390
G1 X194.087 Y89.192 E0.13219
G1 X152.913 Y89.192 E1.30390
G1 X152.913 Y85.078 E0.13029
G1 X153.290 Y85.395 F7200.000
G1 F1800
G1 X193.710 Y85.395 E1.28001
G1 X193.710 Y88.815 E0.10830
G1 X153.290 Y88.815 E1.28001
G1 X153.290 Y85.455 E0.10640
G1 X153.100 Y85.043 F7200.000
G1 E-2.40000 F4800.00000
G1 F5760
G1 X155.210 Y85.452 E-1.52000
G1 E-0.08000 F4800.00000
G1 Z0.800 F7200.000
G1 X152.536 Y91.799 F7200.000
G1 Z0.200 F7200.000
G1 E4.00000 F3000.00000
G1 F1800
G1 X194.464 Y91.799 E1.32778
G1 X194.464 Y96.727 E0.15607
G1 X152.536 Y96.727 E1.32778
G1 X152.536 Y91.859 E0.15417
G1 X152.913 Y92.176 F7200.000
G1 F1800
G1 X194.087 Y92.176 E1.30390
G1 X194.087 Y96.350 E0.13219
G1 X152.913 Y96.350 E1.30390
G1 X152.913 Y92.236 E0.13029
G1 X153.290 Y92.553 F7200.000
G1 F1800
G1 X193.710 Y92.553 E1.28001
G1 X193.710 Y95.973 E0.10830
G1 X153.290 Y95.973 E1.28001
G1 X153.290 Y92.613 E0.10640
G1 X153.100 Y92.201 F7200.000
G1 E-2.40000 F4800.00000
G1 F5760
G1 X155.210 Y92.610 E-1.52000
G1 E-0.08000 F4800.00000
G1 Z0.800 F7200.000
G1 X152.536 Y98.957 F7200.000
G1 Z0.200 F7200.000
G1 E4.00000 F3000.00000
G1 F1800
G1 X194.464 Y98.957 E1.32778
G1 X194.464 Y103.885 E0.15607
G1 X152.536 Y103.885 E1.32778
G1 X152.536 Y99.017 E0.15417
G1 X152.913 Y99.334 F7200.000
G1 F1800
G1 X194.087 Y99.334 E1.30390
G1 X194.087 Y103.508 E0.13219
G1 X152.913 Y103.508 E1.30390
G1 X152.913 Y99.394 E0.13029
G1 X153.290 Y99.711 F7200.000
G1 F1800
G1 X193.710 Y99.711 E1.28001
G1 X193.710 Y103.131 E0.10830
G1 X153.290 Y103.131 E1.28001
G1 X153.290 Y99.771 E0.10640
G1 X153.100 Y99.359 F7200.000
G1 E-2.40000 F4800.00000
G1 F5760
