; generated by Slic3r Prusa Edition 1.38.6-prusa3d-win64 on 2018-02-15 at 21:09:44

; 

; external perimeters extrusion width = 0.60mm
; perimeters extrusion width = 0.43mm
; infill extrusion width = 0.70mm
; solid infill extrusion width = 0.70mm
; top infill extrusion width = 0.43mm
; first layer extrusion width = 0.42mm

M107
M115 U3.1.0 ; tell printer latest fw version
; Start G-Code sequence START
T0
M104 S230 ; set extruder temp
M140 S60 ; set bed temp
M190 S60 ; wait for bed temp
M109 S230 ; wait for extruder temp
G21 ; set units to millimeters
G90 ; use absolute coordinates
M83 ; use relative distances for extrusion
G28 W
G80
G92 E0.0
M203 E100 ; set max feedrate
M92 E140 ; E-steps per filament milimeter

G1 Z0.250 F7200.000
G1 X50.0 E80.0  F1000.0
G1 X160.0 E20.0  F1000.0
G1 Z0.200 F7200.000
G1 X220.0 E13 F1000.0
G1 X240.0 E0 F1000.0
G1 E-4 F1000.0

G92 E0.0
M900 K200; Filament gcode
G21 ; set units to millimeters
G90 ; use absolute coordinates
M83 ; use relative distances for extrusion
;BEFORE_LAYER_CHANGE
;0.2


G1 Z0.200 F7200.000
;AFTER_LAYER_CHANGE
;0.2
G1 E-4.00000 F4800.00000
G1 Z0.800 F7200.000
G1 X24.150 Y15.319 F7200.000
G1 Z0.200 F7200.000
G1 E4.00000 F3000.00000
M204 S1000
G1 F1800
G1 X24.991 Y15.162 E0.02711
G1 X224.779 Y15.162 E6.32683
G1 X225.761 Y15.287 E0.03137
G1 X226.596 Y15.778 E0.03066
G1 X226.921 Y16.140 E0.01541
G1 X227.168 Y16.564 E0.01553
G1 X227.322 Y17.029 E0.01553
G1 X227.377 Y17.517 E0.01553
G1 X227.377 Y192.472 E5.54047
G1 X227.322 Y192.967 E0.01577
G1 X227.166 Y193.440 E0.01577
G1 X226.914 Y193.870 E0.01577
G1 X226.579 Y194.238 E0.01577
G1 X225.850 Y194.681 E0.02699
G1 X225.009 Y194.838 E0.02711
G1 X24.998 Y194.838 E6.33389
G1 X24.503 Y194.786 E0.01577
G1 X24.026 Y194.629 E0.01589
G1 X23.593 Y194.377 E0.01589
G1 X23.222 Y194.039 E0.01589
G1 X22.780 Y193.310 E0.02699
G1 X22.623 Y192.468 E0.02711
G1 X22.623 Y17.535 E5.53975
G1 X22.676 Y17.040 E0.01577
G1 X22.832 Y16.563 E0.01589
G1 X23.083 Y16.133 E0.01577
G1 X23.421 Y15.762 E0.01589
G1 X24.098 Y15.350 E0.02509
G1 E-2.40000 F4800.00000
G1 F5760
G1 X24.991 Y15.162 E-0.72241
G1 F5760
G1 X25.999 Y15.162 E-0.79759
G1 E-0.08000 F4800.00000
G1 Z0.800 F7200.000
G1 X44.268 Y169.110 F7200.000
G1 Z0.200 F7200.000
G1 E4.00000 F3000.00000
G1 F1800
G1 X44.913 Y169.033 E0.02057
G1 X45.561 Y169.077 E0.02057
G1 X46.190 Y169.242 E0.02057
G1 X46.778 Y169.522 E0.02063
G1 X47.314 Y169.917 E0.02110
G1 X47.729 Y170.363 E0.01930
G1 X47.941 Y170.666 E0.01169
G1 X48.225 Y171.224 E0.01985
G1 X48.407 Y171.848 E0.02057
G1 X48.468 Y172.495 E0.02057
G1 X48.409 Y173.141 E0.02057
G1 X48.229 Y173.766 E0.02057
G1 X47.936 Y174.347 E0.02063
G1 X47.528 Y174.874 E0.02110
G1 X47.072 Y175.279 E0.01930
G1 X46.765 Y175.483 E0.01169
G1 X46.200 Y175.754 E0.01985
G1 X45.572 Y175.921 E0.02057
G1 X44.924 Y175.968 E0.02057
G1 X44.279 Y175.893 E0.02057
G1 X43.659 Y175.699 E0.02057
G1 X43.086 Y175.392 E0.02057
G1 X42.580 Y174.985 E0.02057
G1 X42.159 Y174.490 E0.02057
G1 X41.838 Y173.926 E0.02057
G1 X41.627 Y173.309 E0.02063
G1 X41.535 Y172.649 E0.02110
G1 X41.564 Y172.041 E0.01930
G1 X41.633 Y171.678 E0.01169
G1 X41.834 Y171.084 E0.01985
G1 X42.153 Y170.519 E0.02057
G1 X42.573 Y170.023 E0.02057
G1 X43.077 Y169.614 E0.02057
G1 X43.649 Y169.306 E0.02057
G1 X44.211 Y169.128 E0.01867
G1 X44.325 Y169.487 F7200.000
G1 F1800
G1 X44.923 Y169.411 E0.01909
G1 X45.500 Y169.451 E0.01832
G1 X46.060 Y169.598 E0.01832
G1 X46.583 Y169.847 E0.01836
G1 X47.062 Y170.200 E0.01884
G1 X47.435 Y170.601 E0.01736
G1 X47.617 Y170.860 E0.01002
G1 X47.873 Y171.364 E0.01788
G1 X48.035 Y171.919 E0.01832
G1 X48.090 Y172.495 E0.01832
G1 X48.036 Y173.071 E0.01832
G1 X47.877 Y173.627 E0.01832
G1 X47.615 Y174.145 E0.01836
G1 X47.251 Y174.615 E0.01884
G1 X46.841 Y174.979 E0.01735
G1 X46.578 Y175.155 E0.01002
G1 X46.069 Y175.399 E0.01789
G1 X45.510 Y175.547 E0.01832
G1 X44.932 Y175.589 E0.01833
G1 X44.358 Y175.522 E0.01832
G1 X43.805 Y175.349 E0.01832
G1 X43.295 Y175.077 E0.01832
G1 X42.845 Y174.714 E0.01832
G1 X42.470 Y174.273 E0.01832
G1 X42.183 Y173.770 E0.01832
G1 X41.996 Y173.221 E0.01836
G1 X41.914 Y172.632 E0.01884
G1 X41.940 Y172.085 E0.01736
G1 X41.998 Y171.774 E0.01002
G1 X42.179 Y171.239 E0.01789
G1 X42.464 Y170.735 E0.01832
G1 X42.838 Y170.293 E0.01832
G1 X43.287 Y169.929 E0.01832
G1 X43.796 Y169.654 E0.01832
G1 X44.268 Y169.505 E0.01565
G1 X44.381 Y169.865 F7200.000
G1 F1800
G1 X44.932 Y169.790 E0.01761
G1 X45.439 Y169.825 E0.01608
G1 X45.930 Y169.954 E0.01608
G1 X46.389 Y170.172 E0.01609
G1 X46.810 Y170.482 E0.01658
G1 X47.142 Y170.839 E0.01541
G1 X47.293 Y171.055 E0.00835
G1 X47.521 Y171.503 E0.01592
G1 X47.663 Y171.990 E0.01608
G1 X47.711 Y172.496 E0.01608
G1 X47.664 Y173.001 E0.01608
G1 X47.524 Y173.489 E0.01608
G1 X47.295 Y173.943 E0.01609
G1 X46.975 Y174.357 E0.01658
G1 X46.611 Y174.680 E0.01541
G1 X46.391 Y174.826 E0.00835
G1 X45.938 Y175.043 E0.01592
G1 X45.447 Y175.174 E0.01608
G1 X44.941 Y175.210 E0.01608
G1 X44.436 Y175.152 E0.01608
G1 X43.952 Y175.000 E0.01608
G1 X43.504 Y174.761 E0.01608
G1 X43.109 Y174.442 E0.01608
G1 X42.780 Y174.055 E0.01608
G1 X42.529 Y173.614 E0.01608
G1 X42.364 Y173.133 E0.01609
G1 X42.292 Y172.615 E0.01658
G1 X42.315 Y172.129 E0.01541
G1 X42.364 Y171.870 E0.00835
G1 X42.525 Y171.393 E0.01592
G1 X42.775 Y170.951 E0.01608
G1 X43.103 Y170.564 E0.01608
G1 X43.497 Y170.244 E0.01608
G1 X43.944 Y170.003 E0.01608
G1 X44.324 Y169.883 E0.01262
G1 X44.499 Y169.483 F7200.000
G1 E-2.40000 F4800.00000
G1 F5760
G1 X44.932 Y169.790 E-0.48701
G1 F5760
G1 X45.439 Y169.825 E-0.40193
G1 F5760
G1 X45.930 Y169.954 E-0.40193
G1 F5760
G1 X46.191 Y170.078 E-0.22912
G1 E-0.08000 F4800.00000
G1 Z0.800 F7200.000
G1 X53.305 Y166.464 F7200.000
G1 Z0.200 F7200.000
G1 E4.00000 F3000.00000
G1 F1800
G1 X53.305 Y144.536 E0.69442
G1 X109.233 Y144.536 E1.77113
G1 X109.233 Y166.464 E0.69442
G1 X53.365 Y166.464 E1.76923
G1 E-2.40000 F4800.00000
G1 F5760
G1 X53.360 Y164.544 E-1.52000
G1 E-0.08000 F4800.00000
G1 Z0.800 F7200.000
G1 X105.682 Y166.087 F7200.000
G1 Z0.200 F7200.000
G1 E4.00000 F3000.00000
G1 F1800
G1 X105.682 Y144.913 E0.67054
G1 X108.856 Y144.913 E0.10052
G1 X108.856 Y166.087 E0.67054
G1 X105.742 Y166.087 E0.09862
G1 X106.059 Y165.710 F7200.000
G1 F1800
G1 X106.059 Y145.290 E0.64666
G1 X108.479 Y145.290 E0.07664
G1 X108.479 Y165.710 E0.64666
G1 X106.119 Y165.710 E0.07474
G1 X105.705 Y165.896 F7200.000
G1 E-2.40000 F4800.00000
G1 F5760
G1 X106.114 Y163.790 E-1.52000
G1 E-0.08000 F4800.00000
G1 Z0.800 F7200.000
G1 X101.682 Y144.913 F7200.000
G1 Z0.200 F7200.000
G1 E4.00000 F3000.00000
G1 F1800
G1 X104.856 Y144.913 E0.10052
G1 X104.856 Y166.087 E0.67054
G1 X101.682 Y166.087 E0.10052
G1 X101.682 Y144.973 E0.66864
G1 X102.059 Y145.290 F7200.000
G1 F1800
G1 X104.479 Y145.290 E0.07664
G1 X104.479 Y165.710 E0.64666
G1 X102.059 Y165.710 E0.07664
G1 X102.059 Y145.350 E0.64476
G1 X102.043 Y144.890 F7200.000
G1 E-2.40000 F4800.00000
G1 F5760
G1 X103.979 Y145.302 E-1.52000
G1 E-0.08000 F4800.00000
G1 Z0.800 F7200.000
G1 X97.682 Y144.913 F7200.000
G1 Z0.200 F7200.000
G1 E4.00000 F3000.00000
G1 F1800
G1 X100.856 Y144.913 E0.10052
G1 X100.856 Y166.087 E0.67054
G1 X97.682 Y166.087 E0.10052
G1 X97.682 Y144.973 E0.66864
G1 X98.059 Y145.290 F7200.000
G1 F1800
G1 X100.479 Y145.290 E0.07664
G1 X100.479 Y165.710 E0.64666
G1 X98.059 Y165.710 E0.07664
G1 X98.059 Y145.350 E0.64476
G1 X98.043 Y144.890 F7200.000
G1 E-2.40000 F4800.00000
G1 F5760
G1 X99.979 Y145.302 E-1.52000
G1 E-0.08000 F4800.00000
G1 Z0.800 F7200.000
G1 X93.682 Y144.913 F7200.000
G1 Z0.200 F7200.000
G1 E4.00000 F3000.00000
G1 F1800
G1 X96.856 Y144.913 E0.10052
G1 X96.856 Y166.087 E0.67054
G1 X93.682 Y166.087 E0.10052
G1 X93.682 Y144.973 E0.66864
G1 X94.059 Y145.290 F7200.000
G1 F1800
G1 X96.479 Y145.290 E0.07664
G1 X96.479 Y165.710 E0.64666
G1 X94.059 Y165.710 E0.07664
G1 X94.059 Y145.350 E0.64476
G1 X94.043 Y144.890 F7200.000
G1 E-2.40000 F4800.00000
G1 F5760
G1 X95.979 Y145.302 E-1.52000
G1 E-0.08000 F4800.00000
G1 Z0.800 F7200.000
G1 X89.682 Y144.913 F7200.000
G1 Z0.200 F7200.000
G1 E4.00000 F3000.00000
G1 F1800
G1 X92.856 Y144.913 E0.10052
G1 X92.856 Y166.087 E0.67054
G1 X89.682 Y166.087 E0.10052
G1 X89.682 Y144.973 E0.66864
G1 X90.059 Y145.290 F7200.000
G1 F1800
G1 X92.479 Y145.290 E0.07664
G1 X92.479 Y165.710 E0.64666
G1 X90.059 Y165.710 E0.07664
G1 X90.059 Y145.350 E0.64476
G1 X90.043 Y144.890 F7200.000
G1 E-2.40000 F4800.00000
G1 F5760
G1 X91.979 Y145.302 E-1.52000
G1 E-0.08000 F4800.00000
G1 Z0.800 F7200.000
G1 X85.682 Y144.913 F7200.000
G1 Z0.200 F7200.000
G1 E4.00000 F3000.00000
G1 F1800
G1 X88.856 Y144.913 E0.10052
G1 X88.856 Y166.087 E0.67054
G1 X85.682 Y166.087 E0.10052
G1 X85.682 Y144.973 E0.66864
G1 X86.059 Y145.290 F7200.000
G1 F1800
G1 X88.479 Y145.290 E0.07664
G1 X88.479 Y165.710 E0.64666
G1 X86.059 Y165.710 E0.07664
G1 X86.059 Y145.350 E0.64476
G1 X86.043 Y144.890 F7200.000
G1 E-2.40000 F4800.00000
G1 F5760
G1 X87.979 Y145.302 E-1.52000
G1 E-0.08000 F4800.00000
G1 Z0.800 F7200.000
G1 X81.682 Y144.913 F7200.000
G1 Z0.200 F7200.000
G1 E4.00000 F3000.00000
G1 F1800
G1 X84.856 Y144.913 E0.10052
G1 X84.856 Y166.087 E0.67054
G1 X81.682 Y166.087 E0.10052
G1 X81.682 Y144.973 E0.66864
G1 X82.059 Y145.290 F7200.000
G1 F1800
G1 X84.479 Y145.290 E0.07664
G1 X84.479 Y165.710 E0.64666
G1 X82.059 Y165.710 E0.07664
G1 X82.059 Y145.350 E0.64476
G1 X82.043 Y144.890 F7200.000
G1 E-2.40000 F4800.00000
G1 F5760
G1 X83.979 Y145.302 E-1.52000
G1 E-0.08000 F4800.00000
G1 Z0.800 F7200.000
G1 X77.682 Y144.913 F7200.000
G1 Z0.200 F7200.000
G1 E4.00000 F3000.00000
G1 F1800
G1 X80.856 Y144.913 E0.10052
G1 X80.856 Y166.087 E0.67054
G1 X77.682 Y166.087 E0.10052
G1 X77.682 Y144.973 E0.66864
G1 X78.059 Y145.290 F7200.000
G1 F1800
G1 X80.479 Y145.290 E0.07664
G1 X80.479 Y165.710 E0.64666
G1 X78.059 Y165.710 E0.07664
G1 X78.059 Y145.350 E0.64476
G1 X78.043 Y144.890 F7200.000
G1 E-2.40000 F4800.00000
G1 F5760
G1 X79.979 Y145.302 E-1.52000
G1 E-0.08000 F4800.00000
G1 Z0.800 F7200.000
G1 X73.682 Y144.913 F7200.000
G1 Z0.200 F7200.000
G1 E4.00000 F3000.00000
G1 F1800
G1 X76.856 Y144.913 E0.10052
G1 X76.856 Y166.087 E0.67054
G1 X73.682 Y166.087 E0.10052
G1 X73.682 Y144.973 E0.66864
G1 X74.059 Y145.290 F7200.000
G1 F1800
G1 X76.479 Y145.290 E0.07664
G1 X76.479 Y165.710 E0.64666
G1 X74.059 Y165.710 E0.07664
G1 X74.059 Y145.350 E0.64476
G1 X74.043 Y144.890 F7200.000
G1 E-2.40000 F4800.00000
G1 F5760
G1 X75.979 Y145.302 E-1.52000
G1 E-0.08000 F4800.00000
G1 Z0.800 F7200.000
G1 X69.682 Y144.913 F7200.000
G1 Z0.200 F7200.000
G1 E4.00000 F3000.00000
G1 F1800
G1 X72.856 Y144.913 E0.10052
G1 X72.856 Y166.087 E0.67054
G1 X69.682 Y166.087 E0.10052
G1 X69.682 Y144.973 E0.66864
G1 X70.059 Y145.290 F7200.000
G1 F1800
G1 X72.479 Y145.290 E0.07664
G1 X72.479 Y165.710 E0.64666
G1 X70.059 Y165.710 E0.07664
G1 X70.059 Y145.350 E0.64476
G1 X70.043 Y144.890 F7200.000
G1 E-2.40000 F4800.00000
G1 F5760
G1 X71.979 Y145.302 E-1.52000
G1 E-0.08000 F4800.00000
G1 Z0.800 F7200.000
G1 X65.682 Y144.913 F7200.000
G1 Z0.200 F7200.000
G1 E4.00000 F3000.00000
G1 F1800
G1 X68.856 Y144.913 E0.10052
G1 X68.856 Y166.087 E0.67054
G1 X65.682 Y166.087 E0.10052
G1 X65.682 Y144.973 E0.66864
G1 X66.059 Y145.290 F7200.000
G1 F1800
G1 X68.479 Y145.290 E0.07664
G1 X68.479 Y165.710 E0.64666
G1 X66.059 Y165.710 E0.07664
G1 X66.059 Y145.350 E0.64476
G1 X66.043 Y144.890 F7200.000
G1 E-2.40000 F4800.00000
G1 F5760
G1 X67.979 Y145.302 E-1.52000
G1 E-0.08000 F4800.00000
G1 Z0.800 F7200.000
G1 X61.682 Y144.913 F7200.000
G1 Z0.200 F7200.000
G1 E4.00000 F3000.00000
G1 F1800
G1 X64.856 Y144.913 E0.10052
G1 X64.856 Y166.087 E0.67054
G1 X61.682 Y166.087 E0.10052
G1 X61.682 Y144.973 E0.66864
G1 X62.059 Y145.290 F7200.000
G1 F1800
G1 X64.479 Y145.290 E0.07664
G1 X64.479 Y165.710 E0.64666
G1 X62.059 Y165.710 E0.07664
G1 X62.059 Y145.350 E0.64476
G1 X62.043 Y144.890 F7200.000
G1 E-2.40000 F4800.00000
G1 F5760
G1 X63.979 Y145.302 E-1.52000
G1 E-0.08000 F4800.00000
G1 Z0.800 F7200.000
G1 X57.682 Y144.913 F7200.000
G1 Z0.200 F7200.000
G1 E4.00000 F3000.00000
G1 F1800
G1 X60.856 Y144.913 E0.10052
G1 X60.856 Y166.087 E0.67054
G1 X57.682 Y166.087 E0.10052
G1 X57.682 Y144.973 E0.66864
G1 X58.059 Y145.290 F7200.000
G1 F1800
G1 X60.479 Y145.290 E0.07664
G1 X60.479 Y165.710 E0.64666
G1 X58.059 Y165.710 E0.07664
G1 X58.059 Y145.350 E0.64476
G1 X58.043 Y144.890 F7200.000
G1 E-2.40000 F4800.00000
G1 F5760
G1 X59.979 Y145.302 E-1.52000
G1 E-0.08000 F4800.00000
G1 Z0.800 F7200.000
G1 X53.682 Y144.913 F7200.000
G1 Z0.200 F7200.000
G1 E4.00000 F3000.00000
G1 F1800
G1 X56.856 Y144.913 E0.10052
G1 X56.856 Y166.087 E0.67054
G1 X53.682 Y166.087 E0.10052
G1 X53.682 Y144.973 E0.66864
G1 X54.059 Y145.290 F7200.000
G1 F1800
G1 X56.479 Y145.290 E0.07664
G1 X56.479 Y165.710 E0.64666
G1 X54.059 Y165.710 E0.07664
G1 X54.059 Y145.350 E0.64476
G1 X54.043 Y144.890 F7200.000
G1 E-2.40000 F4800.00000
G1 F5760
G1 X55.979 Y145.302 E-1.52000
G1 E-0.08000 F4800.00000
G1 Z0.800 F7200.000
G1 X140.605 Y144.536 F7200.000
G1 Z0.200 F7200.000
G1 E4.00000 F3000.00000
G1 F1800
G1 X196.533 Y144.536 E1.77113
G1 X196.533 Y166.464 E0.69442
G1 X140.605 Y166.464 E1.77113
G1 X140.605 Y144.596 E0.69252
G1 E-2.40000 F4800.00000
G1 F5760
G1 X142.525 Y144.594 E-1.52000
G1 E-0.08000 F4800.00000
G1 Z0.800 F7200.000
G1 X192.982 Y144.913 F7200.000
G1 Z0.200 F7200.000
G1 E4.00000 F3000.00000
G1 F1800
G1 X196.156 Y144.913 E0.10052
G1 X196.156 Y166.087 E0.67054
G1 X192.982 Y166.087 E0.10052
G1 X192.982 Y144.973 E0.66864
G1 X193.359 Y145.290 F7200.000
G1 F1800
G1 X195.779 Y145.290 E0.07664
G1 X195.779 Y165.710 E0.64666
G1 X193.359 Y165.710 E0.07664
G1 X193.359 Y145.350 E0.64476
G1 X193.343 Y144.890 F7200.000
G1 E-2.40000 F4800.00000
G1 F5760
G1 X195.279 Y145.302 E-1.52000
G1 E-0.08000 F4800.00000
G1 Z0.800 F7200.000
G1 X188.982 Y144.913 F7200.000
G1 Z0.200 F7200.000
G1 E4.00000 F3000.00000
G1 F1800
G1 X192.156 Y144.913 E0.10052
G1 X192.156 Y166.087 E0.67054
G1 X188.982 Y166.087 E0.10052
G1 X188.982 Y144.973 E0.66864
G1 X189.359 Y145.290 F7200.000
G1 F1800
G1 X191.779 Y145.290 E0.07664
G1 X191.779 Y165.710 E0.64666
G1 X189.359 Y165.710 E0.07664
G1 X189.359 Y145.350 E0.64476
G1 X189.343 Y144.890 F7200.000
G1 E-2.40000 F4800.00000
G1 F5760
G1 X191.279 Y145.302 E-1.52000
G1 E-0.08000 F4800.00000
G1 Z0.800 F7200.000
G1 X184.982 Y144.913 F7200.000
G1 Z0.200 F7200.000
G1 E4.00000 F3000.00000
G1 F1800
G1 X188.156 Y144.913 E0.10052
G1 X188.156 Y166.087 E0.67054
G1 X184.982 Y166.087 E0.10052
G1 X184.982 Y144.973 E0.66864
G1 X185.359 Y145.290 F7200.000
G1 F1800
G1 X187.779 Y145.290 E0.07664
G1 X187.779 Y165.710 E0.64666
G1 X185.359 Y165.710 E0.07664
G1 X185.359 Y145.350 E0.64476
G1 X185.343 Y144.890 F7200.000
G1 E-2.40000 F4800.00000
G1 F5760
G1 X187.279 Y145.302 E-1.52000
G1 E-0.08000 F4800.00000
G1 Z0.800 F7200.000
G1 X180.982 Y144.913 F7200.000
G1 Z0.200 F7200.000
G1 E4.00000 F3000.00000
G1 F1800
G1 X184.156 Y144.913 E0.10052
G1 X184.156 Y166.087 E0.67054
G1 X180.982 Y166.087 E0.10052
G1 X180.982 Y144.973 E0.66864
G1 X181.359 Y145.290 F7200.000
G1 F1800
G1 X183.779 Y145.290 E0.07664
G1 X183.779 Y165.710 E0.64666
G1 X181.359 Y165.710 E0.07664
G1 X181.359 Y145.350 E0.64476
G1 X181.343 Y144.890 F7200.000
G1 E-2.40000 F4800.00000
G1 F5760
G1 X183.279 Y145.302 E-1.52000
G1 E-0.08000 F4800.00000
G1 Z0.800 F7200.000
G1 X176.982 Y144.913 F7200.000
G1 Z0.200 F7200.000
G1 E4.00000 F3000.00000
G1 F1800
G1 X180.156 Y144.913 E0.10052
G1 X180.156 Y166.087 E0.67054
G1 X176.982 Y166.087 E0.10052
G1 X176.982 Y144.973 E0.66864
G1 X177.359 Y145.290 F7200.000
G1 F1800
G1 X179.779 Y145.290 E0.07664
G1 X179.779 Y165.710 E0.64666
G1 X177.359 Y165.710 E0.07664
G1 X177.359 Y145.350 E0.64476
G1 X177.343 Y144.890 F7200.000
G1 E-2.40000 F4800.00000
G1 F5760
G1 X179.279 Y145.302 E-1.52000
G1 E-0.08000 F4800.00000
G1 Z0.800 F7200.000
G1 X172.982 Y144.913 F7200.000
G1 Z0.200 F7200.000
G1 E4.00000 F3000.00000
G1 F1800
G1 X176.156 Y144.913 E0.10052
G1 X176.156 Y166.087 E0.67054
G1 X172.982 Y166.087 E0.10052
G1 X172.982 Y144.973 E0.66864
G1 X173.359 Y145.290 F7200.000
G1 F1800
G1 X175.779 Y145.290 E0.07664
