; generated by Slic3r Prusa Edition 1.41.2+win64 on 2019-02-15 at 16:16:47

; 

; external perimeters extrusion width = 0.60mm
; perimeters extrusion width = 0.43mm
; infill extrusion width = 0.45mm
; solid infill extrusion width = 0.70mm
; top infill extrusion width = 0.43mm
; first layer extrusion width = 0.42mm

M201 X9000 Y9000 Z500 E10000 ; sets maximum accelerations, mm/sec^2
M203 X500 Y500 Z12 E120 ; sets maximum feedrates, mm/sec
M204 P2000 R1500 T2000 ; sets acceleration (P, T) and retract acceleration (R), mm/sec^2
M205 X10.00 Y10.00 Z0.20 E2.50 ; sets the jerk limits, mm/sec
M205 S0 T0 ; sets the minimum extruding and travel feed rate, mm/sec
M107
M115 U3.1.0 ; tell printer latest fw version
M204 S2000 T1500 ; MK2 firmware only supports the old M204 format
; Start G-Code sequence START
T1
M104 S255 ; set extruder temp
M140 S100 ; set bed temp
M190 S100 ; wait for bed temp
M109 S255 ; wait for extruder temp
G21 ; set units to millimeters
G90 ; use absolute coordinates
M83 ; use relative distances for extrusion
G28 W
G80
G92 E0.0
M203 E100 ; set max feedrate
M92 E140 ; E-steps per filament milimeter

G1 Z0.250 F7200.000
G1 X50.0 E80.0  F1000.0
G1 X160.0 E20.0  F1000.0
G1 Z0.200 F7200.000
G1 X220.0 E13 F1000.0
G1 X240.0 E0 F1000.0

G92 E0.0
M900 K200; Filament gcode
G21 ; set units to millimeters
G90 ; use absolute coordinates
M83 ; use relative distances for extrusion
T1
M900 K200; Filament gcode
;BEFORE_LAYER_CHANGE
G92 E0.0
;0.2


G1 Z0.200 F10800.000
;AFTER_LAYER_CHANGE
;0.2
G1 E-4.00000 F4800.00000
G1 Z0.800 F10800.000
G1 X98.714 Y49.216
G1 Z0.200
G1 E4.00000 F3000.00000
M204 S1000
G1 F1200
G1 X99.412 Y47.914 E0.04631
G1 X100.058 Y47.017 E0.03466
G1 X100.774 Y46.228 E0.03341
G1 X101.573 Y45.523 E0.03341
G1 X102.478 Y44.888 E0.03467
G1 X103.410 Y44.380 E0.03329
G1 X104.784 Y43.849 E0.04619
G1 X105.859 Y43.590 E0.03467
G1 X106.909 Y43.460 E0.03318
G1 X127.389 Y43.201 E0.64217
G1 X167.449 Y43.051 E1.25608
G1 X187.738 Y43.886 E0.63667
G1 X188.770 Y43.987 E0.03251
G1 X189.816 Y44.205 E0.03352
G1 X191.243 Y44.709 E0.04745
G1 X192.233 Y45.217 E0.03489
G1 X193.161 Y45.839 E0.03501
G1 X194.267 Y46.817 E0.04631
G1 X194.996 Y47.658 E0.03489
G1 X195.624 Y48.581 E0.03501
G1 X196.285 Y49.901 E0.04631
G1 X196.652 Y50.972 E0.03546
G1 X196.877 Y51.991 E0.03272
G1 X196.993 Y53.079 E0.03432
G1 X197.805 Y83.514 E0.95462
G1 X196.990 Y142.916 E1.86269
G1 X196.873 Y144.012 E0.03455
G1 X196.628 Y145.098 E0.03490
G1 X196.113 Y146.486 E0.04642
G1 X195.589 Y147.472 E0.03501
G1 X194.960 Y148.381 E0.03466
G1 X193.970 Y149.472 E0.04619
G1 X193.119 Y150.189 E0.03489
G1 X192.229 Y150.782 E0.03352
G1 X191.246 Y151.287 E0.03466
G1 X189.854 Y151.782 E0.04631
G1 X188.765 Y152.012 E0.03489
G1 X187.668 Y152.114 E0.03455
G1 X147.290 Y152.100 E1.26603
G1 X127.218 Y151.959 E0.62936
G1 X106.380 Y150.878 E0.65424
G1 X105.295 Y150.687 E0.03455
G1 X104.280 Y150.389 E0.03318
G1 X103.300 Y149.980 E0.03329
G1 X102.389 Y149.478 E0.03260
G1 X101.503 Y148.854 E0.03398
G1 X100.672 Y148.114 E0.03489
G1 X99.709 Y146.994 E0.04631
G1 X99.106 Y146.067 E0.03466
G1 X98.627 Y145.111 E0.03352
G1 X98.245 Y144.067 E0.03486
G1 X97.926 Y142.632 E0.04611
G1 X97.831 Y141.527 E0.03478
G1 X97.673 Y114.300 E0.85367
G1 X97.894 Y52.883 E1.92571
G1 X97.989 Y51.749 E0.03568
G1 X98.322 Y50.265 E0.04768
G1 X98.693 Y49.272 E0.03324
; PURGING FINISHED
G1 E-2.40000 F4800.00000
G1 F8640
G1 X99.412 Y47.914 E-0.81084
G1 X100.058 Y47.017 E-0.58349
G1 X100.218 Y46.841 E-0.12567
G1 E-0.08000 F4800.00000
G1 Z0.800 F10800.000
G1 X107.015 Y139.226
G1 Z0.200
G1 E4.00000 F3000.00000
G1 F1200
G1 X107.492 Y139.168 E0.01508
G1 X107.785 Y139.185 E0.00917
G1 X108.240 Y139.297 E0.01471
G1 X108.503 Y139.415 E0.00902
G1 X108.903 Y139.691 E0.01525
G1 X109.237 Y140.069 E0.01581
G1 X109.471 Y140.515 E0.01580
G1 X109.587 Y140.982 E0.01508
G1 X109.604 Y141.256 E0.00861
G1 X109.588 Y141.526 E0.00849
G1 X109.471 Y141.999 E0.01525
G1 X109.237 Y142.445 E0.01581
G1 X108.903 Y142.822 E0.01581
G1 X108.503 Y143.099 E0.01525
G1 X108.240 Y143.217 E0.00902
G1 X107.785 Y143.329 E0.01468
G1 X107.516 Y143.345 E0.00847
G1 X107.246 Y143.329 E0.00847
G1 X106.774 Y143.212 E0.01525
G1 X106.328 Y142.978 E0.01581
G1 X105.964 Y142.656 E0.01525
G1 X105.786 Y142.429 E0.00902
G1 X105.560 Y141.999 E0.01525
G1 X105.444 Y141.526 E0.01525
G1 X105.428 Y141.257 E0.00847
G1 X105.444 Y140.987 E0.00847
G1 X105.560 Y140.515 E0.01525
G1 X105.786 Y140.085 E0.01525
G1 X105.953 Y139.872 E0.00847
G1 X106.144 Y139.681 E0.00847
G1 X106.544 Y139.405 E0.01525
G1 X106.959 Y139.248 E0.01392
G1 X107.093 Y139.600 F10800.000
G1 F1200
G1 X107.505 Y139.546 E0.01302
G1 X107.728 Y139.559 E0.00702
G1 X108.117 Y139.655 E0.01254
G1 X108.317 Y139.745 E0.00688
G1 X108.651 Y139.976 E0.01274
G1 X108.924 Y140.285 E0.01294
G1 X109.116 Y140.650 E0.01293
G1 X109.213 Y141.040 E0.01258
G1 X109.226 Y141.257 E0.00682
G1 X109.213 Y141.469 E0.00669
G1 X109.116 Y141.864 E0.01274
G1 X108.924 Y142.229 E0.01294
G1 X108.651 Y142.538 E0.01294
G1 X108.317 Y142.769 E0.01274
G1 X108.117 Y142.859 E0.00688
G1 X107.728 Y142.954 E0.01253
G1 X107.516 Y142.967 E0.00668
G1 X107.303 Y142.954 E0.00668
G1 X106.909 Y142.857 E0.01274
G1 X106.544 Y142.665 E0.01294
G1 X106.240 Y142.396 E0.01274
G1 X106.104 Y142.223 E0.00688
G1 X105.916 Y141.864 E0.01274
G1 X105.818 Y141.469 E0.01274
G1 X105.806 Y141.257 E0.00668
G1 X105.818 Y141.044 E0.00668
G1 X105.916 Y140.650 E0.01274
G1 X106.104 Y140.290 E0.01274
G1 X106.236 Y140.123 E0.00668
G1 X106.386 Y139.972 E0.00668
G1 X106.721 Y139.741 E0.01274
G1 X107.037 Y139.621 E0.01060
G1 X107.202 Y139.215 F10800.000
G1 E-2.40000 F4800.00000
G1 F8640
G1 X107.505 Y139.546 E-0.25012
G1 X107.728 Y139.559 E-0.11816
G1 X108.117 Y139.655 E-0.21116
G1 X108.317 Y139.745 E-0.11574
G1 X108.651 Y139.976 E-0.21438
G1 X108.924 Y140.285 E-0.21776
G1 X109.116 Y140.650 E-0.21772
G1 X109.196 Y140.972 E-0.17495
G1 E-0.08000 F4800.00000
G1 Z0.800 F10800.000
G1 X105.560 Y134.627
G1 Z0.200
G1 E4.00000 F3000.00000
G1 F1200
G1 X106.295 Y134.454 E0.02367
G1 X107.045 Y134.361 E0.02369
G1 X107.758 Y134.350 E0.02237
G1 X108.170 Y134.375 E0.01292
G1 X108.922 Y134.489 E0.02387
G1 X109.652 Y134.683 E0.02367
G1 X110.356 Y134.955 E0.02367
G1 X111.026 Y135.303 E0.02367
G1 X111.655 Y135.721 E0.02367
G1 X112.240 Y136.210 E0.02392
G1 X112.497 Y136.464 E0.01134
G1 X112.995 Y137.043 E0.02392
G1 X113.422 Y137.666 E0.02369
G1 X113.760 Y138.294 E0.02237
G1 X114.058 Y139.024 E0.02470
G1 X114.264 Y139.758 E0.02392
G1 X114.387 Y140.503 E0.02367
G1 X114.428 Y141.257 E0.02367
G1 X114.387 Y142.011 E0.02367
G1 X114.263 Y142.756 E0.02369
G1 X114.072 Y143.443 E0.02237
G1 X113.931 Y143.831 E0.01292
G1 X113.609 Y144.520 E0.02387
G1 X113.217 Y145.165 E0.02367
G1 X112.756 Y145.764 E0.02369
G1 X112.263 Y146.280 E0.02237
G1 X111.956 Y146.555 E0.01292
G1 X111.346 Y147.011 E0.02387
G1 X110.696 Y147.394 E0.02367
G1 X110.008 Y147.704 E0.02367
G1 X109.290 Y147.937 E0.02367
G1 X108.550 Y148.091 E0.02369
G1 X107.840 Y148.161 E0.02237
G1 X107.428 Y148.169 E0.01292
G1 X106.668 Y148.117 E0.02388
G1 X105.965 Y147.992 E0.02237
G1 X105.566 Y147.889 E0.01292
G1 X104.849 Y147.634 E0.02387
G1 X104.169 Y147.305 E0.02369
G1 X103.564 Y146.927 E0.02237
G1 X103.232 Y146.682 E0.01292
G1 X102.662 Y146.178 E0.02387
G1 X102.154 Y145.619 E0.02367
G1 X101.706 Y145.002 E0.02392
G1 X101.518 Y144.693 E0.01134
G1 X101.176 Y144.011 E0.02392
G1 X100.914 Y143.303 E0.02367
G1 X100.730 Y142.571 E0.02367
G1 X100.627 Y141.823 E0.02367
G1 X100.606 Y141.068 E0.02367
G1 X100.668 Y140.316 E0.02367
G1 X100.812 Y139.575 E0.02367
G1 X101.038 Y138.846 E0.02392
G1 X101.172 Y138.510 E0.01134
G1 X101.518 Y137.821 E0.02417
G1 X101.706 Y137.512 E0.01134
G1 X102.154 Y136.895 E0.02392
G1 X102.662 Y136.336 E0.02369
G1 X103.196 Y135.862 E0.02237
G1 X103.525 Y135.613 E0.01292
G1 X104.169 Y135.209 E0.02387
G1 X104.849 Y134.880 E0.02367
G1 X105.504 Y134.647 E0.02179
G1 X105.377 Y134.292 F10800.000
G1 F1200
G1 X106.228 Y134.082 E0.02748
G1 X107.019 Y133.984 E0.02497
G1 X107.767 Y133.973 E0.02347
G1 X108.210 Y134.000 E0.01390
G1 X108.999 Y134.120 E0.02503
G1 X109.769 Y134.324 E0.02496
G1 X110.511 Y134.611 E0.02496
G1 X111.218 Y134.977 E0.02496
G1 X111.881 Y135.418 E0.02496
G1 X112.494 Y135.931 E0.02505
G1 X112.773 Y136.207 E0.01231
G1 X113.294 Y136.813 E0.02505
G1 X113.744 Y137.469 E0.02497
G1 X114.099 Y138.129 E0.02347
G1 X114.279 Y138.537 E0.01399
G1 X114.417 Y138.907 E0.01238
G1 X114.632 Y139.676 E0.02505
G1 X114.762 Y140.462 E0.02496
G1 X114.806 Y141.257 E0.02496
G1 X114.762 Y142.052 E0.02496
G1 X114.632 Y142.838 E0.02497
G1 X114.432 Y143.559 E0.02347
G1 X114.280 Y143.975 E0.01390
G1 X113.942 Y144.699 E0.02503
G1 X113.528 Y145.379 E0.02496
G1 X113.043 Y146.010 E0.02497
G1 X112.525 Y146.551 E0.02347
G1 X112.195 Y146.847 E0.01390
G1 X111.555 Y147.325 E0.02503
G1 X110.870 Y147.729 E0.02496
G1 X110.144 Y148.056 E0.02496
G1 X109.387 Y148.302 E0.02496
G1 X108.607 Y148.465 E0.02497
G1 X107.862 Y148.537 E0.02347
G1 X107.419 Y148.546 E0.01390
G1 X106.622 Y148.492 E0.02504
G1 X105.885 Y148.361 E0.02347
G1 X105.456 Y148.250 E0.01390
G1 X104.703 Y147.982 E0.02503
G1 X103.986 Y147.635 E0.02497
G1 X103.352 Y147.239 E0.02347
G1 X102.995 Y146.975 E0.01390
G1 X102.397 Y146.447 E0.02503
G1 X101.861 Y145.857 E0.02496
G1 X101.392 Y145.211 E0.02505
G1 X101.188 Y144.876 E0.01231
G1 X100.830 Y144.161 E0.02505
G1 X100.553 Y143.415 E0.02496
G1 X100.359 Y142.642 E0.02496
G1 X100.251 Y141.854 E0.02496
G1 X100.229 Y141.058 E0.02496
G1 X100.294 Y140.264 E0.02496
G1 X100.445 Y139.483 E0.02496
G1 X100.682 Y138.719 E0.02505
G1 X100.828 Y138.355 E0.01231
G1 X101.188 Y137.638 E0.02514
G1 X101.392 Y137.303 E0.01231
G1 X101.861 Y136.656 E0.02505
G1 X102.397 Y136.067 E0.02497
G1 X102.957 Y135.570 E0.02347
G1 X103.310 Y135.303 E0.01390
G1 X103.987 Y134.879 E0.02503
G1 X104.703 Y134.532 E0.02496
G1 X105.321 Y134.312 E0.02055
G1 X105.669 Y134.566 F10800.000
G1 E-2.40000 F4800.00000
G1 F8640
G1 X106.228 Y134.082 E-0.49405
G1 X107.019 Y133.984 E-0.42029
G1 X107.767 Y133.973 E-0.39504
G1 X108.165 Y133.997 E-0.21062
G1 E-0.08000 F4800.00000
G1 Z0.800 F10800.000
G1 X111.158 Y135.526
G1 Z0.200
G1 E4.00000 F3000.00000
G1 F1200
G1 X113.257 Y137.625 E0.09349
G1 X113.808 Y138.712 F10800.000
G1 F1200
G1 X110.385 Y135.289 E0.15248
G1 X110.240 Y135.214 E0.00515
G1 X109.494 Y134.934 E0.02506
G1 X113.834 Y139.274 E0.19327
G1 X113.987 Y139.820 E0.01786
G1 X114.015 Y139.990 E0.00545
G1 X108.779 Y134.754 E0.23322
G1 X108.147 Y134.658 E0.02010
G1 X114.110 Y140.621 E0.26555
G1 X114.141 Y141.187 E0.01787
G1 X107.589 Y134.635 E0.29180
G1 X107.062 Y134.644 E0.01660
G1 X114.120 Y141.702 E0.31436
G1 X114.105 Y141.980 E0.00875
G1 X114.071 Y142.188 E0.00665
G1 X106.585 Y134.703 E0.33338
G1 X106.345 Y134.732 E0.00762
G1 X106.130 Y134.783 E0.00696
G1 X113.995 Y142.648 E0.35026
G1 X113.882 Y143.071 E0.01379
G1 X105.697 Y134.886 E0.36455
G1 X105.297 Y135.021 E0.01330
G1 X113.757 Y143.482 E0.37680
G1 X113.604 Y143.864 E0.01297
G1 X104.906 Y135.166 E0.38734
G1 X104.546 Y135.341 E0.01263
G1 X108.201 Y138.996 E0.16278
G1 X107.827 Y138.904 E0.01212
G1 X107.557 Y138.889 E0.00850
G1 X104.195 Y135.527 E0.14973
G1 X103.866 Y135.733 E0.01224
G1 X107.068 Y138.935 E0.14261
G1 X106.947 Y138.950 E0.00385
G1 X106.657 Y139.060 E0.00976
G1 X103.548 Y135.950 E0.13848
G1 X103.252 Y136.190 E0.01199
G1 X106.295 Y139.233 E0.13552
G1 X105.978 Y139.452 E0.01213
G1 X102.968 Y136.442 E0.13405
G1 X102.703 Y136.712 E0.01193
G1 X105.712 Y139.721 E0.13403
G1 X105.548 Y139.931 E0.00838
G1 X105.492 Y140.037 E0.00378
G1 X102.448 Y136.992 E0.13559
G1 X102.214 Y137.294 E0.01202
G1 X105.308 Y140.388 E0.13780
G1 X105.196 Y140.812 E0.01380
G1 X101.988 Y137.604 E0.14286
G1 X101.781 Y137.933 E0.01223
G1 X105.147 Y141.299 E0.14991
G1 X105.163 Y141.569 E0.00853
G1 X105.255 Y141.943 E0.01212
G1 X101.600 Y138.288 E0.16278
G1 X101.423 Y138.646 E0.01259
G1 X110.120 Y147.343 E0.38735
G1 X110.490 Y147.177 E0.01275
G1 X106.830 Y143.517 E0.16298
G1 X107.204 Y143.609 E0.01212
G1 X107.474 Y143.626 E0.00853
G1 X110.833 Y146.985 E0.14960
G1 X111.170 Y146.786 E0.01232
G1 X107.961 Y143.577 E0.14293
G1 X108.382 Y143.463 E0.01375
G1 X111.478 Y146.559 E0.13788
G1 X111.784 Y146.329 E0.01205
G1 X108.736 Y143.281 E0.13575
G1 X109.053 Y143.062 E0.01213
G1 X112.067 Y146.076 E0.13422
G1 X112.329 Y145.802 E0.01193
G1 X109.313 Y142.786 E0.13432
G1 X109.472 Y142.607 E0.00755
G1 X109.539 Y142.477 E0.00460
G1 X112.585 Y145.523 E0.13564
G1 X112.818 Y145.220 E0.01203
G1 X109.724 Y142.126 E0.13780
G1 X109.836 Y141.702 E0.01380
G1 X113.042 Y144.909 E0.14280
G1 X113.244 Y144.576 E0.01228
G1 X109.885 Y141.216 E0.14962
G1 X109.867 Y140.939 E0.00876
G1 X109.777 Y140.572 E0.01188
G1 X113.561 Y144.356 E0.16853
G1 E-2.40000 F4800.00000
G1 F8640
G1 X111.524 Y142.320 E-1.52000
G1 E-0.08000 F4800.00000
G1 Z0.800 F10800.000
G1 X109.871 Y147.630
G1 Z0.200
G1 E4.00000 F3000.00000
G1 F1200
G1 X101.275 Y139.034 E0.38282
G1 X101.149 Y139.443 E0.01348
G1 X109.332 Y147.626 E0.36446
G1 X108.900 Y147.730 E0.01400
G1 X101.042 Y139.872 E0.34995
G1 X100.955 Y140.321 E0.01439
G1 X108.451 Y147.817 E0.33384
G1 X107.963 Y147.864 E0.01544
G1 X100.911 Y140.812 E0.31408
G1 X100.890 Y141.076 E0.00833
G1 X100.897 Y141.333 E0.00811
G1 X107.449 Y147.885 E0.29182
G1 X106.875 Y147.847 E0.01810
G1 X100.922 Y141.895 E0.26512
G1 X101.008 Y142.516 E0.01974
G1 X106.247 Y147.755 E0.23334
G1 X106.025 Y147.715 E0.00709
G1 X105.533 Y147.577 E0.01610
G1 X101.189 Y143.233 E0.19348
G1 X101.436 Y143.898 E0.02235
G1 X101.553 Y144.132 E0.00826
G1 X104.982 Y147.561 E0.15270
G1 X103.870 Y146.985 F10800.000
G1 F1200
G1 X101.762 Y144.877 E0.09388
G1 E-2.40000 F4800.00000
G1 F8640
G1 X103.798 Y146.913 E-1.52000
G1 E-0.08000 F4800.00000
G1 Z0.800 F10800.000
G1 X125.432 Y143.014
G1 Z0.200
G1 E4.00000 F3000.00000
G1 F1200
G1 X125.315 Y142.542 E0.01525
G1 X125.299 Y142.272 E0.00847
G1 X125.315 Y142.003 E0.00847
G1 X125.432 Y141.531 E0.01525
G1 X125.658 Y141.100 E0.01525
G1 X125.824 Y140.887 E0.00847
G1 X126.015 Y140.697 E0.00847
G1 X126.415 Y140.420 E0.01525
G1 X126.886 Y140.242 E0.01580
G1 X127.364 Y140.183 E0.01508
G1 X127.656 Y140.200 E0.00917
G1 X128.111 Y140.312 E0.01471
G1 X128.374 Y140.431 E0.00902
G1 X128.774 Y140.707 E0.01525
G1 X129.108 Y141.084 E0.01581
G1 X129.342 Y141.530 E0.01580
G1 X129.458 Y141.997 E0.01508
G1 X129.475 Y142.271 E0.00861
G1 X129.459 Y142.542 E0.00849
G1 X129.343 Y143.014 E0.01525
G1 X129.108 Y143.460 E0.01581
G1 X128.774 Y143.838 E0.01581
G1 X128.374 Y144.114 E0.01525
G1 X128.111 Y144.232 E0.00902
G1 X127.657 Y144.344 E0.01468
G1 X127.387 Y144.360 E0.00847
G1 X127.118 Y144.344 E0.00847
G1 X126.645 Y144.228 E0.01525
G1 X126.199 Y143.993 E0.01581
G1 X125.835 Y143.671 E0.01525
G1 X125.658 Y143.444 E0.00902
G1 X125.459 Y143.067 E0.01336
G1 X125.793 Y142.892 F10800.000
G1 F1200
G1 X125.690 Y142.485 E0.01317
G1 X125.677 Y142.272 E0.00668
G1 X125.690 Y142.060 E0.00668
G1 X125.787 Y141.665 E0.01274
G1 X125.976 Y141.306 E0.01274
G1 X126.107 Y141.138 E0.00668
G1 X126.257 Y140.987 E0.00668
G1 X126.592 Y140.757 E0.01274
G1 X126.977 Y140.610 E0.01293
G1 X127.376 Y140.562 E0.01258
G1 X127.599 Y140.575 E0.00702
G1 X127.988 Y140.670 E0.01254
G1 X128.188 Y140.760 E0.00688
G1 X128.522 Y140.991 E0.01274
G1 X128.796 Y141.300 E0.01294
G1 X128.987 Y141.665 E0.01293
G1 X129.084 Y142.055 E0.01258
G1 X129.097 Y142.272 E0.00682
G1 X129.085 Y142.485 E0.00669
G1 X128.987 Y142.879 E0.01274
G1 X128.796 Y143.244 E0.01294
G1 X128.522 Y143.553 E0.01294
G1 X128.188 Y143.784 E0.01274
G1 X127.988 Y143.874 E0.00688
G1 X127.600 Y143.970 E0.01253
G1 X127.387 Y143.983 E0.00668
G1 X127.175 Y143.970 E0.00668
G1 X126.780 Y143.873 E0.01274
G1 X126.415 Y143.681 E0.01294
G1 X126.111 Y143.411 E0.01274
G1 X125.976 Y143.239 E0.00688
G1 X125.821 Y142.945 E0.01041
G1 X125.399 Y142.822 F10800.000
G1 E-2.40000 F4800.00000
G1 F8640
G1 X125.690 Y142.485 E-0.25258
G1 X125.677 Y142.272 E-0.11237
G1 X125.690 Y142.060 E-0.11237
G1 X125.787 Y141.665 E-0.21438
G1 X125.976 Y141.306 E-0.21438
G1 X126.107 Y141.138 E-0.11237
G1 X126.257 Y140.987 E-0.11238
