; generated by Slic3r Prusa Edition 1.41.2+win64 on 2019-02-02 at 10:36:35

; 

; external perimeters extrusion width = 0.60mm
; perimeters extrusion width = 0.43mm
; infill extrusion width = 0.45mm
; solid infill extrusion width = 0.70mm
; top infill extrusion width = 0.43mm
; first layer extrusion width = 0.42mm

M201 X9000 Y9000 Z500 E10000 ; sets maximum accelerations, mm/sec^2
M203 X500 Y500 Z12 E120 ; sets maximum feedrates, mm/sec
M204 P2000 R1500 T2000 ; sets acceleration (P, T) and retract acceleration (R), mm/sec^2
M205 X10.00 Y10.00 Z0.20 E2.50 ; sets the jerk limits, mm/sec
M205 S0 T0 ; sets the minimum extruding and travel feed rate, mm/sec
M107
M115 U3.1.0 ; tell printer latest fw version
M204 S2000 T1500 ; MK2 firmware only supports the old M204 format
; Start G-Code sequence START
T0
M104 S215 ; set extruder temp
M140 S60 ; set bed temp
M190 S60 ; wait for bed temp
M109 S215 ; wait for extruder temp
G21 ; set units to millimeters
G90 ; use absolute coordinates
M83 ; use relative distances for extrusion
G28 W
G80
G92 E0.0
M203 E100 ; set max feedrate
M92 E140 ; E-steps per filament milimeter

G1 Z0.250 F7200.000
G1 X50.0 E80.0  F1000.0
G1 X160.0 E20.0  F1000.0
G1 Z0.200 F7200.000
G1 X220.0 E13 F1000.0
G1 X240.0 E0 F1000.0

G92 E0.0
M900 K200; Filament gcode
G21 ; set units to millimeters
G90 ; use absolute coordinates
M83 ; use relative distances for extrusion
;BEFORE_LAYER_CHANGE
G92 E0.0
;0.2


G1 Z0.200 F10800.000
;AFTER_LAYER_CHANGE
;0.2
G1 E-4.00000 F4800.00000
G1 Z0.800 F10800.000
G1 X101.193 Y85.847
G1 Z0.200
G1 E4.00000 F3000.00000
M204 S1000
G1 F1200
G1 X103.142 Y84.851 E0.06863
G1 X104.325 Y84.437 E0.03928
G1 X105.559 Y84.140 E0.03980
G1 X107.782 Y83.924 E0.07003
G1 X187.413 Y84.420 E2.49683
G1 X189.424 Y84.571 E0.06322
G1 X190.704 Y84.840 E0.04102
G1 X191.924 Y85.231 E0.04015
G1 X193.152 Y85.771 E0.04207
G1 X193.983 Y86.231 E0.02977
G1 X195.035 Y86.939 E0.03980
G1 X196.072 Y87.808 E0.04242
G1 X197.010 Y88.784 E0.04242
G1 X197.789 Y89.786 E0.03980
G1 X198.304 Y90.583 E0.02977
G1 X198.929 Y91.777 E0.04224
G1 X199.404 Y92.972 E0.04032
G1 X199.763 Y94.253 E0.04172
G1 X200.056 Y96.456 E0.06968
G1 X200.049 Y97.720 E0.03963
G1 X199.901 Y99.059 E0.04224
G1 X199.398 Y101.064 E0.06481
G1 X198.580 Y102.950 E0.06446
G1 X197.462 Y104.682 E0.06463
G1 X196.080 Y106.204 E0.06446
G1 X194.460 Y107.488 E0.06481
G1 X192.662 Y108.484 E0.06446
G1 X190.720 Y109.176 E0.06464
G1 X188.724 Y109.539 E0.06359
G1 X187.395 Y109.600 E0.04172
G1 X147.946 Y109.712 E1.23690
G1 X107.685 Y109.103 E1.26251
G1 X105.734 Y108.920 E0.06145
G1 X103.575 Y108.345 E0.07003
G1 X102.401 Y107.850 E0.03998
G1 X101.302 Y107.248 E0.03927
G1 X99.542 Y105.947 E0.06864
G1 X98.038 Y104.364 E0.06846
G1 X97.306 Y103.347 E0.03928
G1 X96.675 Y102.252 E0.03963
G1 X95.848 Y100.219 E0.06881
G1 X95.524 Y98.929 E0.04172
G1 X95.345 Y97.678 E0.03962
G1 X95.333 Y95.483 E0.06881
G1 X95.703 Y93.320 E0.06880
G1 X96.084 Y92.115 E0.03963
G1 X96.614 Y90.895 E0.04173
G1 X97.762 Y89.024 E0.06881
G1 X98.559 Y88.051 E0.03945
G1 X99.451 Y87.164 E0.03944
G1 X101.145 Y85.883 E0.06658
G1 E-2.40000 F4800.00000
G1 F8640
G1 X103.142 Y84.851 E-1.18649
G1 X103.739 Y84.642 E-0.33351
G1 E-0.08000 F4800.00000
G1 Z0.800 F10800.000
G1 X117.877 Y89.521
G1 Z0.200
G1 E4.00000 F3000.00000
G1 F1200
G1 X118.326 Y88.917 E0.02359
G1 X119.166 Y87.999 E0.03902
G1 X120.137 Y87.139 E0.04068
G1 X121.109 Y86.442 E0.03750
G1 X121.921 Y85.960 E0.02959
G1 X123.110 Y85.396 E0.04127
G1 X124.397 Y84.950 E0.04271
G1 X125.635 Y84.667 E0.03983
G1 X126.916 Y84.512 E0.04046
G1 X128.319 Y84.497 E0.04399
G1 X129.408 Y84.599 E0.03430
G1 X130.327 Y84.761 E0.02926
G1 X131.584 Y85.104 E0.04084
G1 X132.806 Y85.583 E0.04115
G1 X133.711 Y86.045 E0.03185
G1 X134.585 Y86.582 E0.03217
G1 X135.627 Y87.372 E0.04099
G1 X136.581 Y88.270 E0.04109
G1 X137.370 Y89.184 E0.03786
G1 X138.061 Y90.165 E0.03762
G1 X138.643 Y89.374 E0.03081
G1 X139.524 Y88.411 E0.04091
G1 X140.482 Y87.564 E0.04009
G1 X141.467 Y86.858 E0.03801
G1 X142.265 Y86.385 E0.02910
G1 X143.454 Y85.821 E0.04125
G1 X144.722 Y85.381 E0.04208
G1 X146.003 Y85.088 E0.04120
G1 X147.327 Y84.933 E0.04179
G1 X148.645 Y84.922 E0.04135
G1 X149.784 Y85.029 E0.03587
G1 X150.673 Y85.187 E0.02830
G1 X151.927 Y85.529 E0.04076
G1 X153.130 Y86.000 E0.04048
G1 X154.053 Y86.469 E0.03247
G1 X154.913 Y86.997 E0.03166
G1 X155.954 Y87.783 E0.04088
G1 X156.937 Y88.709 E0.04236
G1 X157.849 Y89.763 E0.04369
G1 X158.275 Y89.190 E0.02238
G1 X159.115 Y88.272 E0.03903
G1 X160.102 Y87.399 E0.04131
G1 X161.059 Y86.714 E0.03689
G1 X161.870 Y86.233 E0.02957
G1 X163.037 Y85.677 E0.04055
G1 X164.283 Y85.241 E0.04139
G1 X165.646 Y84.929 E0.04385
G1 X166.970 Y84.778 E0.04176
G1 X168.210 Y84.768 E0.03891
G1 X169.420 Y84.881 E0.03810
G1 X170.311 Y85.042 E0.02839
G1 X171.573 Y85.391 E0.04107
G1 X172.772 Y85.865 E0.04041
G1 X173.672 Y86.325 E0.03169
G1 X174.518 Y86.844 E0.03112
G1 X175.576 Y87.645 E0.04160
G1 X176.545 Y88.559 E0.04178
G1 X177.333 Y89.476 E0.03792
G1 X177.598 Y89.857 E0.01454
G1 X178.064 Y89.230 E0.02449
G1 X178.905 Y88.312 E0.03904
G1 X179.892 Y87.439 E0.04132
G1 X180.862 Y86.745 E0.03739
G1 X181.644 Y86.281 E0.02849
G1 X182.827 Y85.717 E0.04109
G1 X184.092 Y85.275 E0.04203
G1 X185.394 Y84.976 E0.04187
G1 X186.780 Y84.816 E0.04377
G1 X188.020 Y84.809 E0.03887
G1 X189.227 Y84.923 E0.03800
G1 X190.117 Y85.086 E0.02838
G1 X191.359 Y85.429 E0.04041
G1 X192.473 Y85.864 E0.03749
G1 X193.531 Y86.404 E0.03725
G1 X194.388 Y86.940 E0.03169
G1 X195.429 Y87.739 E0.04116
G1 X196.333 Y88.598 E0.03908
G1 X197.143 Y89.542 E0.03901
G1 X197.781 Y90.455 E0.03492
G1 X198.322 Y91.392 E0.03393
G1 X198.847 Y92.547 E0.03977
G1 X199.248 Y93.748 E0.03970
G1 X199.518 Y94.955 E0.03879
G1 X199.662 Y96.168 E0.03830
G1 X199.690 Y97.184 E0.03186
G1 X199.607 Y98.449 E0.03977
G1 X199.403 Y99.651 E0.03820
G1 X199.080 Y100.826 E0.03822
G1 X198.616 Y102.019 E0.04012
G1 X198.220 Y102.822 E0.02808
G1 X197.482 Y104.017 E0.04404
G1 X196.741 Y104.970 E0.03784
G1 X195.904 Y105.851 E0.03811
G1 X194.932 Y106.684 E0.04012
G1 X194.189 Y107.214 E0.02865
G1 X192.982 Y107.913 E0.04372
G1 X191.944 Y108.378 E0.03565
G1 X191.080 Y108.679 E0.02869
G1 X189.878 Y108.985 E0.03888
G1 X188.656 Y109.166 E0.03874
G1 X187.274 Y109.221 E0.04338
G1 X186.067 Y109.141 E0.03791
G1 X184.945 Y108.955 E0.03567
G1 X183.917 Y108.692 E0.03327
G1 X182.711 Y108.254 E0.04023
G1 X181.574 Y107.701 E0.03965
G1 X180.575 Y107.084 E0.03682
G1 X179.818 Y106.521 E0.02956
G1 X178.828 Y105.632 E0.04171
G1 X178.008 Y104.722 E0.03844
G1 X177.572 Y104.130 E0.02304
G1 X176.966 Y104.914 E0.03108
G1 X176.086 Y105.839 E0.04003
G1 X175.129 Y106.655 E0.03943
G1 X174.370 Y107.193 E0.02917
G1 X173.264 Y107.837 E0.04013
G1 X172.108 Y108.356 E0.03971
G1 X171.290 Y108.639 E0.02716
G1 X170.066 Y108.950 E0.03959
G1 X168.720 Y109.140 E0.04261
G1 X167.502 Y109.182 E0.03823
G1 X166.295 Y109.104 E0.03790
G1 X165.155 Y108.915 E0.03626
G1 X164.163 Y108.663 E0.03207
G1 X162.939 Y108.222 E0.04079
G1 X161.766 Y107.651 E0.04091
G1 X160.771 Y107.034 E0.03673
G1 X160.014 Y106.470 E0.02958
G1 X159.055 Y105.608 E0.04044
G1 X158.257 Y104.729 E0.03722
G1 X157.947 Y104.308 E0.01638
G1 X157.333 Y105.098 E0.03138
G1 X156.466 Y106.006 E0.03937
G1 X155.524 Y106.807 E0.03875
G1 X154.780 Y107.336 E0.02861
G1 X153.642 Y107.998 E0.04129
G1 X152.489 Y108.514 E0.03962
G1 X151.684 Y108.792 E0.02669
G1 X150.461 Y109.102 E0.03958
G1 X149.156 Y109.288 E0.04133
G1 X147.895 Y109.334 E0.03955
G1 X146.651 Y109.251 E0.03910
G1 X145.549 Y109.067 E0.03503
G1 X144.560 Y108.816 E0.03200
G1 X143.336 Y108.375 E0.04077
G1 X142.197 Y107.823 E0.03971
G1 X141.154 Y107.178 E0.03845
G1 X140.411 Y106.624 E0.02904
G1 X139.479 Y105.789 E0.03924
G1 X138.628 Y104.851 E0.03971
G1 X137.764 Y103.678 E0.04567
G1 X136.990 Y104.673 E0.03952
G1 X136.136 Y105.567 E0.03878
G1 X135.136 Y106.416 E0.04110
G1 X134.390 Y106.941 E0.02862
G1 X133.297 Y107.573 E0.03960
G1 X132.128 Y108.096 E0.04015
G1 X131.340 Y108.366 E0.02610
G1 X130.117 Y108.677 E0.03957
G1 X128.771 Y108.867 E0.04263
G1 X127.551 Y108.909 E0.03827
G1 X126.325 Y108.828 E0.03851
G1 X125.204 Y108.642 E0.03563
G1 X124.214 Y108.390 E0.03203
G1 X122.972 Y107.941 E0.04143
G1 X121.817 Y107.378 E0.04026
G1 X120.836 Y106.770 E0.03620
G1 X120.054 Y106.187 E0.03058
G1 X119.121 Y105.350 E0.03929
G1 X118.310 Y104.458 E0.03783
G1 X117.746 Y103.698 E0.02967
G1 X117.130 Y104.490 E0.03147
G1 X116.277 Y105.384 E0.03876
G1 X115.321 Y106.199 E0.03938
G1 X114.563 Y106.737 E0.02913
G1 X113.475 Y107.371 E0.03950
G1 X112.285 Y107.906 E0.04090
G1 X111.482 Y108.183 E0.02663
G1 X110.300 Y108.486 E0.03827
G1 X108.974 Y108.679 E0.04199
G1 X107.692 Y108.726 E0.04022
G1 X106.390 Y108.636 E0.04093
G1 X105.312 Y108.452 E0.03428
G1 X104.285 Y108.186 E0.03327
G1 X103.096 Y107.751 E0.03970
G1 X101.960 Y107.197 E0.03963
G1 X100.977 Y106.588 E0.03624
G1 X100.167 Y105.982 E0.03172
G1 X99.232 Y105.138 E0.03951
G1 X98.388 Y104.199 E0.03959
G1 X97.716 Y103.283 E0.03560
G1 X97.199 Y102.432 E0.03123
G1 X96.618 Y101.238 E0.04162
G1 X96.175 Y99.996 E0.04136
G1 X95.877 Y98.763 E0.03978
G1 X95.708 Y97.505 E0.03979
G1 X95.672 Y96.203 E0.04086
G1 X95.761 Y95.014 E0.03737
G1 X95.926 Y94.022 E0.03154
G1 X96.249 Y92.792 E0.03987
G1 X96.668 Y91.673 E0.03748
G1 X97.194 Y90.607 E0.03724
G1 X97.716 Y89.746 E0.03158
G1 X98.480 Y88.718 E0.04016
G1 X99.322 Y87.802 E0.03899
G1 X100.248 Y86.981 E0.03882
G1 X101.250 Y86.259 E0.03871
G1 X102.124 Y85.744 E0.03181
G1 X103.250 Y85.213 E0.03906
G1 X104.436 Y84.797 E0.03939
G1 X105.709 Y84.496 E0.04102
G1 X107.032 Y84.331 E0.04180
G1 X108.501 Y84.316 E0.04606
G1 X109.551 Y84.416 E0.03308
G1 X110.452 Y84.575 E0.02868
G1 X111.706 Y84.915 E0.04073
G1 X112.911 Y85.385 E0.04054
G1 X113.876 Y85.876 E0.03397
G1 X114.740 Y86.410 E0.03184
G1 X115.784 Y87.202 E0.04108
G1 X116.750 Y88.117 E0.04171
G1 X117.512 Y89.004 E0.03667
G1 X117.842 Y89.472 E0.01795
G1 X117.869 Y90.167 F10800.000
G1 F1200
G1 X118.611 Y89.164 E0.03910
G1 X119.438 Y88.261 E0.03840
G1 X120.365 Y87.440 E0.03884
G1 X121.322 Y86.753 E0.03693
G1 X122.105 Y86.289 E0.02854
G1 X123.243 Y85.749 E0.03949
G1 X124.491 Y85.316 E0.04142
G1 X125.709 Y85.036 E0.03919
G1 X126.951 Y84.887 E0.03920
G1 X128.294 Y84.874 E0.04211
G1 X129.365 Y84.974 E0.03375
G1 X130.253 Y85.131 E0.02825
G1 X131.474 Y85.465 E0.03971
G1 X132.659 Y85.931 E0.03991
G1 X133.532 Y86.377 E0.03076
G1 X134.364 Y86.888 E0.03062
G1 X135.391 Y87.666 E0.04038
G1 X136.315 Y88.538 E0.03982
G1 X137.078 Y89.423 E0.03666
G1 X137.720 Y90.337 E0.03503
G1 X138.023 Y90.854 E0.01879
G1 X138.929 Y89.621 E0.04798
G1 X139.795 Y88.673 E0.04028
G1 X140.724 Y87.853 E0.03884
G1 X141.679 Y87.170 E0.03684
G1 X142.450 Y86.714 E0.02807
G1 X143.587 Y86.174 E0.03948
G1 X144.816 Y85.746 E0.04079
G1 X146.077 Y85.458 E0.04055
G1 X147.360 Y85.308 E0.04050
G1 X148.620 Y85.298 E0.03950
G1 X149.741 Y85.403 E0.03532
G1 X150.598 Y85.557 E0.02729
G1 X151.818 Y85.890 E0.03965
G1 X152.983 Y86.347 E0.03925
G1 X153.875 Y86.802 E0.03137
G1 X154.708 Y87.314 E0.03067
G1 X155.718 Y88.077 E0.03970
G1 X156.672 Y88.976 E0.04109
G1 X157.399 Y89.819 E0.03491
G1 X157.828 Y90.426 E0.02329
G1 X158.559 Y89.438 E0.03855
G1 X159.387 Y88.534 E0.03840
G1 X160.329 Y87.700 E0.03947
G1 X161.272 Y87.026 E0.03633
G1 X162.054 Y86.562 E0.02853
G1 X163.172 Y86.030 E0.03881
G1 X164.378 Y85.607 E0.04008
G1 X165.700 Y85.302 E0.04252
G1 X166.983 Y85.155 E0.04049
G1 X168.185 Y85.144 E0.03770
G1 X169.361 Y85.253 E0.03703
G1 X170.219 Y85.408 E0.02733
G1 X171.444 Y85.746 E0.03985
G1 X172.625 Y86.212 E0.03980
G1 X173.481 Y86.650 E0.03015
G1 X174.298 Y87.151 E0.03004
G1 X175.325 Y87.926 E0.04034
G1 X176.265 Y88.813 E0.04052
G1 X177.040 Y89.714 E0.03727
G1 X177.586 Y90.508 E0.03020
G1 X178.349 Y89.477 E0.04019
G1 X179.176 Y88.574 E0.03842
G1 X180.119 Y87.740 E0.03947
G1 X181.075 Y87.056 E0.03683
G1 X181.828 Y86.610 E0.02747
G1 X182.961 Y86.070 E0.03934
G1 X184.187 Y85.640 E0.04074
G1 X185.448 Y85.349 E0.04056
G1 X186.793 Y85.193 E0.04248
G1 X187.995 Y85.185 E0.03766
G1 X189.167 Y85.295 E0.03693
G1 X190.025 Y85.452 E0.02734
G1 X191.231 Y85.784 E0.03923
G1 X192.327 Y86.212 E0.03688
G1 X193.338 Y86.728 E0.03561
G1 X194.166 Y87.245 E0.03059
G1 X195.177 Y88.019 E0.03994
G1 X196.053 Y88.851 E0.03787
G1 X196.839 Y89.766 E0.03783
G1 X197.459 Y90.651 E0.03386
G1 X197.983 Y91.557 E0.03281
G1 X198.493 Y92.676 E0.03856
G1 X198.882 Y93.840 E0.03848
G1 X199.144 Y95.009 E0.03757
G1 X199.286 Y96.204 E0.03773
G1 X199.313 Y97.168 E0.03024
G1 X199.233 Y98.396 E0.03859
G1 X199.037 Y99.560 E0.03700
G1 X198.719 Y100.717 E0.03761
G1 X198.268 Y101.874 E0.03894
G1 X197.886 Y102.647 E0.02703
G1 X197.178 Y103.794 E0.04226
G1 X196.449 Y104.731 E0.03723
G1 X195.638 Y105.584 E0.03692
G1 X194.694 Y106.391 E0.03895
G1 X193.977 Y106.902 E0.02759
G1 X192.819 Y107.573 E0.04197
G1 X191.797 Y108.030 E0.03509
G1 X190.978 Y108.316 E0.02719
G1 X189.813 Y108.614 E0.03771
G1 X188.611 Y108.792 E0.03811
G1 X187.269 Y108.844 E0.04211
G1 X186.120 Y108.768 E0.03611
G1 X185.015 Y108.585 E0.03513
G1 X184.019 Y108.329 E0.03222
G1 X182.867 Y107.911 E0.03845
G1 X181.764 Y107.375 E0.03844
G1 X180.780 Y106.767 E0.03626
G1 X180.050 Y106.224 E0.02852
G1 X179.102 Y105.372 E0.03997
G1 X178.294 Y104.476 E0.03782
G1 X177.579 Y103.502 E0.03790
G1 X176.686 Y104.662 E0.04592
G1 X175.834 Y105.559 E0.03879
G1 X174.890 Y106.363 E0.03885
G1 X174.173 Y106.872 E0.02758
G1 X173.083 Y107.506 E0.03955
G1 X171.962 Y108.009 E0.03852
G1 X171.189 Y108.276 E0.02564
G1 X170.003 Y108.578 E0.03839
G1 X168.697 Y108.763 E0.04135
G1 X167.517 Y108.805 E0.03703
G1 X166.329 Y108.728 E0.03731
G1 X165.224 Y108.545 E0.03512
G1 X164.265 Y108.300 E0.03103
G1 X163.077 Y107.871 E0.03962
G1 X161.957 Y107.326 E0.03906
G1 X160.976 Y106.718 E0.03617
G1 X160.247 Y106.173 E0.02854
G1 X159.328 Y105.347 E0.03874
G1 X158.543 Y104.483 E0.03659
G1 X157.957 Y103.680 E0.03119
G1 X157.054 Y104.845 E0.04621
G1 X156.200 Y105.738 E0.03876
G1 X155.299 Y106.504 E0.03708
G1 X154.583 Y107.014 E0.02754
G1 X153.461 Y107.667 E0.04069
G1 X152.343 Y108.166 E0.03842
G1 X151.584 Y108.428 E0.02517
G1 X150.378 Y108.734 E0.03901
G1 X149.113 Y108.914 E0.04006
G1 X147.891 Y108.957 E0.03831
G1 X146.686 Y108.876 E0.03790
G1 X145.619 Y108.697 E0.03391
G1 X144.679 Y108.458 E0.03042
G1 X143.491 Y108.031 E0.03955
G1 X142.386 Y107.497 E0.03848
G1 X141.359 Y106.861 E0.03788
G1 X140.644 Y106.327 E0.02799
G1 X139.738 Y105.515 E0.03815
G1 X138.914 Y104.605 E0.03848
G1 X138.210 Y103.647 E0.03729
G1 X137.778 Y102.939 E0.02599
G1 X137.439 Y103.482 E0.02007
G1 X136.710 Y104.419 E0.03723
G1 X135.870 Y105.300 E0.03816
G1 X134.899 Y106.122 E0.03990
G1 X134.180 Y106.627 E0.02755
G1 X133.117 Y107.242 E0.03851
G1 X131.982 Y107.748 E0.03896
G1 X131.240 Y108.003 E0.02460
G1 X130.054 Y108.305 E0.03837
G1 X128.748 Y108.490 E0.04136
G1 X127.547 Y108.532 E0.03766
G1 X126.360 Y108.452 E0.03732
G1 X125.274 Y108.271 E0.03450
G1 X124.316 Y108.027 E0.03099
G1 X123.109 Y107.590 E0.04025
G1 X122.008 Y107.052 E0.03843
G1 X121.041 Y106.454 E0.03564
G1 X120.286 Y105.890 E0.02955
G1 X119.394 Y105.090 E0.03759
G1 X118.595 Y104.211 E0.03723
G1 X117.753 Y103.072 E0.04440
G1 X116.851 Y104.237 E0.04620
G1 X116.011 Y105.117 E0.03815
G1 X115.096 Y105.897 E0.03769
G1 X114.366 Y106.416 E0.02807
G1 X113.294 Y107.040 E0.03891
G1 X112.139 Y107.559 E0.03970
G1 X111.381 Y107.820 E0.02511
G1 X110.216 Y108.118 E0.03771
G1 X108.931 Y108.304 E0.04072
G1 X107.689 Y108.349 E0.03896
G1 X106.444 Y108.263 E0.03912
G1 X105.399 Y108.085 E0.03323
G1 X104.406 Y107.828 E0.03217
G1 X103.252 Y107.408 E0.03849
G1 X102.151 Y106.871 E0.03843
G1 X101.183 Y106.272 E0.03568
G1 X100.413 Y105.696 E0.03013
G1 X99.506 Y104.878 E0.03831
G1 X98.686 Y103.968 E0.03840
G1 X98.025 Y103.067 E0.03505
G1 X97.534 Y102.259 E0.02963
G1 X96.970 Y101.102 E0.04038
G1 X96.539 Y99.898 E0.04009
G1 X96.249 Y98.703 E0.03854
G1 X96.083 Y97.465 E0.03916
G1 X96.049 Y96.202 E0.03961
G1 X96.136 Y95.051 E0.03620
G1 X96.293 Y94.109 E0.02995
G1 X96.605 Y92.915 E0.03869
G1 X97.018 Y91.814 E0.03688
G1 X97.520 Y90.796 E0.03560
G1 X98.024 Y89.963 E0.03050
