;FLAVOR:RepRap
;TIME:4533
;Filament used: 1.61863m
;Layer height: 0.1
;Generated with Cura_SteamEngine 2.5.0
M190 S104

G21 ;metric values
G90 ;absolute positioning
M82 ;set extruder to absolute mode
M107 ;start with the fan off
G28 ;Home all axes (max endstops)

M0 Add PROBE
M117 Auto leveling...
G29   ; DAQ -- auto level
M500
G1 x0 y0
M0 Remove PROBE

M104 S240
M109 S240

G1 Z75.0 F9000 ;move the platform down 15mm
G92 E0 ;zero the extruded length
G1 F200 E3 ;extrude 3mm of feed stock
G92 E0 ;zero the extruded length again

G1 Z100 F9000
M0 CLEAN ME...

M106 S191 ;	Turn fan on 50% power

G1 F9000
M117 Printing...
;LAYER_COUNT:110
;LAYER:0
M107
G0 F3000 X32.204 Y-12.05 Z0.15
;TYPE:SKIRT
G1 F1800 X33.432 Y-8.04 E0.10462
G1 X33.52 Y-7.684 E0.11376
G1 X33.985 Y-5.257 E0.17541
G1 X34.03 Y-4.942 E0.18334
G1 X34.349 Y-1.615 E0.26672
G1 X34.365 Y-1.248 E0.27588
G1 X34.324 Y2.084 E0.359
G1 X34.299 Y2.45 E0.36815
G1 X33.894 Y5.802 E0.45238
G1 X33.84 Y6.122 E0.46047
G1 X33.3 Y8.584 E0.52335
G1 X33.231 Y8.849 E0.53018
G1 X32.504 Y11.23 E0.59228
G1 X32.395 Y11.534 E0.60034
G1 X31.101 Y14.669 E0.68494
G1 X30.943 Y15 E0.69409
G1 X29.359 Y17.905 E0.77663
G1 X29.216 Y18.143 E0.78355
G1 X28.27 Y19.584 E0.82655
G1 X28.138 Y19.771 E0.83226
G1 X26.659 Y21.723 E0.89335
G1 X26.456 Y21.966 E0.90125
G1 X24.194 Y24.436 E0.9848
G1 X23.967 Y24.662 E0.99279
G1 X22.114 Y26.337 E1.0551
G1 X21.867 Y26.54 E1.06307
G1 X19.214 Y28.519 E1.14564
G1 X18.909 Y28.722 E1.15478
G1 X15.994 Y30.442 E1.23921
G1 X15.708 Y30.593 E1.24727
G1 X13.445 Y31.653 E1.30961
G1 X13.235 Y31.743 E1.31531
G1 X11.651 Y32.359 E1.35771
G1 X11.387 Y32.449 E1.36466
G1 X8.185 Y33.4 E1.44799
G1 X7.876 Y33.477 E1.45593
G1 X5.457 Y33.955 E1.51744
G1 X5.145 Y34.001 E1.52531
G1 X1.873 Y34.337 E1.60736
G1 X1.507 Y34.355 E1.6165
G1 X-1.894 Y34.336 E1.70134
G1 X-2.264 Y34.314 E1.71058
G1 X-5.607 Y33.929 E1.79453
G1 X-5.928 Y33.876 E1.80264
G1 X-8.402 Y33.348 E1.86575
G1 X-8.662 Y33.282 E1.87244
G1 X-10.989 Y32.589 E1.933
G1 X-11.292 Y32.483 E1.94101
G1 X-14.425 Y31.218 E2.02529
G1 X-14.758 Y31.062 E2.03447
G1 X-17.7 Y29.485 E2.11773
G1 X-18.012 Y29.296 E2.12683
G1 X-20.734 Y27.437 E2.20906
G1 X-21.027 Y27.212 E2.21827
G1 X-23.651 Y24.965 E2.30445
G1 X-23.885 Y24.745 E2.31246
G1 X-25.554 Y23.018 E2.37237
G1 X-25.764 Y22.779 E2.38031
G1 X-27.875 Y20.141 E2.46459
G1 X-28.063 Y19.882 E2.47257
G1 X-29.415 Y17.821 E2.53406
G1 X-29.578 Y17.544 E2.54208
G1 X-31.159 Y14.552 E2.62649
G1 X-31.296 Y14.261 E2.63451
G1 X-32.253 Y11.943 E2.69707
G1 X-32.349 Y11.681 E2.70403
G1 X-33.116 Y9.281 E2.76688
G1 X-33.188 Y9.019 E2.77366
G1 X-33.755 Y6.589 E2.83591
G1 X-33.813 Y6.272 E2.84394
G1 X-34.264 Y2.939 E2.92784
G1 X-34.294 Y2.575 E2.93696
G1 X-34.383 Y-.715 E3.01905
G1 X-34.373 Y-1.077 E3.02809
G1 X-34.11 Y-4.381 E3.11077
G1 X-34.061 Y-4.747 E3.11998
G1 X-33.425 Y-8.086 E3.20477
G1 X-33.35 Y-8.4 E3.21282
G1 X-32.647 Y-10.816 E3.27559
G1 X-32.542 Y-11.12 E3.28361
G1 X-31.31 Y-14.224 E3.36692
G1 X-31.156 Y-14.559 E3.37611
G1 X-29.578 Y-17.545 E3.46036
G1 X-29.39 Y-17.859 E3.46949
G1 X-27.543 Y-20.594 E3.55182
G1 X-27.324 Y-20.883 E3.56086
G1 X-25.199 Y-23.403 E3.64309
G1 X-24.946 Y-23.672 E3.6523
G1 X-22.457 Y-26.045 E3.73809
G1 X-22.176 Y-26.285 E3.7473
G1 X-19.554 Y-28.29 E3.82964
G1 X-19.253 Y-28.495 E3.83873
G1 X-16.408 Y-30.222 E3.92175
G1 X-16.045 Y-30.414 E3.93199
G1 X-12.229 Y-32.14 E4.03646
G1 X-11.883 Y-32.274 E4.04572
G1 X-9.5 Y-33.052 E4.10825
G1 X-9.24 Y-33.126 E4.115
G1 X-6.782 Y-33.717 E4.17806
G1 X-6.507 Y-33.771 E4.18505
G1 X-4.038 Y-34.153 E4.24737
G1 X-3.724 Y-34.187 E4.25525
G1 X-.439 Y-34.386 E4.33735
G1 X-0.072 Y-34.388 E4.3465
G1 X3.329 Y-34.227 E4.43143
G1 X3.694 Y-34.19 E4.44058
G1 X6.921 Y-33.685 E4.52206
G1 X7.233 Y-33.621 E4.53001
G1 X9.691 Y-32.996 E4.59327
G1 X9.954 Y-32.918 E4.60012
G1 X12.336 Y-32.103 E4.66292
G1 X12.52 Y-32.034 E4.66782
G1 X14.108 Y-31.386 E4.7106
G1 X14.377 Y-31.262 E4.71799
G1 X16.585 Y-30.127 E4.77992
G1 X16.834 Y-29.985 E4.78707
G1 X19.598 Y-28.256 E4.8684
G1 X19.895 Y-28.048 E4.87744
G1 X22.54 Y-25.97 E4.96135
G1 X22.784 Y-25.759 E4.9694
G1 X24.614 Y-24.017 E5.03242
G1 X24.808 Y-23.816 E5.03939
G1 X26.482 Y-21.938 E5.10215
G1 X26.684 Y-21.689 E5.11015
G1 X28.684 Y-18.966 E5.19442
G1 X28.885 Y-18.658 E5.2036
G1 X30.543 Y-15.798 E5.28606
G1 X30.709 Y-15.474 E5.29514
G1 X32.06 Y-12.435 E5.37811
G1 X32.204 Y-12.05 E5.38836
G0 F3000 X31.822 Y-11.932
G1 F1800 X33.05 Y-7.922 E5.49297
G1 X33.127 Y-7.609 E5.50102
G1 X33.592 Y-5.182 E5.56266
G1 X33.632 Y-4.903 E5.56969
G1 X33.951 Y-1.576 E5.65306
G1 X33.965 Y-1.253 E5.66113
G1 X33.924 Y2.079 E5.74425
G1 X33.902 Y2.402 E5.75233
G1 X33.497 Y5.754 E5.83655
G1 X33.449 Y6.037 E5.84371
G1 X32.909 Y8.499 E5.90659
G1 X32.848 Y8.732 E5.91259
G1 X32.121 Y11.113 E5.97469
G1 X32.025 Y11.382 E5.98182
G1 X30.731 Y14.517 E6.06642
G1 X30.592 Y14.808 E6.07447
G1 X29.008 Y17.713 E6.157
G1 X28.882 Y17.923 E6.16311
G1 X27.936 Y19.364 E6.20611
G1 X27.819 Y19.53 E6.21118
G1 X26.34 Y21.482 E6.27227
G1 X26.161 Y21.696 E6.27923
G1 X23.899 Y24.166 E6.36278
G1 X23.699 Y24.366 E6.36983
G1 X21.846 Y26.041 E6.43214
G1 X21.628 Y26.22 E6.43918
G1 X18.975 Y28.199 E6.52174
G1 X18.706 Y28.378 E6.5298
G1 X15.791 Y30.098 E6.61423
G1 X15.539 Y30.231 E6.62134
G1 X13.276 Y31.291 E6.68368
G1 X13.09 Y31.37 E6.68872
G1 X11.506 Y31.986 E6.73111
G1 X11.273 Y32.066 E6.73726
G1 X8.071 Y33.017 E6.82058
G1 X7.799 Y33.084 E6.82757
G1 X5.38 Y33.562 E6.88908
G1 X5.104 Y33.603 E6.89604
G1 X1.832 Y33.939 E6.97809
G1 X1.509 Y33.955 E6.98616
G1 X-1.892 Y33.936 E7.071
G1 X-2.218 Y33.916 E7.07914
G1 X-5.561 Y33.531 E7.16309
G1 X-5.844 Y33.485 E7.17024
G1 X-8.318 Y32.957 E7.23334
G1 X-8.548 Y32.898 E7.23926
G1 X-10.875 Y32.205 E7.29983
G1 X-11.142 Y32.112 E7.30688
G1 X-14.275 Y30.847 E7.39117
G1 X-14.569 Y30.709 E7.39927
G1 X-17.511 Y29.132 E7.48254
G1 X-17.786 Y28.965 E7.49056
G1 X-20.508 Y27.106 E7.57279
G1 X-20.767 Y26.908 E7.58092
G1 X-23.391 Y24.661 E7.66709
G1 X-23.597 Y24.467 E7.67415
G1 X-25.266 Y22.74 E7.73406
G1 X-25.451 Y22.529 E7.74106
G1 X-27.562 Y19.891 E7.82534
G1 X-27.728 Y19.663 E7.83238
G1 X-29.08 Y17.602 E7.89387
G1 X-29.224 Y17.358 E7.90093
G1 X-30.805 Y14.366 E7.98535
G1 X-30.926 Y14.109 E7.99243
G1 X-31.883 Y11.791 E8.05499
G1 X-31.968 Y11.559 E8.06116
G1 X-32.735 Y9.159 E8.12401
G1 X-32.799 Y8.928 E8.12999
G1 X-33.366 Y6.498 E8.19223
G1 X-33.417 Y6.218 E8.19933
G1 X-33.868 Y2.885 E8.28323
G1 X-33.894 Y2.564 E8.29126
G1 X-33.983 Y-.726 E8.37336
G1 X-33.975 Y-1.045 E8.38132
G1 X-33.712 Y-4.349 E8.464
G1 X-33.668 Y-4.672 E8.47213
G1 X-33.032 Y-8.011 E8.55692
G1 X-32.966 Y-8.288 E8.56403
G1 X-32.263 Y-10.704 E8.62679
G1 X-32.17 Y-10.973 E8.63389
G1 X-30.938 Y-14.077 E8.7172
G1 X-30.802 Y-14.372 E8.7253
G1 X-29.224 Y-17.358 E8.80955
G1 X-29.058 Y-17.635 E8.8176
G1 X-27.211 Y-20.37 E8.89993
G1 X-27.018 Y-20.625 E8.90791
G1 X-24.893 Y-23.145 E8.99014
G1 X-24.67 Y-23.382 E8.99825
G1 X-22.181 Y-25.755 E9.08404
G1 X-21.933 Y-25.967 E9.09218
G1 X-19.311 Y-27.972 E9.17451
G1 X-19.046 Y-28.153 E9.18252
G1 X-16.201 Y-29.88 E9.26554
G1 X-15.88 Y-30.049 E9.27459
G1 X-12.064 Y-31.775 E9.37906
G1 X-11.759 Y-31.894 E9.38723
G1 X-9.376 Y-32.672 E9.44976
G1 X-9.146 Y-32.737 E9.45573
G1 X-6.688 Y-33.328 E9.51879
G1 X-6.446 Y-33.376 E9.52494
G1 X-3.977 Y-33.758 E9.58726
G1 X-3.699 Y-33.788 E9.59424
G1 X-.414 Y-33.987 E9.67633
G1 X-0.091 Y-33.989 E9.68439
G1 X3.31 Y-33.828 E9.76932
G1 X3.632 Y-33.795 E9.7774
G1 X6.859 Y-33.29 E9.85888
G1 X7.134 Y-33.233 E9.86588
G1 X9.592 Y-32.608 E9.92915
G1 X9.824 Y-32.539 E9.93519
G1 X12.206 Y-31.724 E9.99799
G1 X12.368 Y-31.664 E10.0023
G1 X13.956 Y-31.016 E10.04508
G1 X14.195 Y-30.906 E10.05164
G1 X16.403 Y-29.771 E10.11357
G1 X16.622 Y-29.646 E10.11986
G1 X19.386 Y-27.917 E10.20119
G1 X19.648 Y-27.733 E10.20918
G1 X22.293 Y-25.655 E10.29308
G1 X22.508 Y-25.469 E10.30017
G1 X24.338 Y-23.727 E10.3632
G1 X24.509 Y-23.55 E10.36934
G1 X26.183 Y-21.672 E10.4321
G1 X26.362 Y-21.452 E10.43917
G1 X28.362 Y-18.729 E10.52345
G1 X28.539 Y-18.458 E10.53152
G1 X30.197 Y-15.598 E10.61399
G1 X30.343 Y-15.312 E10.622
G1 X31.694 Y-12.273 E10.70496
G1 X31.822 Y-11.932 E10.71405
G0 F3000 X31.439 Y-11.815
G1 F1800 X32.667 Y-7.805 E10.81866
G1 X32.735 Y-7.533 E10.82565
G1 X33.2 Y-5.106 E10.8873
G1 X33.234 Y-4.865 E10.89337
G1 X33.553 Y-1.538 E10.97674
G1 X33.565 Y-1.258 E10.98373
G1 X33.524 Y2.074 E11.06686
G1 X33.505 Y2.354 E11.07386
G1 X33.1 Y5.706 E11.15808
G1 X33.059 Y5.951 E11.16428
G1 X32.519 Y8.413 E11.22715
G1 X32.466 Y8.615 E11.23236
G1 X31.739 Y10.996 E11.29446
G1 X31.655 Y11.229 E11.30064
G1 X30.361 Y14.364 E11.38524
G1 X30.241 Y14.617 E11.39223
G1 X28.657 Y17.522 E11.47477
G1 X28.547 Y17.704 E11.48007
G1 X27.601 Y19.145 E11.52307
G1 X27.5 Y19.288 E11.52744
G1 X26.021 Y21.24 E11.58853
G1 X25.866 Y21.426 E11.59457
G1 X23.604 Y23.896 E11.67812
G1 X23.431 Y24.069 E11.68422
G1 X21.578 Y25.744 E11.74653
G1 X21.389 Y25.899 E11.75263
G1 X18.736 Y27.878 E11.83519
G1 X18.502 Y28.033 E11.84219
G1 X15.587 Y29.753 E11.92662
G1 X15.369 Y29.869 E11.93278
G1 X13.106 Y30.929 E11.99512
G1 X12.945 Y30.997 E11.99948
G1 X11.361 Y31.613 E12.04187
G1 X11.159 Y31.682 E12.0472
G1 X7.957 Y32.633 E12.13052
G1 X7.721 Y32.692 E12.13659
G1 X5.302 Y33.17 E12.1981
G1 X5.064 Y33.205 E12.2041
G1 X1.792 Y33.541 E12.28615
G1 X1.511 Y33.555 E12.29317
G1 X-1.89 Y33.536 E12.37801
G1 X-2.172 Y33.519 E12.38505
G1 X-5.515 Y33.134 E12.469
G1 X-5.761 Y33.094 E12.47521
G1 X-8.235 Y32.566 E12.53832
G1 X-8.434 Y32.515 E12.54344
G1 X-10.761 Y31.822 E12.60401
G1 X-10.992 Y31.741 E12.61012
G1 X-14.125 Y30.476 E12.6944
G1 X-14.38 Y30.357 E12.70142
G1 X-17.322 Y28.78 E12.78468
G1 X-17.56 Y28.635 E12.79164
G1 X-20.282 Y26.776 E12.87386
G1 X-20.507 Y26.604 E12.88093
G1 X-23.131 Y24.357 E12.9671
G1 X-23.31 Y24.189 E12.97323
G1 X-24.979 Y22.462 E13.03314
G1 X-25.139 Y22.279 E13.0392
G1 X-27.25 Y19.641 E13.12348
G1 X-27.394 Y19.443 E13.12959
G1 X-28.746 Y17.382 E13.19107
G1 X-28.871 Y17.171 E13.19719
G1 X-30.452 Y14.179 E13.28161
G1 X-30.556 Y13.956 E13.28775
G1 X-31.513 Y11.638 E13.3503
G1 X-31.587 Y11.437 E13.35565
G1 X-32.354 Y9.037 E13.4185
G1 X-32.409 Y8.837 E13.42367
G1 X-32.976 Y6.407 E13.48592
G1 X-33.021 Y6.165 E13.49206
G1 X-33.472 Y2.832 E13.57596
G1 X-33.494 Y2.553 E13.58294
G1 X-33.583 Y-.737 E13.66504
G1 X-33.576 Y-1.013 E13.67192
G1 X-33.313 Y-4.317 E13.7546
G1 X-33.275 Y-4.597 E13.76165
G1 X-32.639 Y-7.936 E13.84644
G1 X-32.581 Y-8.176 E13.8526
G1 X-31.878 Y-10.592 E13.91537
G1 X-31.799 Y-10.825 E13.9215
G1 X-30.567 Y-13.929 E14.00481
G1 X-30.449 Y-14.185 E14.01184
G1 X-28.871 Y-17.171 E14.09609
G1 X-28.727 Y-17.411 E14.10307
G1 X-26.88 Y-20.146 E14.1854
G1 X-26.713 Y-20.367 E14.19231
G1 X-24.588 Y-22.887 E14.27453
G1 X-24.394 Y-23.093 E14.28159
G1 X-21.905 Y-25.466 E14.36738
G1 X-21.69 Y-25.649 E14.37442
G1 X-19.068 Y-27.654 E14.45676
G1 X-18.838 Y-27.812 E14.46372
G1 X-15.993 Y-29.539 E14.54674
G1 X-15.715 Y-29.685 E14.55457
G1 X-11.899 Y-31.411 E14.65905
G1 X-11.635 Y-31.514 E14.66612
G1 X-9.252 Y-32.292 E14.72865
G1 X-9.053 Y-32.348 E14.7338
G1 X-6.595 Y-32.939 E14.79687
G1 X-6.385 Y-32.98 E14.8022
G1 X-3.916 Y-33.362 E14.86453
G1 X-3.675 Y-33.388 E14.87057
G1 X-.39 Y-33.587 E14.95267
G1 X-.11 Y-33.589 E14.95965
G1 X3.291 Y-33.428 E15.04459
G1 X3.57 Y-33.4 E15.05158
G1 X6.797 Y-32.895 E15.13306
G1 X7.036 Y-32.846 E15.13914
G1 X9.494 Y-32.221 E15.20241
G1 X9.695 Y-32.161 E15.20764
G1 X12.077 Y-31.346 E15.27044
G1 X12.217 Y-31.293 E15.27418
G1 X13.805 Y-30.645 E15.31696
G1 X14.012 Y-30.55 E15.32264
G1 X16.22 Y-29.415 E15.38457
G1 X16.41 Y-29.307 E15.39002
G1 X19.174 Y-27.578 E15.47135
G1 X19.401 Y-27.419 E15.47826
G1 X22.046 Y-25.341 E15.56217
G1 X22.233 Y-25.179 E15.56834
G1 X24.063 Y-23.437 E15.63137
G1 X24.211 Y-23.284 E15.63668
G1 X25.885 Y-21.406 E15.69943
G1 X26.04 Y-21.215 E15.70557
G1 X28.04 Y-18.492 E15.78985
G1 X28.193 Y-18.257 E15.79684
G1 X29.851 Y-15.397 E15.87931
G1 X29.978 Y-15.149 E15.88626
G1 X31.329 Y-12.11 E15.96922
G1 X31.439 Y-11.815 E15.97707
G0 F3000 X31.057 Y-11.698
G1 F1800 X32.285 Y-7.688 E16.08169
G1 X32.342 Y-7.458 E16.0876
G1 X32.807 Y-5.031 E16.14924
G1 X32.836 Y-4.827 E16.15438
G1 X33.155 Y-1.5 E16.23776
G1 X33.165 Y-1.263 E16.24367
G1 X33.124 Y2.069 E16.3268
G1 X33.108 Y2.306 E16.33272
G1 X32.703 Y5.658 E16.41695
G1 X32.668 Y5.865 E16.42218
G1 X32.128 Y8.327 E16.48506
G1 X32.083 Y8.498 E16.48947
G1 X31.356 Y10.879 E16.55157
G1 X31.286 Y11.076 E16.55679
G1 X29.992 Y14.211 E16.64139
G1 X29.89 Y14.425 E16.6473
G1 X28.306 Y17.33 E16.72984
G1 X28.213 Y17.484 E16.73433
G1 X27.267 Y18.925 E16.77733
G1 X27.182 Y19.047 E16.78104
G1 X25.703 Y20.999 E16.84213
G1 X25.571 Y21.156 E16.84724
G1 X23.309 Y23.626 E16.93079
G1 X23.162 Y23.772 E16.93596
G1 X21.309 Y25.447 E16.99827
G1 X21.149 Y25.578 E17.00343
G1 X18.496 Y27.557 E17.08599
G1 X18.299 Y27.689 E17.09191
G1 X15.384 Y29.409 E17.17634
G1 X15.199 Y29.506 E17.18155
G1 X12.936 Y30.566 E17.24388
G1 X12.8 Y30.624 E17.24757
G1 X11.216 Y31.24 E17.28997
G1 X11.045 Y31.299 E17.29448
G1 X7.843 Y32.25 E17.3778
G1 X7.643 Y32.299 E17.38294
G1 X5.224 Y32.777 E17.44445
G1 X5.023 Y32.807 E17.44952
G1 X1.751 Y33.143 E17.53157
G1 X1.514 Y33.155 E17.53749
G1 X-1.887 Y33.136 E17.62233
G1 X-2.127 Y33.122 E17.62832
G1 X-5.47 Y32.737 E17.71227
G1 X-5.677 Y32.703 E17.7175
G1 X-8.151 Y32.175 E17.7806
G1 X-8.32 Y32.131 E17.78496
G1 X-10.647 Y31.438 E17.84553
G1 X-10.843 Y31.37 E17.8507
G1 X-13.976 Y30.105 E17.93498
G1 X-14.191 Y30.004 E17.94091
G1 X-17.133 Y28.427 E18.02418
G1 X-17.335 Y28.305 E18.03006
G1 X-20.057 Y26.446 E18.11229
G1 X-20.247 Y26.3 E18.11827
G1 X-22.871 Y24.053 E18.20444
G1 X-23.022 Y23.911 E18.20961
G1 X-24.691 Y22.184 E18.26952
G1 X-24.827 Y22.03 E18.27465
G1 X-26.938 Y19.392 E18.35893
G1 X-27.06 Y19.224 E18.36411
G1 X-28.412 Y17.163 E18.42559
G1 X-28.517 Y16.984 E18.43077
G1 X-30.098 Y13.992 E18.51519
G1 X-30.187 Y13.804 E18.52037
G1 X-31.144 Y11.486 E18.58293
G1 X-31.206 Y11.316 E18.58745
G1 X-31.973 Y8.916 E18.6503
G1 X-32.019 Y8.746 E18.65469
G1 X-32.586 Y6.316 E18.71693
G1 X-32.624 Y6.111 E18.72214
G1 X-33.075 Y2.778 E18.80603
G1 X-33.094 Y2.542 E18.81194
G1 X-33.183 Y-.748 E18.89404
G1 X-33.177 Y-.982 E18.89988
G1 X-32.914 Y-4.286 E18.98256
G1 X-32.882 Y-4.523 E18.98852
G1 X-32.246 Y-7.862 E19.07331
G1 X-32.197 Y-8.065 E19.07852
G1 X-31.494 Y-10.481 E19.14129
G1 X-31.427 Y-10.678 E19.14648
G1 X-30.195 Y-13.782 E19.22979
G1 X-30.095 Y-13.998 E19.23572
G1 X-28.517 Y-16.984 E19.31997
G1 X-28.395 Y-17.187 E19.32588
G1 X-26.548 Y-19.922 E19.4082
G1 X-26.407 Y-20.109 E19.41405
G1 X-24.282 Y-22.629 E19.49627
G1 X-24.118 Y-22.803 E19.50224
G1 X-21.629 Y-25.176 E19.58802
G1 X-21.447 Y-25.332 E19.594
G1 X-18.825 Y-27.337 E19.67634
G1 X-18.631 Y-27.47 E19.68221
G1 X-15.786 Y-29.197 E19.76523
G1 X-15.551 Y-29.32 E19.77185
G1 X-11.735 Y-31.046 E19.87632
G1 X-11.511 Y-31.133 E19.88231
G1 X-9.128 Y-31.911 E19.94485
G1 X-8.959 Y-31.959 E19.94923
G1 X-6.501 Y-32.55 E20.01229
G1 X-6.323 Y-32.585 E20.01682
G1 X-3.854 Y-32.967 E20.07914
G1 X-3.651 Y-32.989 E20.08423
G1 X-.366 Y-33.188 E20.16633
G1 X-.129 Y-33.19 E20.17224
G1 X3.272 Y-33.029 E20.25717
G1 X3.508 Y-33.005 E20.26309
G1 X6.735 Y-32.5 E20.34457
G1 X6.937 Y-32.458 E20.34971
G1 X9.395 Y-31.833 E20.41298
G1 X9.565 Y-31.783 E20.4174
G1 X11.947 Y-30.968 E20.4802
G1 X12.066 Y-30.923 E20.48338
G1 X13.654 Y-30.275 E20.52616
G1 X13.829 Y-30.195 E20.53096
G1 X16.037 Y-29.06 E20.59289
G1 X16.198 Y-28.968 E20.59751
G1 X18.962 Y-27.239 E20.67884
G1 X19.154 Y-27.104 E20.6847
G1 X21.799 Y-25.026 E20.7686
G1 X21.957 Y-24.889 E20.77382
G1 X23.787 Y-23.147 E20.83684
G1 X23.912 Y-23.018 E20.84133
G1 X25.586 Y-21.14 E20.90408
G1 X25.717 Y-20.978 E20.90928
G1 X27.717 Y-18.255 E20.99356
G1 X27.847 Y-18.056 E20.99949
G1 X29.505 Y-15.196 E21.08195
G1 X29.612 Y-14.987 E21.08781
G1 X30.963 Y-11.948 E21.17077
G1 X31.057 Y-11.698 E21.17743
G1 F1500 E14.67743
G1 Z1.15
G0 F3000 X22.222 Y-9.104 Z1.15
;TYPE:WALL-INNER
G1 Z0.15
G1 F1500 E21.17743
G1 F1800 X22.842 Y-7.413 E21.22882
G1 X23.321 Y-5.73 E21.27247
G1 X23.684 Y-3.971 E21.31727
G1 X23.914 Y-2.198 E21.36187
