;FLAVOR:RepRap
;TIME:4285
;Filament used: 2.09177m
;Layer height: 0.1
;Generated with Cura_SteamEngine 2.4.0
M190 S50
M104 S195
M109 S195
G21 ;metric values
G90 ;absolute positioning
M82 ;set extruder to absolute mode
M107 ;start with the fan off
G28 ;Home all axes (max endstops)

M0 Add PROBE
M106 S255 ;	Turn fan on 100% power, cool the probe
M117 Auto leveling...
G29   ; DAQ -- auto level
M500
G1 x0 y0
M0 Remove PROBE

G1 Z75.0 F9000 ;move the platform down 15mm
G92 E0 ;zero the extruded length
G1 F200 E3 ;extrude 3mm of feed stock
G92 E0 ;zero the extruded length again

G1 Z100 F9000
M0 CLEAN ME...

M106 S191 ;	Turn fan on 50% power

G1 F9000
M117 Printing...
;LAYER_COUNT:160
;LAYER:0
M107
G1 F1500 E-6.5
G1 Z21
G0 F3600 X-2.707 Y13.945 Z1.15
;TYPE:SKIRT
G1 Z0.15
G1 F1500 E0
G1 F1800 X-8.137 Y14.099 E0.13551
G1 X-13.455 Y14.551 E0.26864
G1 X-16.028 Y14.878 E0.33334
G1 X-16.671 Y14.925 E0.34943
G1 X-17.831 Y14.947 E0.37837
G1 X-18.254 Y14.94 E0.38892
G1 X-24.36 Y14.625 E0.54144
G1 X-25.049 Y14.549 E0.55873
G1 X-25.724 Y14.395 E0.576
G1 X-26.376 Y14.164 E0.59325
G1 X-26.923 Y13.901 E0.60839
G1 X-27.519 Y13.576 E0.62533
G1 X-28.107 Y13.21 E0.64261
G1 X-28.649 Y12.778 E0.65989
G1 X-29.138 Y12.287 E0.67718
G1 X-29.566 Y11.743 E0.69445
G1 X-30.056 Y10.905 E0.71866
G1 X-30.431 Y10.124 E0.74027
G1 X-30.694 Y9.484 E0.75753
G1 X-30.882 Y8.817 E0.77482
G1 X-31.009 Y7.919 E0.79745
G1 X-31.265 Y4.005 E0.89529
G1 X-31.277 Y3.708 E0.9027
G1 X-31.375 Y-2.504 E1.05768
G1 X-31.362 Y-3.006 E1.07021
G1 X-31.028 Y-7.913 E1.1929
G1 X-30.941 Y-8.601 E1.2102
G1 X-30.776 Y-9.273 E1.22746
G1 X-30.491 Y-10.018 E1.24735
G1 X-30.096 Y-10.875 E1.27089
G1 X-29.77 Y-11.486 E1.28817
G1 X-29.376 Y-12.055 E1.30543
G1 X-28.919 Y-12.576 E1.32272
G1 X-28.406 Y-13.04 E1.33998
G1 X-27.842 Y-13.442 E1.35725
G1 X-27.235 Y-13.776 E1.37454
G1 X-26.827 Y-13.953 E1.38563
G1 X-26.363 Y-14.134 E1.39805
G1 X-25.705 Y-14.348 E1.41531
G1 X-25.026 Y-14.484 E1.43259
G1 X-24.653 Y-14.526 E1.44195
G1 X-19.679 Y-14.917 E1.56641
G1 X-19.325 Y-14.934 E1.57525
G1 X-16.988 Y-14.979 E1.63356
G1 X-16.167 Y-14.938 E1.65406
G1 X-11.957 Y-14.44 E1.75982
G1 X-6.585 Y-14.067 E1.89414
G1 X-2.661 Y-13.986 E1.99205
G1 X4 Y-13.976 E2.15821
G1 X4.086 Y-13.975 E2.16035
G1 X10.771 Y-13.869 E2.32713
G1 X16.166 Y-14.022 E2.46177
G1 X23.727 Y-14.634 E2.65099
G1 X24.419 Y-14.65 E2.66826
G1 X25.109 Y-14.586 E2.68555
G1 X25.786 Y-14.443 E2.70281
G1 X26.443 Y-14.223 E2.72009
G1 X27.07 Y-13.929 E2.73736
G1 X27.659 Y-13.564 E2.75465
G1 X28.302 Y-13.043 E2.77529
G1 X28.743 Y-12.632 E2.79033
G1 X29.221 Y-12.132 E2.80759
G1 X29.639 Y-11.579 E2.82488
G1 X29.99 Y-10.982 E2.84215
G1 X30.27 Y-10.349 E2.85942
G1 X30.475 Y-9.688 E2.87668
G1 X30.584 Y-9.144 E2.89052
G1 X30.759 Y-7.992 E2.91959
G1 X30.804 Y-7.618 E2.92899
G1 X31.106 Y-4.192 E3.01478
G1 X31.128 Y-3.543 E3.03098
G1 X30.899 Y7.759 E3.31297
G1 X30.845 Y8.449 E3.33023
G1 X30.712 Y9.129 E3.34751
G1 X30.501 Y9.788 E3.36478
G1 X30.142 Y10.555 E3.3859
G1 X29.641 Y11.455 E3.41159
G1 X29.27 Y12.04 E3.42887
G1 X28.834 Y12.578 E3.44615
G1 X28.339 Y13.062 E3.46342
G1 X27.791 Y13.486 E3.4807
G1 X27.198 Y13.844 E3.49798
G1 X26.568 Y14.131 E3.51525
G1 X25.909 Y14.344 E3.53253
G1 X25.024 Y14.504 E3.55496
G1 X24.136 Y14.597 E3.57723
G1 X23.444 Y14.63 E3.59452
G1 X22.825 Y14.591 E3.60999
G1 X20.457 Y14.319 E3.66945
G1 X15.083 Y13.923 E3.80386
G1 X10.86 Y13.828 E3.90923
G1 X4.208 Y13.942 E4.07519
G1 X4.107 Y13.943 E4.07771
G1 X-2.707 Y13.945 E4.24769
G0 F3600 X-2.719 Y13.545
G1 F1800 X-8.147 Y13.699 E4.38314
G1 X-13.513 Y14.155 E4.51748
G1 X-16.078 Y14.481 E4.58198
G1 X-16.679 Y14.525 E4.59701
G1 X-17.839 Y14.547 E4.62596
G1 X-18.234 Y14.541 E4.63581
G1 X-24.34 Y14.226 E4.78833
G1 X-25.004 Y14.151 E4.805
G1 X-25.656 Y13.998 E4.8217
G1 X-26.284 Y13.769 E4.83838
G1 X-26.732 Y13.55 E4.85082
G1 X-27.328 Y13.225 E4.86775
G1 X-27.895 Y12.87 E4.88444
G1 X-28.416 Y12.45 E4.90113
G1 X-28.883 Y11.971 E4.91782
G1 X-29.29 Y11.439 E4.93453
G1 X-29.695 Y10.732 E4.95485
G1 X-30.07 Y9.951 E4.97646
G1 X-30.323 Y9.332 E4.99314
G1 X-30.501 Y8.687 E5.00984
G1 X-30.61 Y7.892 E5.02985
G1 X-30.866 Y3.978 E5.1277
G1 X-30.877 Y3.701 E5.13461
G1 X-30.975 Y-2.511 E5.28959
G1 X-30.963 Y-2.979 E5.30127
G1 X-30.629 Y-7.886 E5.42396
G1 X-30.544 Y-8.55 E5.44066
G1 X-30.38 Y-9.199 E5.45735
G1 X-30.128 Y-9.85 E5.47477
G1 X-29.733 Y-10.707 E5.49831
G1 X-29.417 Y-11.297 E5.515
G1 X-29.033 Y-11.845 E5.53169
G1 X-28.586 Y-12.343 E5.54839
G1 X-28.084 Y-12.784 E5.56506
G1 X-27.532 Y-13.163 E5.58176
G1 X-26.682 Y-13.58 E5.60538
G1 X-26.218 Y-13.761 E5.6178
G1 X-25.581 Y-13.967 E5.6345
G1 X-24.622 Y-14.127 E5.65875
G1 X-19.648 Y-14.518 E5.78321
G1 X-19.317 Y-14.534 E5.79148
G1 X-16.98 Y-14.579 E5.84979
G1 X-16.214 Y-14.541 E5.86892
G1 X-11.99 Y-14.042 E5.97502
G1 X-6.601 Y-13.667 E6.10977
G1 X-2.67 Y-13.586 E6.20785
G1 X3.999 Y-13.576 E6.37421
G1 X4.08 Y-13.575 E6.37623
G1 X10.776 Y-13.469 E6.54329
G1 X16.171 Y-13.622 E6.67792
G1 X23.759 Y-14.236 E6.86782
G1 X24.428 Y-14.25 E6.88451
G1 X25.094 Y-14.184 E6.90121
G1 X25.747 Y-14.039 E6.91789
G1 X26.378 Y-13.818 E6.93457
G1 X26.979 Y-13.522 E6.95128
G1 X27.539 Y-13.157 E6.96796
G1 X28.029 Y-12.751 E6.98383
G1 X28.47 Y-12.34 E6.99887
G1 X28.931 Y-11.855 E7.01556
G1 X29.332 Y-11.319 E7.03226
G1 X29.665 Y-10.739 E7.04894
G1 X29.927 Y-10.123 E7.06564
G1 X30.113 Y-9.481 E7.08231
G1 X30.188 Y-9.084 E7.09239
G1 X30.363 Y-7.932 E7.12146
G1 X30.405 Y-7.583 E7.13023
G1 X30.707 Y-4.157 E7.21602
G1 X30.728 Y-3.552 E7.23112
G1 X30.499 Y7.75 E7.51311
G1 X30.445 Y8.417 E7.5298
G1 X30.313 Y9.073 E7.54649
G1 X30.103 Y9.708 E7.56318
G1 X29.793 Y10.361 E7.58121
G1 X29.292 Y11.261 E7.6069
G1 X28.932 Y11.825 E7.62359
G1 X28.508 Y12.342 E7.64027
G1 X28.025 Y12.805 E7.65696
G1 X27.49 Y13.207 E7.67366
G1 X26.911 Y13.542 E7.69034
G1 X26.296 Y13.806 E7.70704
G1 X25.654 Y13.995 E7.72373
G1 X24.982 Y14.107 E7.74073
G1 X24.094 Y14.2 E7.763
G1 X23.426 Y14.229 E7.77968
G1 X22.871 Y14.193 E7.79355
G1 X20.509 Y13.921 E7.85286
G1 X15.121 Y13.525 E7.98763
G1 X10.837 Y13.428 E8.09452
G1 X4.201 Y13.542 E8.26008
G1 X4.107 Y13.543 E8.26243
G1 X-2.719 Y13.545 E8.4327
G0 F3600 X-2.73 Y13.145
G1 F1800 X-8.175 Y13.299 E8.56858
G1 X-13.551 Y13.756 E8.70317
G1 X-16.129 Y14.084 E8.768
G1 X-16.686 Y14.125 E8.78193
G1 X-17.846 Y14.147 E8.81087
G1 X-18.213 Y14.141 E8.82003
G1 X-24.319 Y13.826 E8.97254
G1 X-24.959 Y13.753 E8.98861
G1 X-25.586 Y13.601 E9.00471
G1 X-26.189 Y13.373 E9.02079
G1 X-26.54 Y13.198 E9.03057
G1 X-27.136 Y12.873 E9.04751
G1 X-27.682 Y12.53 E9.06359
G1 X-28.181 Y12.122 E9.07967
G1 X-28.626 Y11.656 E9.09574
G1 X-29.01 Y11.137 E9.11185
G1 X-29.335 Y10.559 E9.12839
G1 X-29.71 Y9.778 E9.15
G1 X-29.952 Y9.18 E9.16609
G1 X-30.119 Y8.558 E9.18216
G1 X-30.211 Y7.866 E9.19957
G1 X-30.467 Y3.952 E9.29741
G1 X-30.477 Y3.695 E9.30383
G1 X-30.575 Y-2.517 E9.45881
G1 X-30.564 Y-2.952 E9.46966
G1 X-30.23 Y-7.859 E9.59235
G1 X-30.146 Y-8.498 E9.60843
G1 X-29.984 Y-9.122 E9.62451
G1 X-29.765 Y-9.683 E9.63953
G1 X-29.37 Y-10.54 E9.66307
G1 X-29.064 Y-11.107 E9.67915
G1 X-28.69 Y-11.633 E9.69525
G1 X-28.255 Y-12.108 E9.71131
G1 X-27.764 Y-12.526 E9.7274
G1 X-27.225 Y-12.879 E9.74347
G1 X-26.537 Y-13.207 E9.76248
G1 X-26.073 Y-13.388 E9.77491
G1 X-25.459 Y-13.585 E9.79099
G1 X-24.591 Y-13.728 E9.81294
G1 X-19.617 Y-14.119 E9.9374
G1 X-19.309 Y-14.134 E9.94509
G1 X-16.972 Y-14.179 E10.0034
G1 X-16.261 Y-14.144 E10.02115
G1 X-12.003 Y-13.64 E10.12811
G1 X-6.637 Y-13.268 E10.26229
G1 X-2.68 Y-13.186 E10.36102
G1 X3.999 Y-13.176 E10.52762
G1 X4.073 Y-13.175 E10.52947
G1 X10.781 Y-13.069 E10.69682
G1 X16.195 Y-13.222 E10.83193
G1 X23.791 Y-13.837 E11.02203
G1 X24.436 Y-13.849 E11.03813
G1 X25.077 Y-13.781 E11.0542
G1 X25.705 Y-13.635 E11.07029
G1 X26.31 Y-13.412 E11.08637
G1 X26.882 Y-13.115 E11.10245
G1 X27.414 Y-12.751 E11.11853
G1 X27.756 Y-12.458 E11.12976
G1 X28.197 Y-12.047 E11.1448
G1 X28.641 Y-11.579 E11.16089
G1 X29.023 Y-11.06 E11.17697
G1 X29.338 Y-10.497 E11.19306
G1 X29.581 Y-9.9 E11.20914
G1 X29.793 Y-9.024 E11.23162
G1 X29.968 Y-7.872 E11.26069
G1 X30.007 Y-7.548 E11.26883
G1 X30.309 Y-4.122 E11.35462
G1 X30.328 Y-3.56 E11.36865
G1 X30.099 Y7.742 E11.65064
G1 X30.046 Y8.385 E11.66673
G1 X29.914 Y9.016 E11.68281
G1 X29.705 Y9.626 E11.6989
G1 X29.443 Y10.166 E11.71387
G1 X28.942 Y11.066 E11.73956
G1 X28.595 Y11.609 E11.75564
G1 X28.182 Y12.104 E11.77172
G1 X27.712 Y12.545 E11.7878
G1 X27.19 Y12.924 E11.80389
G1 X26.626 Y13.236 E11.81997
G1 X26.027 Y13.475 E11.83606
G1 X25.404 Y13.639 E11.85213
G1 X24.941 Y13.709 E11.86381
G1 X24.053 Y13.802 E11.88608
G1 X23.409 Y13.829 E11.90216
G1 X22.917 Y13.796 E11.91446
G1 X20.537 Y13.522 E11.97422
G1 X15.14 Y13.125 E12.10921
G1 X10.839 Y13.028 E12.21653
G1 X4.194 Y13.142 E12.38231
G1 X4.107 Y13.143 E12.38448
G1 X-2.73 Y13.145 E12.55503
G1 F1500 E6.05503
G1 Z1.15
G0 F3600 X3.959 Y7.745 Z1.15
;TYPE:SUPPORT
G1 Z0.15
G1 F1500 E12.55503
G1 F1800 X-13.103 Y7.744 E12.98065
G1 X-16.468 Y8.665 E13.06767
G1 X-16.5 Y8.665 E13.06847
G1 X-16.892 Y8.748 E13.07847
G1 X-18.629 Y8.748 E13.1218
G1 X-19.021 Y8.665 E13.13179
G1 X-19.048 Y8.665 E13.13247
G1 X-21.337 Y8.086 E13.19136
G1 X-22.597 Y8.086 E13.22279
G1 X-23.523 Y8.421 E13.24736
G1 X-23.623 Y8.431 E13.24987
G1 X-23.647 Y8.436 E13.25048
G1 X-23.741 Y8.436 E13.25282
G1 X-23.798 Y8.442 E13.25425
G1 X-24.026 Y8.442 E13.25994
G1 X-24.293 Y8.299 E13.26749
G1 X-24.485 Y8.205 E13.27283
G1 X-24.792 Y7.652 E13.2886
G1 X-24.635 Y7.404 E13.29593
G1 X-25.014 Y5.125 E13.35356
G1 X-24.771 Y4.981 E13.3606
G1 X-24.574 Y4.484 E13.37394
G1 X-24.876 Y3.453 E13.40074
G1 X-24.811 Y2.764 E13.418
G1 X-25.036 Y1.709 E13.44491
G1 X-25.176 Y1.107 E13.46033
G1 X-25.176 Y-3.273 E13.56959
G1 X-24.856 Y-4.235 E13.59488
G1 X-24.834 Y-4.891 E13.61125
G1 X-24.837 Y-5.164 E13.61806
G1 X-24.812 Y-5.214 E13.61946
G1 X-24.819 Y-5.766 E13.63323
G1 X-24.806 Y-5.791 E13.63393
G1 X-24.799 Y-7.513 E13.67689
G1 X-24.82 Y-7.543 E13.6778
G1 X-24.498 Y-8.234 E13.69682
G1 X-24.358 Y-8.301 E13.70069
G1 X-24.195 Y-8.35 E13.70493
G1 X-24.118 Y-8.355 E13.70686
G1 X-24.054 Y-8.366 E13.70848
G1 X-23.869 Y-8.366 E13.71309
G1 X-23.47 Y-8.02 E13.72627
G1 X-21.417 Y-8.02 E13.77748
G1 X-19.063 Y-8.707 E13.83865
G1 X-19.038 Y-8.707 E13.83927
G1 X-18.651 Y-8.791 E13.84915
G1 X-16.901 Y-8.791 E13.89281
G1 X-16.514 Y-8.707 E13.90268
G1 X-16.462 Y-8.707 E13.90398
G1 X-12.821 Y-7.786 E13.99767
G1 X3.955 Y-7.786 E14.41615
G1 X4.337 Y-7.668 E14.42612
G1 X22.694 Y-7.669 E14.88404
G1 X23.119 Y-7.99 E14.89732
G1 X23.239 Y-8.406 E14.90812
G1 X23.393 Y-8.462 E14.91221
G1 X23.458 Y-8.47 E14.91384
G1 X23.537 Y-8.472 E14.91582
G1 X23.615 Y-8.484 E14.91778
G1 X23.921 Y-8.483 E14.92542
G1 X23.945 Y-8.483 E14.92602
G1 X24.13 Y-8.47 E14.93064
G1 X24.46 Y-8.162 E14.9419
G1 X24.411 Y-7.736 E14.9526
G1 X24.564 Y-7.275 E14.96472
G1 X24.614 Y-7.221 E14.96655
G1 X24.943 Y-4.17 E15.0431
G1 X24.794 Y-3.821 E15.05257
G1 X24.674 Y-2.331 E15.08986
G1 X24.713 Y-2.112 E15.0954
G1 X24.66 Y-1.726 E15.10512
G1 X24.843 Y-0.083 E15.14636
G1 X24.647 Y1.794 E15.19344
G1 X24.778 Y2.18 E15.20361
G1 X24.727 Y4.611 E15.26426
G1 X24.706 Y4.657 E15.26552
G1 X24.706 Y5.313 E15.28189
G1 X24.668 Y7.643 E15.34002
G1 X24.675 Y7.652 E15.3403
G1 X24.277 Y8.373 E15.36084
G1 X24.075 Y8.426 E15.36605
G1 X23.929 Y8.441 E15.36971
G1 X23.538 Y8.44 E15.37947
G1 X23.353 Y8.401 E15.38418
G1 X23.353 Y8.027 E15.39351
G1 X22.954 Y7.628 E15.40759
G1 X4.729 Y7.627 E15.86221
G1 X4.347 Y7.745 E15.87219
G1 X3.959 Y7.745 E15.88187
G1 F1500 E9.38187
G1 Z1.15
G0 F3600 X-12.947 Y2.49 Z1.15
G1 Z0.15
G1 F1500 E15.88187
G1 F1800 X22.838 Y2.482 E16.77453
G1 X22.892 Y2.558 E16.77685
G1 X23.98 Y2.557 E16.80399
G1 X24.188 Y2.469 E16.80963
G1 X24.371 Y2.251 E16.81673
G1 X24.476 Y1.991 E16.82372
G1 X24.571 Y1.663 E16.83224
G1 X24.664 Y1.129 E16.84576
G1 X24.68 Y0.926 E16.85084
G1 X24.73 Y0.547 E16.86038
G1 X24.756 Y-0.024 E16.87464
G1 X24.747 Y-.38 E16.88352
G1 X24.707 Y-.815 E16.89442
G1 X24.676 Y-1.05 E16.90033
G1 X24.638 Y-1.356 E16.90802
G1 X24.573 Y-1.704 E16.91685
G1 X24.472 Y-2.066 E16.92623
G1 X24.363 Y-2.298 E16.93262
G1 X24.184 Y-2.532 E16.93997
G1 X23.971 Y-2.599 E16.94554
G1 X22.857 Y-2.601 E16.97333
G1 X22.819 Y-2.525 E16.97545
G1 X-12.947 Y-2.531 E17.86763
G1 X-12.963 Y-2.009 E17.88066
G1 X-13.145 Y-2.009 E17.8852
G1 X-13.235 Y-1.159 E17.90652
G1 X-13.291 Y-.805 E17.91546
G1 X-13.359 Y-.466 E17.92409
G1 X-13.47 Y-0.021 E17.93553
G1 X-13.365 Y0.396 E17.94626
G1 X-13.295 Y0.743 E17.95509
G1 X-13.234 Y1.126 E17.96476
G1 X-13.145 Y1.966 E17.98583
G1 X-13.002 Y1.966 E17.9894
G1 X-12.983 Y2.017 E17.99076
G1 X-12.962 Y2.025 E17.99132
G1 X-12.947 Y2.49 E18.00292
G1 F1500 E11.50292
G1 Z1.15
G0 F3600 X-22.375 Y1.984 Z1.15
G1 Z0.15
G1 F1500 E18.00292
G1 F1800 X-22.281 Y1.12 E18.0246
G1 X-22.222 Y0.75 E18.03395
G1 X-22.157 Y0.423 E18.04227
G1 X-22.046 Y-0.021 E18.05368
G1 X-22.157 Y-.466 E18.06512
G1 X-22.227 Y-.813 E18.07395
G1 X-22.279 Y-1.138 E18.08216
G1 X-22.369 Y-1.996 E18.10368
G1 X-22.551 Y-2.002 E18.10823
G1 X-22.561 Y-2.537 E18.12157
G1 X-22.956 Y-2.528 E18.13143
G1 X-23.006 Y-2.6 E18.13362
G1 X-24.098 Y-2.6 E18.16086
G1 X-24.306 Y-2.511 E18.1665
G1 X-24.486 Y-2.296 E18.1735
G1 X-24.593 Y-2.035 E18.18053
G1 X-24.688 Y-1.705 E18.1891
G1 X-24.781 Y-1.171 E18.20262
G1 X-24.797 Y-.968 E18.2077
G1 X-24.847 Y-.592 E18.21716
G1 X-24.873 Y-0.017 E18.23152
G1 X-24.864 Y0.335 E18.2403
G1 X-24.825 Y0.765 E18.25107
G1 X-24.796 Y0.981 E18.25651
G1 X-24.755 Y1.314 E18.26488
G1 X-24.69 Y1.662 E18.27371
G1 X-24.589 Y2.024 E18.28308
G1 X-24.48 Y2.256 E18.28948
G1 X-24.301 Y2.49 E18.29683
G1 X-24.088 Y2.557 E18.3024
G1 X-22.999 Y2.559 E18.32956
G1 X-22.952 Y2.485 E18.33175
G1 X-22.569 Y2.493 E18.34131
G1 X-22.553 Y1.981 E18.35408
G1 X-22.375 Y1.984 E18.35852
G1 F1500 E11.85852
G1 Z1.15
G0 F3600 X-22.876 Y2.665 Z1.15
G1 Z0.15
G1 F1500 E18.35852
G1 F1800 X22.774 Y2.666 E19.49727
G1 F1500 E12.99727
G1 Z1.15
G0 F3600 X23.994 Y2.717 Z1.15
G1 Z0.15
G1 F1500 E19.49727
G1 F1800 X23.994 Y8.274 E19.63589
G0 F3600 X24.301 Y7.998
G1 F1800 X23.513 Y7.998 E19.65555
G1 F1500 E13.15555
G1 Z1.15
G0 F3600 X21.328 Y7.467 Z1.15
G1 Z0.15
G1 F1500 E19.65555
G1 F1800 X21.328 Y2.642 E19.77591
G1 F1500 E13.27591
G1 Z1.15
G0 F3600 X18.662 Y2.642 Z1.15
G1 Z0.15
G1 F1500 E19.77591
G1 F1800 X18.662 Y7.467 E19.89627
G1 F1500 E13.39627
G1 Z1.15
G0 F3600 X15.996 Y7.467 Z1.15
G1 Z0.15
G1 F1500 E19.89627
G1 F1800 X15.996 Y2.643 E20.0166
G1 F1500 E13.5166
G1 Z1.15
G0 F3600 X13.33 Y2.644 Z1.15
G1 Z0.15
G1 F1500 E20.0166
G1 F1800 X13.33 Y7.467 E20.13691
G1 F1500 E13.63691
G1 Z1.15
G0 F3600 X10.664 Y7.467 Z1.15
G1 Z0.15
G1 F1500 E20.13691
G1 F1800 X10.664 Y2.644 E20.25722
G1 F1500 E13.75722
G1 Z1.15
G0 F3600 X7.998 Y2.645 Z1.15
G1 Z0.15
G1 F1500 E20.25722
G1 F1800 X7.998 Y7.467 E20.37751
G1 F1500 E13.87751
G1 Z1.15
G0 F3600 X5.332 Y7.467 Z1.15
G1 Z0.15
G1 F1500 E20.37751
G1 F1800 X5.332 Y2.645 E20.49779
G1 F1500 E13.99779
G1 Z1.15
G0 F3600 X2.666 Y2.646 Z1.15
G1 Z0.15
G1 F1500 E20.49779
G1 F1800 X2.666 Y7.584 E20.62097
G1 F1500 E14.12097
G1 Z1.15
G0 F3600 X0.00 Y7.584 Z1.15
G1 Z0.15
G1 F1500 E20.62097
G1 F1800 X0.00 Y2.647 E20.74412
G1 F1500 E14.24412
G1 Z1.15
G0 F3600 X-2.666 Y2.647 Z1.15
G1 Z0.15
G1 F1500 E20.74412
G1 F1800 X-2.666 Y7.584 E20.86728
G1 F1500 E14.36728
G1 Z1.15
G0 F3600 X-5.332 Y7.584 Z1.15
G1 Z0.15
G1 F1500 E20.86728
G1 F1800 X-5.332 Y2.648 E20.99041
G1 F1500 E14.49041
G1 Z1.15
G0 F3600 X-7.998 Y2.648 Z1.15
G1 Z0.15
G1 F1500 E20.99041
G1 F1800 X-7.998 Y7.584 E21.11354
G1 F1500 E14.61354
G1 Z1.15
G0 F3600 X-10.664 Y7.584 Z1.15
G1 Z0.15
G1 F1500 E21.11354
G1 F1800 X-10.664 Y2.649 E21.23664
G1 F1500 E14.73664
G1 Z1.15
G0 F3600 X-13.33 Y1.738 Z1.15
G1 Z0.15
G1 F1500 E21.23664
G1 F1800 X-13.33 Y7.641 E21.38389
G1 F1500 E14.88389
G1 Z1.15
G0 F3600 X-14.637 Y7.997 Z1.15
G1 Z0.15
G1 F1500 E21.38389
G1 F1800 X-21.034 Y7.997 E21.54347
G0 F3600 X-21.328 Y7.926
G1 F1800 X-21.328 Y-7.879 E21.93772
G0 F3600 X-20.917 Y-7.998
G1 F1800 X-14.315 Y-7.998 E22.10241
G1 F1500 E15.60241
G1 Z1.15
G0 F3600 X-13.33 Y-7.749 Z1.15
G1 Z0.15
G1 F1500 E22.10241
