;FLAVOR:RepRap
;TIME:4275
;Filament used: 2.1202m
;Layer height: 0.1
;Generated with Cura_SteamEngine 2.4.0
M190 S50
M104 S195
M109 S195
G21 ;metric values
G90 ;absolute positioning
M82 ;set extruder to absolute mode
M107 ;start with the fan off
G28 ;Home all axes (max endstops)

M0 Add PROBE
M106 S255 ;	Turn fan on 100% power, cool the probe
M117 Auto leveling...
G29   ; DAQ -- auto level
M500
G1 x0 y0
M0 Remove PROBE

G1 Z75.0 F9000 ;move the platform down 15mm
G92 E0 ;zero the extruded length
G1 F200 E3 ;extrude 3mm of feed stock
G92 E0 ;zero the extruded length again

G1 Z100 F9000
M0 CLEAN ME...

M106 S191 ;	Turn fan on 50% power

G1 F9000
M117 Printing...
;LAYER_COUNT:159
;LAYER:0
M107
G1 F1500 E-6.5
G1 Z23
G0 F3600 X-2.179 Y-13.908 Z3.15
;TYPE:SKIRT
G1 Z0.15
G1 F1500 E0
G1 F1800 X13.51 Y-13.949 E0.39137
G1 X18.827 Y-14.25 E0.52421
G1 X22.817 Y-14.672 E0.6243
G1 X23.821 Y-14.693 E0.64935
G1 X24.656 Y-14.641 E0.67022
G1 X25.343 Y-14.559 E0.68748
G1 X26.017 Y-14.397 E0.70477
G1 X26.667 Y-14.159 E0.72203
G1 X27.286 Y-13.848 E0.73931
G1 X27.864 Y-13.467 E0.75658
G1 X28.561 Y-12.86 E0.77964
G1 X28.973 Y-12.441 E0.7943
G1 X29.429 Y-11.92 E0.81157
G1 X29.823 Y-11.35 E0.82885
G1 X30.148 Y-10.738 E0.84614
G1 X30.4 Y-10.093 E0.86341
G1 X30.576 Y-9.423 E0.88069
G1 X30.653 Y-8.941 E0.89287
G1 X30.907 Y-6.801 E0.94663
G1 X30.949 Y-6.076 E0.96474
G1 X30.936 Y-1.89 E1.06916
G1 X31.127 Y3.115 E1.1941
G1 X31.12 Y3.706 E1.20885
G1 X30.987 Y5.899 E1.26365
G1 X30.982 Y5.973 E1.2655
G1 X30.816 Y8.246 E1.32235
G1 X30.726 Y8.933 E1.33964
G1 X30.557 Y9.604 E1.3569
G1 X30.312 Y10.252 E1.37418
G1 X30.049 Y10.772 E1.38872
G1 X29.723 Y11.346 E1.40518
G1 X29.347 Y11.928 E1.42247
G1 X28.906 Y12.462 E1.43974
G1 X28.407 Y12.942 E1.45701
G1 X27.856 Y13.361 E1.47428
G1 X27.26 Y13.714 E1.49156
G1 X26.627 Y13.995 E1.50884
G1 X26.128 Y14.16 E1.52195
G1 X25.519 Y14.331 E1.53773
G1 X24.843 Y14.479 E1.55499
G1 X24.154 Y14.549 E1.57227
G1 X23.462 Y14.538 E1.58953
G1 X16.26 Y14.014 E1.76966
G1 X10.86 Y13.939 E1.90438
G1 X-2.972 Y13.984 E2.24942
G1 X-8.41 Y14.137 E2.38512
G1 X-13.722 Y14.588 E2.51811
G1 X-16.312 Y14.918 E2.58324
G1 X-17.074 Y14.966 E2.60228
G1 X-18.465 Y14.965 E2.63698
G1 X-18.946 Y14.945 E2.64899
G1 X-24.913 Y14.461 E2.79833
G1 X-25.599 Y14.366 E2.8156
G1 X-26.269 Y14.191 E2.83288
G1 X-27.1 Y13.853 E2.85526
G1 X-27.295 Y13.756 E2.86069
G1 X-27.896 Y13.412 E2.87796
G1 X-28.454 Y13.002 E2.89524
G1 X-28.961 Y12.529 E2.91253
G1 X-29.409 Y12.002 E2.92979
G1 X-29.794 Y11.426 E2.94707
G1 X-30.111 Y10.81 E2.96435
G1 X-30.444 Y9.839 E2.98996
G1 X-30.801 Y8.411 E3.02667
G1 X-30.894 Y7.97 E3.03792
G1 X-31.128 Y6.605 E3.07246
G1 X-31.21 Y5.818 E3.0922
G1 X-31.318 Y2.967 E3.16337
G1 X-31.322 Y2.782 E3.16799
G1 X-31.363 Y-3.102 E3.31477
G1 X-31.334 Y-3.734 E3.33055
G1 X-30.839 Y-8.742 E3.45608
G1 X-30.731 Y-9.426 E3.47336
G1 X-30.545 Y-10.093 E3.49063
G1 X-30.284 Y-10.735 E3.50792
G1 X-29.95 Y-11.341 E3.52518
G1 X-29.641 Y-11.788 E3.53873
G1 X-29.286 Y-12.254 E3.55335
G1 X-28.835 Y-12.78 E3.57063
G1 X-28.327 Y-13.25 E3.5879
G1 X-27.768 Y-13.659 E3.60517
G1 X-27.165 Y-14 E3.62245
G1 X-26.323 Y-14.338 E3.64509
G1 X-26.086 Y-14.413 E3.65129
G1 X-25.415 Y-14.584 E3.66856
G1 X-24.539 Y-14.687 E3.69056
G1 X-17.343 Y-15.003 E3.87024
G1 X-16.34 Y-14.963 E3.89528
G1 X-11.643 Y-14.38 E4.01335
G1 X-6.297 Y-13.997 E4.14705
G1 X-2.179 Y-13.908 E4.24979
G0 F3600 X-2.187 Y-13.508
G1 F1800 X13.515 Y-13.549 E4.64148
G1 X18.872 Y-13.852 E4.77533
G1 X22.859 Y-14.274 E4.87534
G1 X23.796 Y-14.294 E4.89872
G1 X24.631 Y-14.242 E4.91959
G1 X25.295 Y-14.161 E4.93627
G1 X25.945 Y-14.001 E4.95297
G1 X26.571 Y-13.764 E4.96967
G1 X27.164 Y-13.455 E4.98635
G1 X27.716 Y-13.077 E5.00304
G1 X28.276 Y-12.579 E5.02173
G1 X28.688 Y-12.16 E5.03639
G1 X29.128 Y-11.656 E5.05308
G1 X29.504 Y-11.103 E5.06976
G1 X29.812 Y-10.509 E5.08645
G1 X30.047 Y-9.883 E5.10313
G1 X30.205 Y-9.233 E5.11982
G1 X30.256 Y-8.894 E5.12837
G1 X30.51 Y-6.754 E5.18213
G1 X30.549 Y-6.077 E5.19904
G1 X30.536 Y-1.876 E5.30384
G1 X30.727 Y3.13 E5.4288
G1 X30.721 Y3.682 E5.44257
G1 X30.588 Y5.875 E5.49738
G1 X30.583 Y5.944 E5.49911
G1 X30.417 Y8.217 E5.55596
G1 X30.329 Y8.88 E5.57264
G1 X30.162 Y9.528 E5.58933
G1 X29.919 Y10.151 E5.60601
G1 X29.701 Y10.575 E5.61791
G1 X29.375 Y11.149 E5.63437
G1 X29.011 Y11.71 E5.65106
G1 X28.582 Y12.223 E5.66774
G1 X28.095 Y12.682 E5.68443
G1 X27.557 Y13.079 E5.70111
G1 X26.975 Y13.409 E5.7178
G1 X26.358 Y13.668 E5.73449
G1 X26.02 Y13.774 E5.74333
G1 X25.411 Y13.945 E5.75911
G1 X24.757 Y14.088 E5.77581
G1 X24.091 Y14.151 E5.79249
G1 X23.491 Y14.139 E5.80746
G1 X16.277 Y13.615 E5.98789
G1 X10.865 Y13.539 E6.12291
G1 X-2.985 Y13.584 E6.4684
G1 X-8.42 Y13.737 E6.60403
G1 X-13.784 Y14.193 E6.73832
G1 X-16.363 Y14.521 E6.80317
G1 X-17.074 Y14.566 E6.82094
G1 X-18.465 Y14.565 E6.85564
G1 X-18.914 Y14.547 E6.86685
G1 X-24.881 Y14.063 E7.01619
G1 X-25.543 Y13.969 E7.03286
G1 X-26.19 Y13.797 E7.04956
G1 X-26.922 Y13.495 E7.06932
G1 X-27.117 Y13.398 E7.07475
G1 X-27.697 Y13.065 E7.09143
G1 X-28.234 Y12.665 E7.10814
G1 X-28.718 Y12.204 E7.12481
G1 X-29.145 Y11.688 E7.14152
G1 X-29.506 Y11.125 E7.1582
G1 X-29.798 Y10.523 E7.17489
G1 X-30.056 Y9.742 E7.19541
G1 X-30.413 Y8.314 E7.23213
G1 X-30.499 Y7.902 E7.24263
G1 X-30.733 Y6.537 E7.27717
G1 X-30.81 Y5.803 E7.29558
G1 X-30.918 Y2.952 E7.36675
G1 X-30.922 Y2.779 E7.37107
G1 X-30.963 Y-3.105 E7.51785
G1 X-30.936 Y-3.695 E7.53258
G1 X-30.441 Y-8.703 E7.65812
G1 X-30.335 Y-9.363 E7.67479
G1 X-30.152 Y-10.007 E7.69149
G1 X-29.893 Y-10.624 E7.70818
G1 X-29.562 Y-11.205 E7.72486
G1 X-29.323 Y-11.546 E7.73525
G1 X-28.968 Y-12.012 E7.74986
G1 X-28.531 Y-12.519 E7.76656
G1 X-28.037 Y-12.97 E7.78325
G1 X-27.493 Y-13.359 E7.79993
G1 X-26.906 Y-13.681 E7.81663
G1 X-26.203 Y-13.957 E7.83547
G1 X-25.966 Y-14.032 E7.84167
G1 X-25.317 Y-14.195 E7.85836
G1 X-24.522 Y-14.288 E7.87833
G1 X-17.326 Y-14.604 E8.05801
G1 X-16.39 Y-14.566 E8.08138
G1 X-11.684 Y-13.981 E8.19967
G1 X-6.314 Y-13.597 E8.33397
G1 X-2.187 Y-13.508 E8.43694
G0 F3600 X-2.194 Y-13.108
G1 F1800 X13.521 Y-13.149 E8.82895
G1 X18.916 Y-13.454 E8.96375
G1 X22.901 Y-13.876 E9.06371
G1 X23.771 Y-13.895 E9.08542
G1 X24.606 Y-13.843 E9.10629
G1 X25.246 Y-13.763 E9.12238
G1 X25.871 Y-13.605 E9.13846
G1 X26.471 Y-13.37 E9.15453
G1 X27.038 Y-13.063 E9.17062
G1 X27.563 Y-12.688 E9.18671
G1 X27.991 Y-12.299 E9.20114
G1 X28.403 Y-11.88 E9.2158
G1 X28.825 Y-11.393 E9.23187
G1 X29.185 Y-10.858 E9.24796
G1 X29.475 Y-10.282 E9.26404
G1 X29.691 Y-9.675 E9.28011
G1 X29.859 Y-8.847 E9.30119
G1 X30.113 Y-6.707 E9.35495
G1 X30.149 Y-6.078 E9.37066
G1 X30.136 Y-1.862 E9.47583
G1 X30.327 Y3.145 E9.60082
G1 X30.321 Y3.658 E9.61362
G1 X30.188 Y5.851 E9.66843
G1 X30.184 Y5.915 E9.67003
G1 X30.018 Y8.188 E9.72688
G1 X29.931 Y8.827 E9.74296
G1 X29.766 Y9.45 E9.75904
G1 X29.525 Y10.048 E9.77512
G1 X29.354 Y10.377 E9.78437
G1 X29.028 Y10.951 E9.80084
G1 X28.675 Y11.491 E9.81693
G1 X28.259 Y11.983 E9.833
G1 X27.784 Y12.419 E9.84909
G1 X27.26 Y12.794 E9.86516
G1 X26.693 Y13.101 E9.88125
G1 X25.912 Y13.389 E9.90201
G1 X25.303 Y13.56 E9.91779
G1 X24.672 Y13.696 E9.93389
G1 X24.03 Y13.752 E9.94997
G1 X23.52 Y13.74 E9.96269
G1 X16.295 Y13.215 E10.1434
G1 X10.869 Y13.139 E10.27876
G1 X-2.998 Y13.184 E10.62468
G1 X-8.446 Y13.337 E10.76063
G1 X-13.821 Y13.794 E10.8952
G1 X-16.413 Y14.124 E10.96037
G1 X-17.074 Y14.166 E10.9769
G1 X-18.465 Y14.165 E11.0116
G1 X-18.881 Y14.148 E11.02198
G1 X-24.848 Y13.664 E11.17132
G1 X-25.486 Y13.572 E11.1874
G1 X-26.108 Y13.402 E11.20348
G1 X-26.744 Y13.137 E11.22067
G1 X-26.939 Y13.04 E11.2261
G1 X-27.497 Y12.717 E11.24219
G1 X-28.011 Y12.328 E11.25827
G1 X-28.473 Y11.879 E11.27434
G1 X-28.876 Y11.376 E11.29041
G1 X-29.214 Y10.826 E11.30652
G1 X-29.481 Y10.24 E11.32258
G1 X-29.668 Y9.645 E11.33814
G1 X-30.025 Y8.217 E11.37486
G1 X-30.105 Y7.835 E11.38459
G1 X-30.339 Y6.47 E11.41914
G1 X-30.41 Y5.788 E11.43624
G1 X-30.518 Y2.937 E11.50741
G1 X-30.522 Y2.776 E11.51143
G1 X-30.563 Y-3.108 E11.65821
G1 X-30.538 Y-3.655 E11.67187
G1 X-30.043 Y-8.663 E11.7974
G1 X-29.94 Y-9.3 E11.8135
G1 X-29.759 Y-9.919 E11.82959
G1 X-29.503 Y-10.51 E11.84565
G1 X-29.004 Y-11.303 E11.86903
G1 X-28.649 Y-11.769 E11.88364
G1 X-28.228 Y-12.257 E11.89972
G1 X-27.749 Y-12.688 E11.91579
G1 X-27.22 Y-13.058 E11.93189
G1 X-26.65 Y-13.358 E11.94796
G1 X-26.082 Y-13.576 E11.96314
G1 X-25.845 Y-13.651 E11.96934
G1 X-25.219 Y-13.807 E11.98543
G1 X-24.504 Y-13.888 E12.00338
G1 X-17.308 Y-14.204 E12.18306
G1 X-16.439 Y-14.169 E12.20476
G1 X-11.722 Y-13.583 E12.32333
G1 X-6.332 Y-13.197 E12.45812
G1 X-2.194 Y-13.108 E12.56137
G0 F3600 X-12.336 Y-7.708
;TYPE:SUPPORT
G1 F1800 X22.764 Y-7.709 E13.43694
G1 X23.188 Y-8.03 E13.45021
G1 X23.312 Y-8.466 E13.46152
G1 X23.399 Y-8.496 E13.46381
G1 X23.51 Y-8.521 E13.46665
G1 X23.585 Y-8.523 E13.46852
G1 X23.802 Y-8.522 E13.47394
G1 X23.989 Y-8.523 E13.4786
G1 X24.092 Y-8.515 E13.48118
G1 X24.184 Y-8.488 E13.48357
G1 X24.496 Y-8.167 E13.49474
G1 X24.403 Y-7.736 E13.50573
G1 X24.555 Y-7.255 E13.51832
G1 X24.618 Y-7.196 E13.52047
G1 X24.637 Y-6.828 E13.52966
G1 X24.759 Y-6.083 E13.54849
G1 X24.726 Y-5.694 E13.55823
G1 X24.727 Y-2.818 E13.62998
G1 X24.728 Y-2.812 E13.63013
G1 X24.696 Y-2.41 E13.64019
G1 X24.706 Y-2.362 E13.64141
G1 X24.654 Y-1.978 E13.65108
G1 X24.753 Y-1.248 E13.66945
G1 X24.755 Y-1.043 E13.67457
G1 X24.671 Y-1.493 E13.68599
G1 X24.669 Y-1.498 E13.68612
G1 X24.662 Y-1.552 E13.68748
G1 X24.57 Y-2.003 E13.69896
G1 X24.47 Y-2.301 E13.7068
G1 X24.358 Y-2.524 E13.71303
G1 X24.187 Y-2.721 E13.71953
G1 X23.981 Y-2.809 E13.72512
G1 X23.015 Y-2.806 E13.74922
G1 X22.888 Y-2.73 E13.75291
G1 X15.274 Y-2.724 E13.94284
G1 X-12.966 Y-2.731 E14.64729
G1 X-12.96 Y-2.29 E14.65829
G1 X-13.138 Y-2.29 E14.66273
G1 X-13.163 Y-1.941 E14.67146
G1 X-13.334 Y-1.862 E14.67616
G1 X-13.435 Y-1.332 E14.68962
G1 X-13.321 Y-.651 E14.70684
G1 X-13.358 Y-.466 E14.71155
G1 X-13.469 Y-0.021 E14.72299
G1 X-13.364 Y0.399 E14.73379
G1 X-13.29 Y0.76 E14.74298
G1 X-13.241 Y1.057 E14.75049
G1 X-13.196 Y1.444 E14.76021
G1 X-13.141 Y2.247 E14.78029
G1 X-12.961 Y2.247 E14.78478
G1 X-12.955 Y2.688 E14.79578
G1 X15.274 Y2.682 E15.49996
G1 X22.899 Y2.691 E15.69016
G1 X22.962 Y2.729 E15.692
G1 X23.135 Y2.765 E15.69641
G1 X23.986 Y2.767 E15.71763
G1 X24.189 Y2.673 E15.72321
G1 X24.359 Y2.474 E15.72974
G1 X24.483 Y2.221 E15.73677
G1 X24.55 Y2.016 E15.74215
G1 X24.655 Y1.556 E15.75392
G1 X24.67 Y1.436 E15.75694
G1 X24.672 Y1.43 E15.7571
G1 X24.744 Y1.091 E15.76574
G1 X24.77 Y0.848 E15.77184
G1 X24.772 Y1.087 E15.7778
G1 X24.502 Y2.971 E15.82528
G1 X24.785 Y3.433 E15.83879
G1 X24.929 Y3.484 E15.8426
G1 X24.65 Y6.787 E15.92529
G1 X24.696 Y6.912 E15.92861
G1 X24.625 Y7.003 E15.93149
G1 X24.532 Y7.49 E15.94386
G1 X24.624 Y7.79 E15.95169
G1 X24.371 Y8.238 E15.96452
G1 X24.231 Y8.307 E15.96841
G1 X24.067 Y8.356 E15.97268
G1 X23.963 Y8.362 E15.97528
G1 X23.598 Y8.362 E15.98439
G1 X23.289 Y8.178 E15.99336
G1 X22.243 Y7.667 E16.0224
G1 X9.612 Y7.667 E16.33748
G1 X9.23 Y7.785 E16.34745
G1 X8.842 Y7.785 E16.35713
G1 X-12.927 Y7.784 E16.90016
G1 X-16.58 Y8.692 E16.99406
G1 X-16.696 Y8.692 E16.99695
G1 X-17.083 Y8.776 E17.00683
G1 X-18.437 Y8.776 E17.04061
G1 X-18.824 Y8.692 E17.05048
G1 X-18.913 Y8.692 E17.0527
G1 X-23.341 Y7.671 E17.16606
G1 X-23.812 Y8.01 E17.18054
G1 X-23.845 Y8.365 E17.18943
G1 X-23.963 Y8.369 E17.19237
G1 X-24.195 Y8.355 E17.19817
G1 X-24.333 Y8.315 E17.20176
G1 X-24.412 Y8.276 E17.20395
G1 X-24.389 Y8.126 E17.20774
G1 X-24.554 Y7.655 E17.22019
G1 X-24.67 Y7.549 E17.22411
G1 X-24.675 Y7.185 E17.23319
G1 X-25.013 Y5.623 E17.27306
G1 X-24.81 Y5.249 E17.28367
G1 X-24.955 Y2.305 E17.3572
G1 X-25.176 Y1.335 E17.38202
G1 X-25.176 Y-3.076 E17.49205
G1 X-24.943 Y-3.772 E17.51036
G1 X-24.797 Y-6.43 E17.57676
G1 X-24.778 Y-6.457 E17.57758
G1 X-24.682 Y-8.083 E17.61822
G1 X-24.398 Y-8.455 E17.62989
G1 X-24.192 Y-8.519 E17.63527
G1 X-24.095 Y-8.522 E17.63769
G1 X-23.917 Y-8.523 E17.64213
G1 X-23.663 Y-8.521 E17.64847
G1 X-23.52 Y-8.497 E17.65209
G1 X-22.529 Y-8.165 E17.67816
G1 X-21.21 Y-8.165 E17.71106
G1 X-18.94 Y-8.734 E17.76944
G1 X-18.808 Y-8.734 E17.77273
G1 X-18.42 Y-8.819 E17.78264
G1 X-17.091 Y-8.819 E17.81579
G1 X-16.703 Y-8.734 E17.8257
G1 X-16.581 Y-8.734 E17.82874
G1 X-12.336 Y-7.708 E17.93768
G0 F3600 X-22.561 Y-2.73
G1 F1800 X-23.007 Y-2.73 E17.94881
G1 X-23.083 Y-2.772 E17.95097
G1 X-23.257 Y-2.807 E17.9554
G1 X-24.104 Y-2.81 E17.97653
G1 X-24.308 Y-2.713 E17.98216
G1 X-24.476 Y-2.513 E17.98868
G1 X-24.597 Y-2.27 E17.99545
G1 X-24.667 Y-2.059 E18.001
G1 X-24.772 Y-1.596 E18.01284
G1 X-24.786 Y-1.48 E18.01575
G1 X-24.788 Y-1.473 E18.01594
G1 X-24.861 Y-1.134 E18.02459
G1 X-24.921 Y-.571 E18.03871
G1 X-24.936 Y-0.021 E18.05244
G1 X-24.932 Y0.318 E18.06089
G1 X-24.914 Y0.583 E18.06752
G1 X-24.878 Y0.967 E18.07714
G1 X-24.788 Y1.451 E18.08942
G1 X-24.787 Y1.453 E18.08948
G1 X-24.779 Y1.51 E18.09091
G1 X-24.687 Y1.961 E18.10239
G1 X-24.588 Y2.256 E18.11015
G1 X-24.473 Y2.486 E18.11657
G1 X-24.305 Y2.676 E18.1229
G1 X-24.1 Y2.767 E18.12849
G1 X-23.154 Y2.765 E18.15209
G1 X-23.011 Y2.691 E18.15611
G1 X-22.552 Y2.685 E18.16756
G1 X-22.557 Y2.267 E18.17798
G1 X-22.379 Y2.277 E18.18243
G1 X-22.324 Y1.487 E18.20219
G1 X-22.28 Y1.1 E18.2119
G1 X-22.281 Y1.1 E18.21193
G1 X-22.226 Y0.763 E18.22044
G1 X-22.156 Y0.416 E18.22927
G1 X-22.047 Y-0.021 E18.24051
G1 X-22.16 Y-.471 E18.25208
G1 X-22.224 Y-.792 E18.26025
G1 X-22.281 Y-1.155 E18.26941
G1 X-22.323 Y-1.515 E18.27846
G1 X-22.378 Y-2.321 E18.29861
G1 X-22.555 Y-2.311 E18.30303
G1 X-22.561 Y-2.73 E18.31348
G0 F3600 X-22.4 Y-2.666
G1 F1800 X-13.124 Y-2.666 E18.54487
G0 F3600 X-13.33 Y-2.039
G1 F1800 X-13.33 Y-7.783 E18.68816
G0 F3600 X-14.221 Y-7.998
G1 F1800 X-24.526 Y-7.998 E18.94522
G0 F3600 X-23.994 Y-8.363
G1 F1800 X-23.994 Y-2.97 E19.07975
G0 F3600 X-24.556 Y-2.666
G1 F1800 X-25.016 Y-2.666 E19.09122
G0 F3600 X-24.697 Y-5.332
G1 F1800 X24.567 Y-5.331 E20.32012
G0 F3600 X23.994 Y-2.968
G1 F1800 X23.994 Y-8.361 E20.45465
G0 F3600 X24.296 Y-7.997
G1 F1800 X23.346 Y-7.997 E20.47834
G0 F3600 X21.328 Y-7.549
G1 F1800 X21.328 Y-2.888 E20.59461
G0 F3600 X18.662 Y-2.886
G1 F1800 X18.662 Y-7.549 E20.71093
G0 F3600 X15.996 Y-7.549
G1 F1800 X15.996 Y-2.884 E20.8273
G0 F3600 X13.33 Y-2.885
G1 F1800 X13.33 Y-7.549 E20.94365
G0 F3600 X10.664 Y-7.549
G1 F1800 X10.664 Y-2.886 E21.05996
G0 F3600 X7.998 Y-2.886
G1 F1800 X7.998 Y-7.549 E21.17628
G0 F3600 X5.332 Y-7.549
G1 F1800 X5.332 Y-2.887 E21.29258
G0 F3600 X2.666 Y-2.888
G1 F1800 X2.666 Y-7.549 E21.40885
G0 F3600 X0.00 Y-7.549
G1 F1800 X0.00 Y-2.888 E21.52512
G0 F3600 X-2.666 Y-2.889
G1 F1800 X-2.666 Y-7.549 E21.64136
G0 F3600 X-5.332 Y-7.549
G1 F1800 X-5.332 Y-2.89 E21.75758
G0 F3600 X-7.998 Y-2.89
G1 F1800 X-7.998 Y-7.549 E21.8738
G0 F3600 X-10.664 Y-7.549
G1 F1800 X-10.664 Y-2.891 E21.98999
G1 F1500 E15.48999
G0 F3600 X-13.375 Y-2.544
G0 X-13.741 Y-0.021
G0 X-13.628 Y0.00
G1 F1500 E21.98999
G1 F1800 X-21.887 Y0.00 E22.19601
G1 F1500 E15.69601
G0 F3600 X-21.896 Y0.468
G0 X-22.145 Y2.545
G0 X-22.392 Y2.665
G1 F1500 E22.19601
G1 F1800 X-13.116 Y2.665 E22.4274
G1 F1500 E15.9274
G0 F3600 X-13.378 Y2.501
G0 X-13.433 Y1.833
G0 X-13.33 Y1.826
G1 F1500 E22.4274
G1 F1800 X-13.33 Y7.72 E22.57443
G0 F3600 X-14.451 Y7.997
G1 F1800 X-21.21 Y7.997 E22.74304
G0 F3600 X-21.328 Y7.97
G1 F1800 X-21.328 Y-8.005 E23.14153
G0 F3600 X-18.662 Y-8.602
G1 F1800 X-18.662 Y8.563 E23.56972
G0 F3600 X-15.996 Y8.383
G1 F1800 X-15.996 Y-8.427 E23.98904
G1 F1500 E17.48904
G0 F3600 X-13.378 Y2.501
G0 X-10.664 Y2.847
G1 F1500 E23.98904
G1 F1800 X-10.664 Y7.624 E24.10821
G0 F3600 X-7.998 Y7.624
G1 F1800 X-7.998 Y2.846 E24.22739
G0 F3600 X-5.332 Y2.846
G1 F1800 X-5.332 Y7.624 E24.34658
G0 F3600 X-2.666 Y7.624
G1 F1800 X-2.666 Y2.845 E24.46579
G0 F3600 X0.00 Y2.845
G1 F1800 X0.00 Y7.624 E24.58501
G0 F3600 X2.666 Y7.624
G1 F1800 X2.666 Y2.844 E24.70424
G0 F3600 X5.332 Y2.844
G1 F1800 X5.332 Y7.624 E24.82348
G0 F3600 X7.998 Y7.624
G1 F1800 X7.998 Y2.843 E24.94274
G0 F3600 X10.664 Y2.842
G1 F1800 X10.664 Y7.507 E25.05911
G0 F3600 X13.33 Y7.507
