; generated by Slic3r Prusa Edition 1.41.2+win64 on 2019-01-30 at 09:32:09

; 

; external perimeters extrusion width = 0.60mm
; perimeters extrusion width = 0.43mm
; infill extrusion width = 0.45mm
; solid infill extrusion width = 0.70mm
; top infill extrusion width = 0.43mm
; first layer extrusion width = 0.42mm

; external perimeters extrusion width = 0.60mm
; perimeters extrusion width = 0.43mm
; infill extrusion width = 0.45mm
; solid infill extrusion width = 0.70mm
; top infill extrusion width = 0.43mm
; first layer extrusion width = 0.42mm

M201 X9000 Y9000 Z500 E10000 ; sets maximum accelerations, mm/sec^2
M203 X500 Y500 Z12 E120 ; sets maximum feedrates, mm/sec
M204 P2000 R1500 T2000 ; sets acceleration (P, T) and retract acceleration (R), mm/sec^2
M205 X10.00 Y10.00 Z0.20 E2.50 ; sets the jerk limits, mm/sec
M205 S0 T0 ; sets the minimum extruding and travel feed rate, mm/sec
M107
M115 U3.1.0 ; tell printer latest fw version
M204 S2000 T1500 ; MK2 firmware only supports the old M204 format
; Start G-Code sequence START
T2
M104 S215 ; set extruder temp
M140 S60 ; set bed temp
M190 S60 ; wait for bed temp
M109 S215 ; wait for extruder temp
G21 ; set units to millimeters
G90 ; use absolute coordinates
M83 ; use relative distances for extrusion
G28 W
G80
G92 E0.0
M203 E100 ; set max feedrate
M92 E140 ; E-steps per filament milimeter

G92 E0.0
G21 ; set units to millimeters
G90 ; use absolute coordinates
M83 ; use relative distances for extrusion
G1 Z0.200 F10800.000
M900 K0
;--------------------
; CP PRIMING START
;--------------------
M220 S100
G1 X5.000 Y0.260 F7200
M907 E750
T2
M220 S100
G4 S0
; CP TOOLCHANGE LOAD
G1 E18.0000 F180
G1 X64.625 E63.0000 F2313
G1 X5.000 E9.0000 F1126
M907 E550
; CP TOOLCHANGE WIPE
G1 X65.000 E2.6908 F800
G1 X64.250 Y0.760 E0.0404
G1 X5.000 E2.6572 F900
G1 X5.750 Y1.260 E0.0404
G1 X64.250 E2.6236 F1100
G1 Y1.760 E0.0224
G1 X5.750 E2.6236 F2100
G1 X64.250 F7200
; CP TOOLCHANGE UNLOAD
G1 X5.500 Y2.560
G1 F3558
G1 X20.309 E0.6860
G1 F3666
G1 X35.568 E0.7068
G1 F3882
G1 X51.723 E0.7484
G1 F4097
G1 X64.500 E0.5918
G1 Y3.160 F7200
G1 F4097
G1 X60.224 E0.1981
G1 F4259
G1 X42.497 E0.8211
G1 F4421
G1 X24.098 E0.8523
G1 F4690
G1 X5.500 E0.8615
G1 Y3.760 F7200
G1 F4690
G1 X6.424 E0.0428
G1 F5068
G1 X27.516 E0.9770
G1 F5337
G1 X49.730 E1.0290
G1 F5391
G1 X64.500 E0.6842
G1 Y4.360 F7200
G1 F5391
G1 X56.832 E0.3552
G1 E-15.0000 F6000
G1 E-55.3000 F5400
G1 E-15.8000 F2700
G1 E-7.9000 F1620
M104 S215
G1 Y4.960
G1 X5.500 E5.0000 F1362
G1 X56.832 E-5.0000 F1468
G1 X5.500 E5.0000 F1574
G1 X56.832 E-5.0000 F1680
G1 X5.500 E5.0000 F1786
G1 X56.832 E-5.0000 F1892
G1 X5.500 E5.0000 F1998
G1 X56.832 E-5.0000 F2104
G1 E2.0000 F2000
G1 Y4.910 F2400
G4 S0
G1 X65.000 Y0.260 F7200
T3
M220 S100
G4 S0
; CP TOOLCHANGE LOAD
G1 E18.0000 F180
G1 X124.625 E63.0000 F2313
G1 X65.000 E9.0000 F1126
M907 E550
; CP TOOLCHANGE WIPE
G1 X125.000 E2.6908 F800
G1 X124.250 Y0.760 E0.0404
G1 X65.000 E2.6572 F900
G1 X65.750 Y1.260 E0.0404
G1 X124.250 E2.6236 F1100
G1 Y1.760 E0.0224
G1 X65.750 E2.6236 F2100
G1 Y2.260 E0.0224
G1 X125.000 E2.6572 F2125
G1 X124.250 Y2.760 E0.0404
G1 X65.000 E2.6572 F2150
G1 X65.750 Y3.260 E0.0404
G1 X124.250 E2.6236 F2175
G1 Y3.760 E0.0224
G1 X65.750 E2.6236 F2200
G1 Y4.260 E0.0224
G1 X125.000 E2.6572 F2225
G1 X124.250 Y4.760 E0.0404
G1 X65.000 E2.6572 F2250
G1 X65.750 Y5.260 E0.0404
G1 X124.250 E2.6236 F2275
G1 Y5.760 E0.0224
G1 X65.750 E2.6236 F2300
G1 Y6.260 E0.0224
G1 X125.000 E2.6572 F2325
G1 X124.250 Y6.760 E0.0404
G1 X65.000 E2.6572 F2350
G1 X65.750 Y7.260 E0.0404
G1 X124.250 E2.6236 F2375
G1 Y7.760 E0.0224
G1 X65.750 E2.6236 F2400
G1 Y8.260 E0.0224
G1 X125.000 E2.6572
G1 X124.250 Y8.760 E0.0404
G1 X65.000 E2.6572
G1 X65.750 Y9.260 E0.0404
G1 X124.250 E2.6236
G1 Y9.760 E0.0224
G1 X65.750 E2.6236
G1 Y10.260 E0.0224
G1 X125.000 E2.6572
G1 X124.250 Y10.760 E0.0404
G1 X65.000 E2.6572
G1 X65.750 Y11.260 E0.0404
G1 X124.250 E2.6236
G1 Y11.760 E0.0224
G1 X65.750 E2.6236
G1 Y12.260 E0.0224
G1 X125.000 E2.6572
G1 X124.250 Y12.760 E0.0404
G1 X65.000 E2.6572
G1 X124.250 F7200
M907 E550
G1 F6000
G4 S0
G92 E0
; CP PRIMING END
;------------------


G1 E-2.40000 F4800.00000
G1 F8640;_WIPE
G1 X121.370 Y12.760 E-1.52000
G1 E-0.08000 F4800.00000
G1 Z0.800 F10800.000
M300 S800 P500
M1 Remove priming towers and click button.
;BEFORE_LAYER_CHANGE
G92 E0.0
;0.2


G1 Z0.200 F10800.000
;AFTER_LAYER_CHANGE
;0.2
M900 K0
G1 Z0.800
G1 X225.507 Y176.785
G1 Z0.200
G1 E4.00000 F3000.00000
;-------------------------------------
; CP WIPE TOWER FIRST LAYER BRIM START
G1 X216.807 Y176.785 E0.4960 F2400
G1 X216.307 Y174.285  F7000
G1 X226.007 E0.4055 F2100
G1 Y113.285 E2.5502
G1 X216.307 E0.4055
G1 Y174.285 E2.5502
G1 X215.807 Y174.785  F7000
G1 X226.507 E0.4473 F2100
G1 Y112.785 E2.5920
G1 X215.807 E0.4473
G1 Y174.785 E2.5920
G1 X215.307 Y175.285  F7000
G1 X227.007 E0.4891 F2100
G1 Y112.285 E2.6338
G1 X215.307 E0.4891
G1 Y175.285 E2.6338
G1 X214.807 Y175.785  F7000
G1 X227.507 E0.5309 F2100
G1 Y111.785 E2.6756
G1 X214.807 E0.5309
G1 Y175.785 E2.6756
G1 X216.807 Y173.785  F7000
G1 Y113.785
G1 Y173.785
; CP WIPE TOWER FIRST LAYER BRIM END
;-----------------------------------
G1 X225.007 Y173.285  F7200
;--------------------
; CP EMPTY GRID START
; layer #1
G1 Y173.785
G1 X225.507
G1 X216.807 E0.3307 F1450
G1 Y113.785 E2.2804
G1 X225.507 E0.3307
G1 Y173.785 E2.2804
G1 Y173.285
G1 X225.007
G1 X217.307 E0.2926
G1 Y114.285 E2.2424
G1 X225.007 E0.2926
G1 Y173.285 E2.2424
G1 X217.307
G1 X217.821 Y172.785  E0.0273
G1 Y114.785 E2.2044
G1 X218.336 E0.0195
G1 Y172.785 E2.2044
G1 X218.850 E0.0195
G1 Y114.785 E2.2044
G1 X219.364 E0.0195
G1 Y172.785 E2.2044
G1 X219.878 E0.0195
G1 Y114.785 E2.2044
G1 X220.393 E0.0195
G1 Y172.785 E2.2044
G1 X220.907 E0.0195
G1 Y114.785 E2.2044
G1 X221.421 E0.0195
G1 Y172.785 E2.2044
G1 X221.936 E0.0195
G1 Y114.785 E2.2044
G1 X222.450 E0.0195
G1 Y172.785 E2.2044
G1 X222.964 E0.0195
G1 Y114.785 E2.2044
G1 X223.478 E0.0195
G1 Y172.785 E2.2044
G1 X223.993 E0.0195
G1 Y114.785 E2.2044
G1 X224.507 E0.0195
G1 Y172.785 E2.2044
G1 Y114.785
; CP EMPTY GRID END
;------------------







M900 K200; Filament gcode
G1 E-2.40000 F4800.00000
G1 F8640
G1 X221.627 Y114.785 E-1.52000
G1 E-0.08000 F4800.00000
G1 Z0.800 F10800.000
G1 X197.221 Y114.787
G1 Z0.200
G1 E4.00000 F3000.00000
M204 S1000
G1 F1200
G1 X197.225 Y189.530 E2.34353
G1 X197.016 Y191.778 E0.07077
G1 X196.504 Y193.711 E0.06271
G1 X195.688 Y195.519 E0.06220
G1 X194.514 Y197.220 E0.06479
G1 X193.090 Y198.604 E0.06228
G1 X192.267 Y199.187 E0.03160
G1 X191.375 Y199.681 E0.03199
G1 X189.666 Y200.295 E0.05692
G1 X188.704 Y200.475 E0.03070
G1 X187.668 Y200.543 E0.03254
G1 X31.568 Y200.542 E4.89440
G1 X30.011 Y200.385 E0.04908
G1 X28.483 Y199.938 E0.04991
G1 X27.064 Y199.224 E0.04982
G1 X25.826 Y198.310 E0.04825
G1 X24.981 Y197.479 E0.03716
G1 X24.159 Y196.441 E0.04150
G1 X23.553 Y195.467 E0.03598
G1 X23.008 Y194.333 E0.03945
G1 X22.603 Y193.216 E0.03725
G1 X22.280 Y191.918 E0.04194
G1 X22.117 Y190.823 E0.03471
G1 X22.045 Y189.479 E0.04221
G1 X22.045 Y21.374 E5.27081
G1 X22.254 Y19.127 E0.07077
G1 X22.773 Y17.176 E0.06331
G1 X23.603 Y15.349 E0.06290
G1 X24.119 Y14.521 E0.03060
G1 X24.809 Y13.623 E0.03551
G1 X26.198 Y12.286 E0.06043
G1 X26.996 Y11.723 E0.03063
G1 X27.896 Y11.224 E0.03226
G1 X29.654 Y10.598 E0.05851
G1 X30.545 Y10.433 E0.02843
G1 X31.530 Y10.363 E0.03095
G1 X187.641 Y10.362 E4.89475
G1 X189.401 Y10.548 E0.05549
G1 X190.327 Y10.800 E0.03011
G1 X191.254 Y11.167 E0.03126
G1 X192.849 Y12.117 E0.05820
G1 X194.263 Y13.397 E0.05980
G1 X195.434 Y14.954 E0.06109
G1 X196.344 Y16.768 E0.06361
G1 X196.925 Y18.671 E0.06240
G1 X197.136 Y19.925 E0.03985
G1 X197.216 Y20.948 E0.03220
G1 X197.221 Y114.727 E2.94036
G1 X196.847 Y114.727 F10800.000
G1 F1200
G1 X196.849 Y189.499 E2.34443
G1 X196.805 Y190.497 E0.03132
G1 X196.685 Y191.475 E0.03090
G1 X196.420 Y192.713 E0.03969
G1 X196.033 Y193.898 E0.03909
G1 X195.456 Y195.155 E0.04334
G1 X194.813 Y196.212 E0.03882
G1 X194.379 Y196.791 E0.02269
G1 X193.919 Y197.325 E0.02209
G1 X193.284 Y197.948 E0.02788
G1 X192.632 Y198.479 E0.02638
G1 X192.020 Y198.897 E0.02325
G1 X191.353 Y199.270 E0.02394
G1 X190.648 Y199.588 E0.02425
G1 X189.923 Y199.836 E0.02404
G1 X189.275 Y199.999 E0.02093
G1 X188.151 Y200.149 E0.03556
G1 X121.264 Y200.158 E2.09720
G1 X119.981 Y199.996 E0.04053
G1 X119.363 Y199.841 E0.01998
G1 X118.699 Y199.619 E0.02197
G1 X117.496 Y199.044 E0.04179
G1 X116.740 Y198.554 E0.02825
G1 X116.033 Y197.990 E0.02837
G1 X115.237 Y197.200 E0.03516
G1 X114.661 Y196.495 E0.02853
G1 X114.150 Y195.742 E0.02853
G1 X113.835 Y195.194 E0.01980
G1 X113.354 Y194.186 E0.03503
G1 X112.932 Y192.999 E0.03952
G1 X112.669 Y191.936 E0.03432
G1 X112.508 Y190.936 E0.03175
G1 X112.422 Y189.525 E0.04432
G1 X112.422 Y21.389 E5.27179
G1 X112.495 Y20.092 E0.04074
G1 X112.704 Y18.796 E0.04116
G1 X113.178 Y17.164 E0.05327
G1 X113.689 Y15.987 E0.04025
G1 X113.974 Y15.461 E0.01873
G1 X114.430 Y14.732 E0.02698
G1 X114.779 Y14.256 E0.01851
G1 X115.338 Y13.594 E0.02716
G1 X115.758 Y13.168 E0.01874
G1 X116.384 Y12.620 E0.02609
G1 X117.318 Y11.966 E0.03576
G1 X118.016 Y11.585 E0.02492
G1 X118.732 Y11.275 E0.02447
G1 X119.560 Y11.009 E0.02728
G1 X120.394 Y10.834 E0.02671
G1 X121.372 Y10.746 E0.03079
G1 X187.999 Y10.746 E2.08903
G1 X189.002 Y10.856 E0.03163
G1 X189.847 Y11.047 E0.02717
G1 X190.757 Y11.361 E0.03017
G1 X191.639 Y11.785 E0.03069
G1 X192.450 Y12.293 E0.02999
G1 X193.197 Y12.879 E0.02979
G1 X193.904 Y13.564 E0.03086
G1 X194.525 Y14.300 E0.03019
G1 X195.050 Y15.052 E0.02878
G1 X195.462 Y15.761 E0.02569
G1 X195.916 Y16.719 E0.03325
G1 X196.268 Y17.675 E0.03193
G1 X196.648 Y19.201 E0.04933
G1 X196.787 Y20.205 E0.03178
G1 X196.846 Y21.291 E0.03409
G1 X196.847 Y114.667 E2.92773
G1 X196.470 Y114.667 F10800.000
G1 F1200
G1 X196.472 Y189.495 E2.34618
G1 X196.430 Y190.459 E0.03025
G1 X196.315 Y191.405 E0.02988
G1 X196.058 Y192.605 E0.03850
G1 X195.678 Y193.771 E0.03843
G1 X195.118 Y194.987 E0.04198
G1 X194.505 Y195.993 E0.03694
G1 X194.081 Y196.560 E0.02221
G1 X193.649 Y197.061 E0.02074
G1 X193.027 Y197.673 E0.02735
G1 X192.401 Y198.181 E0.02529
G1 X191.828 Y198.572 E0.02173
G1 X191.176 Y198.937 E0.02343
G1 X190.518 Y199.234 E0.02265
G1 X189.808 Y199.476 E0.02351
G1 X189.194 Y199.631 E0.01985
G1 X188.114 Y199.774 E0.03416
G1 X121.276 Y199.781 E2.09567
G1 X120.062 Y199.628 E0.03835
G1 X119.476 Y199.481 E0.01895
G1 X118.829 Y199.265 E0.02138
G1 X117.691 Y198.721 E0.03956
G1 X116.953 Y198.243 E0.02756
G1 X116.276 Y197.702 E0.02717
G1 X115.523 Y196.953 E0.03330
G1 X114.968 Y196.276 E0.02744
G1 X114.473 Y195.547 E0.02761
G1 X114.172 Y195.025 E0.01889
G1 X113.699 Y194.033 E0.03449
G1 X113.296 Y192.899 E0.03773
G1 X113.037 Y191.853 E0.03378
G1 X112.882 Y190.886 E0.03071
G1 X112.799 Y189.508 E0.04328
G1 X112.799 Y21.394 E5.27109
G1 X112.871 Y20.123 E0.03993
G1 X113.074 Y18.867 E0.03988
G1 X113.529 Y17.303 E0.05107
G1 X114.025 Y16.159 E0.03911
G1 X114.296 Y15.656 E0.01791
G1 X114.739 Y14.949 E0.02615
G1 X115.072 Y14.494 E0.01769
G1 X115.612 Y13.853 E0.02626
G1 X116.012 Y13.447 E0.01787
G1 X116.609 Y12.923 E0.02492
G1 X117.508 Y12.291 E0.03445
G1 X118.174 Y11.928 E0.02379
G1 X118.857 Y11.631 E0.02334
G1 X119.648 Y11.376 E0.02605
G1 X120.460 Y11.206 E0.02604
G1 X121.397 Y11.122 E0.02949
G1 X187.988 Y11.124 E2.08792
G1 X188.949 Y11.230 E0.03032
G1 X189.753 Y11.412 E0.02584
G1 X190.623 Y11.713 E0.02885
G1 X191.465 Y12.120 E0.02934
G1 X192.240 Y12.606 E0.02869
G1 X192.956 Y13.169 E0.02855
G1 X193.634 Y13.828 E0.02965
G1 X194.231 Y14.536 E0.02903
G1 X194.736 Y15.261 E0.02772
G1 X195.124 Y15.930 E0.02423
G1 X195.572 Y16.873 E0.03273
G1 X195.911 Y17.795 E0.03081
G1 X196.276 Y19.263 E0.04743
G1 X196.410 Y20.234 E0.03073
G1 X196.469 Y21.306 E0.03368
G1 X196.470 Y114.607 E2.92537
G1 X196.093 Y114.607 F10800.000
G1 F1200
G1 X196.094 Y189.491 E2.34794
G1 X196.055 Y190.421 E0.02918
G1 X195.944 Y191.334 E0.02886
G1 X195.696 Y192.498 E0.03729
G1 X195.323 Y193.643 E0.03777
G1 X194.781 Y194.819 E0.04061
G1 X194.198 Y195.774 E0.03508
G1 X193.783 Y196.329 E0.02172
G1 X193.379 Y196.798 E0.01940
G1 X192.769 Y197.397 E0.02682
G1 X192.169 Y197.884 E0.02420
G1 X191.636 Y198.247 E0.02022
G1 X190.999 Y198.604 E0.02291
G1 X190.387 Y198.880 E0.02104
G1 X189.694 Y199.117 E0.02298
G1 X189.113 Y199.262 E0.01876
G1 X188.077 Y199.398 E0.03275
G1 X121.288 Y199.404 E2.09415
G1 X120.143 Y199.259 E0.03618
G1 X119.589 Y199.121 E0.01791
G1 X118.960 Y198.911 E0.02079
G1 X117.885 Y198.398 E0.03733
G1 X117.181 Y197.943 E0.02628
G1 X116.520 Y197.414 E0.02655
G1 X115.808 Y196.707 E0.03144
G1 X115.266 Y196.044 E0.02687
G1 X114.796 Y195.353 E0.02618
G1 X114.510 Y194.856 E0.01798
G1 X114.043 Y193.879 E0.03395
G1 X113.659 Y192.799 E0.03593
G1 X113.404 Y191.770 E0.03323
G1 X113.256 Y190.836 E0.02967
G1 X113.176 Y189.503 E0.04188
G1 X113.176 Y21.400 E5.27075
G1 X113.247 Y20.154 E0.03911
G1 X113.444 Y18.939 E0.03860
G1 X113.879 Y17.442 E0.04889
G1 X114.360 Y16.330 E0.03797
G1 X114.619 Y15.851 E0.01710
G1 X115.047 Y15.166 E0.02532
G1 X115.365 Y14.731 E0.01687
G1 X115.886 Y14.112 E0.02537
G1 X116.266 Y13.726 E0.01700
G1 X116.835 Y13.225 E0.02376
G1 X117.699 Y12.617 E0.03314
G1 X118.333 Y12.270 E0.02265
G1 X118.982 Y11.987 E0.02220
G1 X119.754 Y11.738 E0.02543
G1 X120.526 Y11.577 E0.02474
G1 X121.422 Y11.499 E0.02819
G1 X187.978 Y11.501 E2.08682
G1 X188.897 Y11.603 E0.02899
G1 X189.659 Y11.777 E0.02451
G1 X190.488 Y12.066 E0.02753
G1 X191.292 Y12.455 E0.02798
G1 X192.031 Y12.920 E0.02739
G1 X192.715 Y13.459 E0.02730
G1 X193.365 Y14.092 E0.02843
G1 X193.937 Y14.772 E0.02788
G1 X194.422 Y15.470 E0.02666
G1 X194.787 Y16.098 E0.02278
G1 X195.227 Y17.027 E0.03221
G1 X195.553 Y17.915 E0.02968
G1 X195.903 Y19.325 E0.04555
G1 X196.034 Y20.262 E0.02967
G1 X196.092 Y21.322 E0.03327
G1 X196.093 Y114.547 E2.92300
G1 X195.716 Y114.547 F10800.000
G1 F1200
G1 X195.717 Y189.487 E2.34970
G1 X195.680 Y190.383 E0.02811
G1 X195.573 Y191.264 E0.02784
G1 X195.330 Y192.409 E0.03671
G1 X194.968 Y193.515 E0.03648
G1 X194.443 Y194.651 E0.03924
G1 X193.891 Y195.555 E0.03322
G1 X193.485 Y196.098 E0.02124
G1 X193.109 Y196.534 E0.01806
G1 X192.511 Y197.122 E0.02629
G1 X191.938 Y197.586 E0.02311
G1 X191.445 Y197.922 E0.01871
G1 X190.822 Y198.271 E0.02239
G1 X190.257 Y198.526 E0.01943
G1 X189.579 Y198.757 E0.02245
G1 X189.033 Y198.894 E0.01766
G1 X188.041 Y199.023 E0.03136
G1 X121.299 Y199.027 E2.09264
G1 X120.223 Y198.891 E0.03402
G1 X119.701 Y198.761 E0.01687
G1 X119.090 Y198.557 E0.02020
G1 X118.079 Y198.074 E0.03511
G1 X117.394 Y197.631 E0.02560
G1 X116.764 Y197.126 E0.02533
G1 X116.094 Y196.460 E0.02961
G1 X115.573 Y195.824 E0.02578
G1 X115.119 Y195.158 E0.02528
G1 X114.847 Y194.687 E0.01706
G1 X114.388 Y193.725 E0.03340
G1 X114.023 Y192.699 E0.03414
G1 X113.772 Y191.688 E0.03268
G1 X113.630 Y190.786 E0.02862
G1 X113.553 Y189.497 E0.04049
G1 X113.553 Y21.405 E5.27041
G1 X113.621 Y20.205 E0.03768
G1 X113.815 Y19.011 E0.03792
G1 X114.230 Y17.581 E0.04671
G1 X114.696 Y16.502 E0.03684
G1 X114.943 Y16.045 E0.01628
G1 X115.356 Y15.382 E0.02449
G1 X115.658 Y14.969 E0.01605
G1 X116.160 Y14.371 E0.02447
G1 X116.521 Y14.004 E0.01614
G1 X117.061 Y13.527 E0.02259
G1 X117.890 Y12.942 E0.03182
G1 X118.492 Y12.612 E0.02152
G1 X119.107 Y12.343 E0.02107
G1 X119.841 Y12.105 E0.02418
G1 X120.592 Y11.949 E0.02405
G1 X121.446 Y11.875 E0.02688
G1 X187.967 Y11.878 E2.08572
G1 X188.843 Y11.977 E0.02765
G1 X189.564 Y12.143 E0.02318
G1 X190.353 Y12.418 E0.02622
G1 X191.117 Y12.789 E0.02662
G1 X191.821 Y13.233 E0.02609
G1 X192.473 Y13.749 E0.02606
G1 X193.095 Y14.355 E0.02722
G1 X193.643 Y15.007 E0.02672
G1 X194.108 Y15.679 E0.02561
G1 X194.450 Y16.267 E0.02133
G1 X194.883 Y17.180 E0.03169
G1 X195.196 Y18.035 E0.02855
G1 X195.531 Y19.387 E0.04368
G1 X195.658 Y20.291 E0.02861
G1 X195.715 Y21.337 E0.03286
G1 X195.716 Y114.487 E2.92064
G1 X195.340 Y114.487 F10800.000
G1 F1200
G1 X195.340 Y189.483 E2.35146
G1 X195.304 Y190.345 E0.02706
G1 X195.203 Y191.195 E0.02681
G1 X194.968 Y192.302 E0.03549
G1 X194.613 Y193.387 E0.03581
G1 X194.105 Y194.483 E0.03786
