; generated by Slic3r Prusa Edition 1.41.2+win64 on 2019-01-27 at 20:08:06

; 

; external perimeters extrusion width = 0.60mm
; perimeters extrusion width = 0.43mm
; infill extrusion width = 0.45mm
; solid infill extrusion width = 0.70mm
; top infill extrusion width = 0.43mm
; first layer extrusion width = 0.42mm

M201 X9000 Y9000 Z500 E10000 ; sets maximum accelerations, mm/sec^2
M203 X500 Y500 Z12 E120 ; sets maximum feedrates, mm/sec
M204 P2000 R1500 T2000 ; sets acceleration (P, T) and retract acceleration (R), mm/sec^2
M205 X10.00 Y10.00 Z0.20 E2.50 ; sets the jerk limits, mm/sec
M205 S0 T0 ; sets the minimum extruding and travel feed rate, mm/sec
M107
M115 U3.1.0 ; tell printer latest fw version
M204 S2000 T1500 ; MK2 firmware only supports the old M204 format
; Start G-Code sequence START
T?
M104 S215
M140 S60
M109 S215
M190 S60
G21 ; set units to millimeters
G90 ; use absolute coordinates
M83 ; use relative distances for extrusion
G28 W
G80
G92 E0.0
M203 E100
M92 E140
G1 Z0.250 F7200.000
G1 X50.0 E80.0  F1000.0
G1 X160.0 E20.0  F1000.0
G1 Z0.200 F7200.000
G1 X220.0 E13 F1000.0
G1 X240.0 E0 F1000.0
G92 E0.0
M900 K200; Filament gcode
G21 ; set units to millimeters
G90 ; use absolute coordinates
M83 ; use relative distances for extrusion
;BEFORE_LAYER_CHANGE
G92 E0.0
;0.2


G1 Z0.200 F10800.000
;AFTER_LAYER_CHANGE
;0.2
G1 E-4.00000 F4800.00000
G1 Z0.800 F10800.000
G1 X40.691 Y13.727
G1 Z0.200
G1 E4.00000 F3000.00000
M204 S1000
G1 F1200
G1 X41.999 Y12.451 E0.05728
G1 X42.763 Y11.908 E0.02940
G1 X43.570 Y11.460 E0.02894
G1 X45.114 Y10.898 E0.05154
G1 X45.996 Y10.729 E0.02813
G1 X46.920 Y10.664 E0.02905
G1 X203.005 Y10.664 E4.89395
G1 X204.611 Y10.834 E0.05065
G1 X205.467 Y11.067 E0.02782
G1 X206.330 Y11.412 E0.02912
G1 X207.714 Y12.233 E0.05046
G1 X209.082 Y13.466 E0.05777
G1 X210.166 Y14.912 E0.05665
G1 X211.012 Y16.605 E0.05933
G1 X211.612 Y18.666 E0.06731
G1 X211.828 Y20.549 E0.05942
G1 X211.836 Y189.062 E5.28361
G1 X211.640 Y191.188 E0.06696
G1 X211.160 Y193.001 E0.05880
G1 X210.390 Y194.707 E0.05869
G1 X209.309 Y196.273 E0.05966
G1 X208.001 Y197.549 E0.05729
G1 X207.233 Y198.095 E0.02955
G1 X206.416 Y198.547 E0.02927
G1 X205.522 Y198.914 E0.03031
G1 X204.697 Y199.146 E0.02688
G1 X203.035 Y199.336 E0.05243
G1 X46.943 Y199.336 E4.89415
G1 X45.512 Y199.191 E0.04512
G1 X44.123 Y198.783 E0.04540
G1 X42.809 Y198.120 E0.04613
G1 X41.670 Y197.274 E0.04449
G1 X40.948 Y196.568 E0.03166
G1 X40.300 Y195.778 E0.03203
G1 X39.628 Y194.738 E0.03884
G1 X39.149 Y193.780 E0.03357
G1 X38.702 Y192.586 E0.03999
G1 X38.391 Y191.349 E0.04000
G1 X38.233 Y190.302 E0.03319
G1 X38.164 Y189.023 E0.04015
G1 X38.164 Y20.938 E5.27018
G1 X38.360 Y18.812 E0.06696
G1 X38.840 Y16.998 E0.05881
G1 X39.610 Y15.292 E0.05870
G1 X40.657 Y13.776 E0.05775
G1 E-2.40000 F4800.00000
G1 F8640
G1 X41.999 Y12.451 E-0.99528
G1 X42.763 Y11.908 E-0.49486
G1 X42.812 Y11.881 E-0.02986
G1 E-0.08000 F4800.00000
G1 Z0.800 F10800.000
G1 X46.497 Y11.059
G1 Z0.200
G1 E4.00000 F3000.00000
G1 F1200
G1 X113.210 Y11.046 E2.09175
G1 X114.036 Y11.114 E0.02597
G1 X114.830 Y11.272 E0.02540
G1 X115.515 Y11.484 E0.02249
G1 X116.352 Y11.841 E0.02852
G1 X117.090 Y12.262 E0.02665
G1 X117.793 Y12.767 E0.02713
G1 X118.440 Y13.341 E0.02712
G1 X119.038 Y13.989 E0.02764
G1 X119.567 Y14.685 E0.02742
G1 X120.034 Y15.430 E0.02757
G1 X120.438 Y16.220 E0.02783
G1 X120.774 Y17.041 E0.02780
G1 X121.047 Y17.900 E0.02825
G1 X121.250 Y18.777 E0.02823
G1 X121.385 Y19.674 E0.02845
G1 X121.452 Y20.580 E0.02849
G1 X121.459 Y189.036 E5.28181
G1 X121.416 Y190.007 E0.03047
G1 X121.279 Y191.063 E0.03339
G1 X121.072 Y192.004 E0.03020
G1 X120.789 Y192.918 E0.03003
G1 X120.274 Y194.121 E0.04102
G1 X119.600 Y195.269 E0.04174
G1 X119.277 Y195.713 E0.01722
G1 X118.842 Y196.238 E0.02139
G1 X118.053 Y197.017 E0.03474
G1 X117.530 Y197.435 E0.02099
G1 X117.061 Y197.758 E0.01785
G1 X116.368 Y198.149 E0.02496
G1 X115.872 Y198.379 E0.01715
G1 X115.232 Y198.613 E0.02135
G1 X114.552 Y198.794 E0.02206
G1 X113.450 Y198.945 E0.03488
G1 X46.962 Y198.959 E2.08470
G1 X46.341 Y198.928 E0.01950
G1 X45.592 Y198.823 E0.02369
G1 X44.970 Y198.673 E0.02006
G1 X44.348 Y198.466 E0.02054
G1 X43.640 Y198.154 E0.02427
G1 X42.983 Y197.785 E0.02365
G1 X42.455 Y197.423 E0.02005
G1 X41.840 Y196.922 E0.02487
G1 X41.307 Y196.399 E0.02340
G1 X40.850 Y195.873 E0.02186
G1 X40.375 Y195.231 E0.02503
G1 X39.952 Y194.548 E0.02520
G1 X39.349 Y193.283 E0.04395
G1 X38.913 Y191.949 E0.04400
G1 X38.661 Y190.691 E0.04021
G1 X38.575 Y189.898 E0.02502
G1 X38.542 Y189.105 E0.02491
G1 X38.541 Y20.964 E5.27193
G1 X38.584 Y19.993 E0.03047
G1 X38.721 Y18.937 E0.03339
G1 X38.925 Y18.005 E0.02992
G1 X39.210 Y17.084 E0.03023
G1 X39.725 Y15.879 E0.04107
G1 X39.981 Y15.404 E0.01691
G1 X40.361 Y14.790 E0.02267
G1 X40.721 Y14.290 E0.01932
G1 X41.158 Y13.762 E0.02149
G1 X41.947 Y12.983 E0.03474
G1 X42.470 Y12.565 E0.02099
G1 X42.939 Y12.242 E0.01785
G1 X43.632 Y11.851 E0.02496
G1 X44.128 Y11.621 E0.01715
G1 X44.768 Y11.387 E0.02135
G1 X45.446 Y11.206 E0.02202
G1 X46.437 Y11.067 E0.03137
G1 X46.489 Y11.440 F10800.000
G1 F1200
G1 X113.187 Y11.422 E2.09127
G1 X113.973 Y11.486 E0.02472
G1 X114.729 Y11.636 E0.02415
G1 X115.377 Y11.835 E0.02126
G1 X116.175 Y12.175 E0.02720
G1 X116.879 Y12.574 E0.02537
G1 X117.550 Y13.056 E0.02590
G1 X118.182 Y13.617 E0.02651
G1 X118.754 Y14.238 E0.02647
G1 X119.262 Y14.906 E0.02631
G1 X119.710 Y15.623 E0.02651
G1 X120.099 Y16.384 E0.02681
G1 X120.422 Y17.176 E0.02682
G1 X120.685 Y18.006 E0.02730
G1 X120.881 Y18.854 E0.02730
G1 X121.011 Y19.723 E0.02754
G1 X121.075 Y20.601 E0.02759
G1 X121.082 Y189.032 E5.28104
G1 X121.041 Y189.966 E0.02932
G1 X120.906 Y191.006 E0.03288
G1 X120.706 Y191.915 E0.02917
G1 X120.432 Y192.797 E0.02897
G1 X119.932 Y193.961 E0.03972
G1 X119.290 Y195.055 E0.03976
G1 X118.982 Y195.477 E0.01638
G1 X118.557 Y195.991 E0.02091
G1 X117.810 Y196.728 E0.03292
G1 X117.300 Y197.136 E0.02048
G1 X116.868 Y197.433 E0.01644
G1 X116.189 Y197.817 E0.02445
G1 X115.721 Y198.033 E0.01617
G1 X115.111 Y198.255 E0.02035
G1 X114.467 Y198.427 E0.02090
G1 X113.412 Y198.570 E0.03337
G1 X46.966 Y198.582 E2.08337
G1 X46.384 Y198.554 E0.01826
G1 X45.654 Y198.451 E0.02313
G1 X45.067 Y198.309 E0.01894
G1 X44.476 Y198.111 E0.01953
G1 X43.817 Y197.821 E0.02259
G1 X43.175 Y197.460 E0.02310
G1 X42.687 Y197.126 E0.01852
G1 X42.085 Y196.635 E0.02435
G1 X41.577 Y196.136 E0.02235
G1 X41.148 Y195.643 E0.02047
G1 X40.691 Y195.026 E0.02408
G1 X40.288 Y194.376 E0.02398
G1 X39.695 Y193.132 E0.04323
G1 X39.275 Y191.843 E0.04250
G1 X39.035 Y190.642 E0.03839
G1 X38.951 Y189.876 E0.02415
G1 X38.919 Y189.093 E0.02458
G1 X38.918 Y20.968 E5.27144
G1 X38.959 Y20.034 E0.02932
G1 X39.094 Y18.994 E0.03288
G1 X39.292 Y18.094 E0.02890
G1 X39.568 Y17.205 E0.02917
G1 X40.061 Y16.051 E0.03936
G1 X40.304 Y15.598 E0.01612
G1 X40.671 Y15.004 E0.02188
G1 X41.016 Y14.525 E0.01851
G1 X41.443 Y14.009 E0.02099
G1 X42.190 Y13.272 E0.03292
G1 X42.700 Y12.864 E0.02048
G1 X43.132 Y12.567 E0.01644
G1 X43.811 Y12.183 E0.02445
G1 X44.279 Y11.967 E0.01617
G1 X44.889 Y11.745 E0.02036
G1 X45.532 Y11.573 E0.02087
G1 X46.430 Y11.449 E0.02841
G1 X46.481 Y11.822 F10800.000
G1 F1200
G1 X46.574 Y11.809 E0.00294
G1 X113.165 Y11.799 E2.08791
G1 X113.911 Y11.858 E0.02347
G1 X114.628 Y11.999 E0.02291
G1 X115.239 Y12.186 E0.02002
G1 X115.998 Y12.508 E0.02587
G1 X116.684 Y12.897 E0.02471
G1 X117.322 Y13.356 E0.02464
G1 X117.924 Y13.892 E0.02530
G1 X118.471 Y14.486 E0.02530
G1 X118.956 Y15.127 E0.02520
G1 X119.386 Y15.815 E0.02545
G1 X119.759 Y16.548 E0.02579
G1 X120.070 Y17.311 E0.02583
G1 X120.323 Y18.112 E0.02634
G1 X120.512 Y18.932 E0.02636
G1 X120.637 Y19.771 E0.02662
G1 X120.699 Y20.621 E0.02670
G1 X120.705 Y189.028 E5.28028
G1 X120.666 Y189.926 E0.02818
G1 X120.533 Y190.949 E0.03236
G1 X120.340 Y191.826 E0.02814
G1 X120.075 Y192.675 E0.02791
G1 X119.591 Y193.802 E0.03843
G1 X118.980 Y194.840 E0.03779
G1 X118.688 Y195.241 E0.01554
G1 X118.273 Y195.743 E0.02042
G1 X117.567 Y196.440 E0.03110
G1 X117.070 Y196.837 E0.01995
G1 X116.661 Y197.118 E0.01554
G1 X116.011 Y197.485 E0.02342
G1 X115.571 Y197.687 E0.01519
G1 X114.990 Y197.898 E0.01936
G1 X114.382 Y198.059 E0.01974
G1 X113.375 Y198.194 E0.03186
G1 X46.971 Y198.205 E2.08205
G1 X46.428 Y198.179 E0.01702
G1 X45.716 Y198.079 E0.02256
G1 X45.179 Y197.949 E0.01732
G1 X44.604 Y197.757 E0.01901
G1 X43.994 Y197.488 E0.02091
G1 X43.367 Y197.135 E0.02255
G1 X42.920 Y196.829 E0.01700
G1 X42.331 Y196.348 E0.02383
G1 X41.846 Y195.872 E0.02129
G1 X41.447 Y195.413 E0.01910
G1 X41.008 Y194.820 E0.02311
G1 X40.614 Y194.186 E0.02341
G1 X40.049 Y193.003 E0.04111
G1 X39.643 Y191.757 E0.04108
G1 X39.409 Y190.593 E0.03725
G1 X39.327 Y189.842 E0.02368
G1 X39.296 Y189.082 E0.02386
G1 X39.295 Y20.972 E5.27096
G1 X39.334 Y20.074 E0.02817
G1 X39.467 Y19.051 E0.03236
G1 X39.658 Y18.183 E0.02788
G1 X39.925 Y17.326 E0.02812
G1 X40.397 Y16.222 E0.03767
G1 X40.628 Y15.791 E0.01532
G1 X40.989 Y15.208 E0.02149
G1 X41.310 Y14.761 E0.01729
G1 X41.727 Y14.257 E0.02049
G1 X42.433 Y13.560 E0.03110
G1 X42.930 Y13.163 E0.01995
G1 X43.339 Y12.882 E0.01554
G1 X43.989 Y12.515 E0.02341
G1 X44.429 Y12.313 E0.01519
G1 X45.010 Y12.102 E0.01936
G1 X45.617 Y11.941 E0.01972
G1 X46.422 Y11.830 E0.02545
G1 X46.473 Y12.204 F10800.000
G1 F1200
G1 X46.612 Y12.184 E0.00442
G1 X113.143 Y12.175 E2.08603
G1 X113.850 Y12.231 E0.02223
G1 X114.528 Y12.363 E0.02167
G1 X115.102 Y12.537 E0.01879
G1 X115.822 Y12.842 E0.02453
G1 X116.472 Y13.209 E0.02342
G1 X117.079 Y13.644 E0.02340
G1 X117.653 Y14.155 E0.02409
G1 X118.187 Y14.735 E0.02471
G1 X118.650 Y15.347 E0.02408
G1 X119.061 Y16.008 E0.02439
G1 X119.419 Y16.712 E0.02477
G1 X119.718 Y17.446 E0.02485
G1 X119.961 Y18.218 E0.02539
G1 X120.142 Y19.009 E0.02543
G1 X120.263 Y19.820 E0.02571
G1 X120.322 Y20.641 E0.02581
G1 X120.328 Y189.024 E5.27953
G1 X120.291 Y189.885 E0.02703
G1 X120.160 Y190.892 E0.03184
G1 X119.973 Y191.736 E0.02710
G1 X119.718 Y192.554 E0.02686
G1 X119.259 Y193.621 E0.03642
G1 X118.669 Y194.626 E0.03656
G1 X118.394 Y195.005 E0.01469
G1 X117.988 Y195.495 E0.01994
G1 X117.324 Y196.151 E0.02928
G1 X116.840 Y196.538 E0.01943
G1 X116.455 Y196.802 E0.01463
G1 X115.833 Y197.152 E0.02238
G1 X115.421 Y197.341 E0.01422
G1 X114.886 Y197.536 E0.01785
G1 X114.297 Y197.692 E0.01909
G1 X113.338 Y197.819 E0.03034
G1 X46.975 Y197.828 E2.08076
G1 X46.472 Y197.805 E0.01579
G1 X45.778 Y197.707 E0.02199
G1 X45.291 Y197.588 E0.01570
G1 X44.732 Y197.402 E0.01849
G1 X44.170 Y197.154 E0.01924
G1 X43.559 Y196.811 E0.02200
G1 X43.152 Y196.532 E0.01547
G1 X42.576 Y196.062 E0.02330
G1 X42.116 Y195.609 E0.02023
G1 X41.745 Y195.182 E0.01773
G1 X41.315 Y194.602 E0.02263
G1 X40.940 Y193.996 E0.02235
G1 X40.404 Y192.874 E0.03901
G1 X40.010 Y191.672 E0.03966
G1 X39.782 Y190.543 E0.03610
G1 X39.702 Y189.807 E0.02321
G1 X39.673 Y189.070 E0.02313
G1 X39.672 Y20.976 E5.27048
G1 X39.709 Y20.115 E0.02703
G1 X39.840 Y19.108 E0.03184
G1 X40.025 Y18.272 E0.02684
G1 X40.282 Y17.448 E0.02707
G1 X40.733 Y16.393 E0.03599
G1 X40.952 Y15.984 E0.01452
G1 X41.299 Y15.423 E0.02070
G1 X41.605 Y14.996 E0.01647
G1 X42.012 Y14.505 E0.01999
G1 X42.676 Y13.849 E0.02928
G1 X43.160 Y13.462 E0.01943
G1 X43.545 Y13.198 E0.01463
G1 X44.167 Y12.848 E0.02238
G1 X44.579 Y12.659 E0.01422
G1 X45.114 Y12.464 E0.01785
G1 X45.703 Y12.308 E0.01908
G1 X46.413 Y12.212 E0.02248
G1 X46.463 Y12.585 F10800.000
G1 F1200
G1 X46.650 Y12.560 E0.00590
G1 X113.122 Y12.552 E2.08418
G1 X113.789 Y12.603 E0.02098
G1 X114.429 Y12.727 E0.02043
G1 X114.965 Y12.889 E0.01756
G1 X115.646 Y13.175 E0.02318
G1 X116.278 Y13.532 E0.02274
G1 X116.851 Y13.945 E0.02213
G1 X117.395 Y14.430 E0.02287
G1 X117.903 Y14.983 E0.02353
G1 X118.344 Y15.567 E0.02297
G1 X118.737 Y16.200 E0.02334
G1 X119.079 Y16.875 E0.02375
G1 X119.365 Y17.581 E0.02387
G1 X119.599 Y18.324 E0.02443
G1 X119.773 Y19.086 E0.02450
G1 X119.889 Y19.868 E0.02479
G1 X119.945 Y20.661 E0.02493
G1 X119.951 Y189.020 E5.27878
G1 X119.916 Y189.845 E0.02588
G1 X119.787 Y190.835 E0.03131
G1 X119.607 Y191.646 E0.02605
G1 X119.361 Y192.431 E0.02580
G1 X118.918 Y193.461 E0.03514
G1 X118.358 Y194.412 E0.03461
G1 X118.099 Y194.770 E0.01384
G1 X117.704 Y195.248 E0.01945
G1 X117.081 Y195.863 E0.02747
G1 X116.610 Y196.239 E0.01890
G1 X116.249 Y196.486 E0.01371
G1 X115.655 Y196.820 E0.02134
G1 X115.271 Y196.995 E0.01324
G1 X114.781 Y197.173 E0.01636
G1 X114.212 Y197.324 E0.01844
G1 X113.301 Y197.443 E0.02882
G1 X46.979 Y197.451 E2.07948
G1 X46.516 Y197.430 E0.01455
G1 X45.839 Y197.335 E0.02141
G1 X45.403 Y197.228 E0.01408
G1 X44.859 Y197.047 E0.01797
G1 X44.347 Y196.821 E0.01756
G1 X43.751 Y196.486 E0.02145
G1 X43.384 Y196.234 E0.01394
G1 X42.821 Y195.775 E0.02277
G1 X42.387 Y195.346 E0.01916
G1 X42.044 Y194.951 E0.01639
G1 X41.632 Y194.397 E0.02166
G1 X41.266 Y193.807 E0.02177
G1 X40.750 Y192.723 E0.03765
G1 X40.377 Y191.586 E0.03749
G1 X40.156 Y190.494 E0.03495
G1 X40.079 Y189.786 E0.02233
G1 X40.050 Y189.059 E0.02281
G1 X40.049 Y20.980 E5.27000
G1 X40.084 Y20.155 E0.02588
G1 X40.213 Y19.165 E0.03131
G1 X40.391 Y18.362 E0.02580
G1 X40.639 Y17.570 E0.02602
G1 X41.069 Y16.563 E0.03432
G1 X41.276 Y16.177 E0.01373
G1 X41.609 Y15.637 E0.01991
G1 X41.900 Y15.231 E0.01565
G1 X42.296 Y14.752 E0.01948
G1 X42.919 Y14.137 E0.02746
G1 X43.390 Y13.761 E0.01890
G1 X43.751 Y13.514 E0.01371
G1 X44.345 Y13.180 E0.02134
G1 X44.729 Y13.005 E0.01324
G1 X45.219 Y12.827 E0.01636
G1 X45.788 Y12.676 E0.01844
G1 X46.404 Y12.593 E0.01949
G1 X46.687 Y12.935 F10800.000
G1 F1200
G1 X113.101 Y12.928 E2.08236
G1 X113.729 Y12.975 E0.01974
G1 X114.330 Y13.091 E0.01919
G1 X114.829 Y13.240 E0.01633
G1 X115.471 Y13.509 E0.02183
G1 X116.066 Y13.845 E0.02143
G1 X116.607 Y14.233 E0.02087
G1 X117.137 Y14.705 E0.02225
G1 X117.618 Y15.230 E0.02233
G1 X118.037 Y15.787 E0.02185
G1 X118.412 Y16.391 E0.02228
G1 X118.739 Y17.038 E0.02273
G1 X119.013 Y17.715 E0.02289
G1 X119.237 Y18.430 E0.02348
G1 X119.401 Y19.149 E0.02313
G1 X119.514 Y19.902 E0.02389
G1 X119.568 Y20.668 E0.02407
G1 X119.574 Y189.016 E5.27845
G1 X119.541 Y189.804 E0.02473
G1 X119.415 Y190.778 E0.03078
G1 X119.241 Y191.556 E0.02500
G1 X119.004 Y192.309 E0.02476
G1 X118.586 Y193.280 E0.03314
G1 X118.047 Y194.199 E0.03340
G1 X117.805 Y194.534 E0.01297
G1 X117.419 Y195.000 E0.01895
G1 X116.837 Y195.575 E0.02565
G1 X116.380 Y195.940 E0.01836
G1 X116.043 Y196.170 E0.01278
G1 X115.478 Y196.487 E0.02031
G1 X115.122 Y196.649 E0.01227
G1 X114.676 Y196.811 E0.01488
G1 X114.127 Y196.956 E0.01779
G1 X113.289 Y197.066 E0.02652
G1 X46.983 Y197.074 E2.07897
G1 X46.559 Y197.055 E0.01332
G1 X45.919 Y196.966 E0.02025
G1 X45.515 Y196.868 E0.01304
G1 X44.987 Y196.692 E0.01744
G1 X44.523 Y196.488 E0.01589
G1 X43.956 Y196.170 E0.02037
G1 X43.616 Y195.937 E0.01294
G1 X43.080 Y195.501 E0.02167
G1 X42.657 Y195.083 E0.01865
G1 X42.342 Y194.721 E0.01504
G1 X41.939 Y194.178 E0.02118
G1 X41.592 Y193.617 E0.02069
G1 X41.104 Y192.593 E0.03557
G1 X40.745 Y191.500 E0.03607
G1 X40.530 Y190.444 E0.03380
G1 X40.454 Y189.751 E0.02185
G1 X40.427 Y189.048 E0.02207
G1 X40.426 Y20.984 E5.26954
G1 X40.459 Y20.196 E0.02473
G1 X40.585 Y19.222 E0.03078
G1 X40.757 Y18.452 E0.02475
G1 X40.996 Y17.692 E0.02498
G1 X41.406 Y16.734 E0.03267
G1 X41.600 Y16.370 E0.01294
G1 X41.920 Y15.851 E0.01912
G1 X42.195 Y15.466 E0.01481
G1 X42.581 Y15.000 E0.01898
G1 X43.163 Y14.425 E0.02564
G1 X43.620 Y14.060 E0.01836
G1 X43.957 Y13.830 E0.01278
G1 X44.522 Y13.513 E0.02031
G1 X44.878 Y13.351 E0.01227
G1 X45.324 Y13.189 E0.01488
G1 X45.873 Y13.044 E0.01780
G1 X46.628 Y12.943 E0.02388
G1 X46.677 Y13.317 F10800.000
G1 F1200
G1 X113.081 Y13.305 E2.08205
G1 X113.669 Y13.348 E0.01849
G1 X114.249 Y13.459 E0.01854
G1 X114.693 Y13.592 E0.01452
G1 X115.296 Y13.843 E0.02049
G1 X115.855 Y14.158 E0.02010
G1 X116.379 Y14.534 E0.02022
G1 X116.879 Y14.980 E0.02100
G1 X117.333 Y15.478 E0.02114
G1 X117.731 Y16.007 E0.02074
G1 X118.087 Y16.582 E0.02123
G1 X118.399 Y17.201 E0.02172
G1 X118.660 Y17.849 E0.02191
G1 X118.875 Y18.535 E0.02253
G1 X119.032 Y19.225 E0.02221
G1 X119.140 Y19.950 E0.02298
G1 X119.191 Y20.674 E0.02276
