; generated by Slic3r Prusa Edition 1.41.2+win64 on 2019-01-27 at 09:37:47

; 

; external perimeters extrusion width = 0.60mm
; perimeters extrusion width = 0.43mm
; infill extrusion width = 0.45mm
; solid infill extrusion width = 0.70mm
; top infill extrusion width = 0.43mm
; first layer extrusion width = 0.42mm

M201 X9000 Y9000 Z500 E10000 ; sets maximum accelerations, mm/sec^2
M203 X500 Y500 Z12 E120 ; sets maximum feedrates, mm/sec
M204 P2000 R1500 T2000 ; sets acceleration (P, T) and retract acceleration (R), mm/sec^2
M205 X10.00 Y10.00 Z0.20 E2.50 ; sets the jerk limits, mm/sec
M205 S0 T0 ; sets the minimum extruding and travel feed rate, mm/sec
M107
M115 U3.1.0 ; tell printer latest fw version
M204 S2000 T1500 ; MK2 firmware only supports the old M204 format
; Start G-Code sequence START
T?
M104 S215
M140 S60
M109 S215
M190 S60
G21 ; set units to millimeters
G90 ; use absolute coordinates
M83 ; use relative distances for extrusion
G28 W
G80
G92 E0.0
M203 E100
M92 E140
G1 Z0.250 F7200.000
G1 X50.0 E80.0  F1000.0
G1 X160.0 E20.0  F1000.0
G1 Z0.200 F7200.000
G1 X220.0 E13 F1000.0
G1 X240.0 E0 F1000.0
G1 E-4 F1000.0
G92 E0.0
M900 K200; Filament gcode
G21 ; set units to millimeters
G90 ; use absolute coordinates
M83 ; use relative distances for extrusion
;BEFORE_LAYER_CHANGE
G92 E0.0
;0.2


G1 Z0.200 F10800.000
;AFTER_LAYER_CHANGE
;0.2
G1 E-4.00000 F4800.00000
G1 Z0.800 F10800.000
G1 X40.704 Y15.186
G1 Z0.200
G1 E4.00000 F3000.00000
M204 S1000
G1 F1200
G1 X42.019 Y13.921 E0.05719
G1 X42.783 Y13.386 E0.02924
G1 X43.578 Y12.950 E0.02843
G1 X45.109 Y12.397 E0.05104
G1 X45.994 Y12.229 E0.02825
G1 X46.869 Y12.166 E0.02752
G1 X136.956 Y10.614 E2.82502
G1 X203.005 Y10.614 E2.07092
G1 X204.612 Y10.784 E0.05066
G1 X205.468 Y11.017 E0.02782
G1 X206.335 Y11.365 E0.02929
G1 X207.710 Y12.181 E0.05013
G1 X209.087 Y13.422 E0.05812
G1 X210.174 Y14.876 E0.05694
G1 X211.012 Y16.557 E0.05889
G1 X211.612 Y18.619 E0.06732
G1 X211.828 Y20.507 E0.05959
G1 X211.836 Y189.114 E5.28654
G1 X211.637 Y191.251 E0.06730
G1 X211.143 Y193.097 E0.05993
G1 X210.780 Y193.988 E0.03015
G1 X210.223 Y195.041 E0.03737
G1 X209.132 Y196.528 E0.05782
G1 X207.953 Y197.636 E0.05071
G1 X206.443 Y198.584 E0.05591
G1 X204.967 Y199.132 E0.04936
G1 X203.394 Y199.376 E0.04992
G1 X136.979 Y199.386 E2.08239
G1 X46.614 Y197.826 E2.83377
G1 X45.400 Y197.670 E0.03838
G1 X44.036 Y197.253 E0.04473
G1 X42.801 Y196.625 E0.04345
G1 X41.649 Y195.773 E0.04489
G1 X40.916 Y195.055 E0.03218
G1 X40.129 Y194.071 E0.03951
G1 X39.580 Y193.194 E0.03243
G1 X39.045 Y192.087 E0.03856
G1 X38.689 Y191.105 E0.03276
G1 X38.383 Y189.883 E0.03950
G1 X38.234 Y188.896 E0.03130
G1 X38.164 Y187.625 E0.03992
G1 X38.164 Y22.338 E5.18243
G1 X38.362 Y20.224 E0.06658
G1 X38.846 Y18.425 E0.05840
G1 X39.623 Y16.730 E0.05848
G1 X40.669 Y15.235 E0.05722
G1 E-2.40000 F4800.00000
G1 F8640
G1 X42.019 Y13.921 E-0.99384
G1 X42.783 Y13.386 E-0.49226
G1 X42.839 Y13.355 E-0.03391
G1 E-0.08000 F4800.00000
G1 Z0.800 F10800.000
G1 X46.501 Y12.558
G1 Z0.200
G1 E4.00000 F3000.00000
G1 F1200
G1 X113.206 Y12.546 E2.09149
G1 X114.026 Y12.612 E0.02578
G1 X114.815 Y12.767 E0.02521
G1 X115.495 Y12.973 E0.02226
G1 X116.328 Y13.323 E0.02834
G1 X117.065 Y13.736 E0.02651
G1 X117.769 Y14.234 E0.02702
G1 X118.418 Y14.800 E0.02700
G1 X119.017 Y15.439 E0.02747
G1 X119.555 Y16.135 E0.02758
G1 X120.030 Y16.883 E0.02778
G1 X120.436 Y17.667 E0.02769
G1 X120.767 Y18.465 E0.02708
G1 X121.042 Y19.317 E0.02806
G1 X121.244 Y20.174 E0.02760
G1 X121.384 Y21.073 E0.02853
G1 X121.451 Y21.968 E0.02816
G1 X121.459 Y187.637 E5.19441
G1 X121.415 Y188.604 E0.03037
G1 X121.277 Y189.648 E0.03303
G1 X121.071 Y190.577 E0.02982
G1 X120.782 Y191.494 E0.03014
G1 X120.263 Y192.689 E0.04087
G1 X120.004 Y193.161 E0.01687
G1 X119.629 Y193.757 E0.02209
G1 X119.258 Y194.265 E0.01971
G1 X118.820 Y194.786 E0.02135
G1 X118.028 Y195.554 E0.03460
G1 X117.504 Y195.966 E0.02088
G1 X117.036 Y196.283 E0.01772
G1 X116.359 Y196.660 E0.02430
G1 X115.856 Y196.890 E0.01737
G1 X115.215 Y197.121 E0.02134
G1 X114.538 Y197.299 E0.02194
G1 X113.446 Y197.445 E0.03454
G1 X46.963 Y197.459 E2.08456
G1 X46.348 Y197.429 E0.01929
G1 X45.604 Y197.327 E0.02354
G1 X44.988 Y197.180 E0.01987
G1 X44.368 Y196.978 E0.02044
G1 X43.680 Y196.680 E0.02352
G1 X42.992 Y196.300 E0.02462
G1 X42.480 Y195.954 E0.01941
G1 X41.850 Y195.448 E0.02531
G1 X41.330 Y194.945 E0.02269
G1 X40.869 Y194.425 E0.02179
G1 X40.392 Y193.790 E0.02490
G1 X39.977 Y193.132 E0.02440
G1 X39.358 Y191.857 E0.04444
G1 X38.911 Y190.508 E0.04454
G1 X38.662 Y189.280 E0.03928
G1 X38.575 Y188.494 E0.02482
G1 X38.542 Y187.706 E0.02470
G1 X38.541 Y22.363 E5.18422
G1 X38.585 Y21.396 E0.03036
G1 X38.723 Y20.352 E0.03303
G1 X38.929 Y19.423 E0.02982
G1 X39.218 Y18.505 E0.03019
G1 X39.738 Y17.311 E0.04082
G1 X40.417 Y16.173 E0.04157
G1 X40.744 Y15.733 E0.01717
G1 X41.180 Y15.214 E0.02124
G1 X41.972 Y14.446 E0.03460
G1 X42.496 Y14.034 E0.02088
G1 X42.964 Y13.717 E0.01773
G1 X43.641 Y13.340 E0.02430
G1 X44.144 Y13.110 E0.01737
G1 X44.785 Y12.879 E0.02135
G1 X45.461 Y12.702 E0.02190
G1 X46.442 Y12.566 E0.03106
G1 X46.493 Y12.940 F10800.000
G1 F1200
G1 X113.184 Y12.922 E2.09105
G1 X113.965 Y12.984 E0.02455
G1 X114.716 Y13.131 E0.02399
G1 X115.358 Y13.325 E0.02105
G1 X116.153 Y13.657 E0.02703
G1 X116.856 Y14.050 E0.02525
G1 X117.528 Y14.524 E0.02579
G1 X118.162 Y15.078 E0.02639
G1 X118.736 Y15.690 E0.02629
G1 X119.251 Y16.358 E0.02646
G1 X119.707 Y17.078 E0.02671
G1 X120.097 Y17.833 E0.02666
G1 X120.416 Y18.602 E0.02610
G1 X120.680 Y19.425 E0.02710
G1 X120.876 Y20.253 E0.02666
G1 X121.010 Y21.123 E0.02760
G1 X121.075 Y21.989 E0.02725
G1 X121.082 Y187.633 E5.19362
G1 X121.041 Y188.563 E0.02920
G1 X120.904 Y189.591 E0.03251
G1 X120.705 Y190.487 E0.02878
G1 X120.426 Y191.371 E0.02907
G1 X119.928 Y192.516 E0.03915
G1 X119.682 Y192.965 E0.01607
G1 X119.314 Y193.551 E0.02171
G1 X118.966 Y194.027 E0.01848
G1 X118.538 Y194.536 E0.02085
G1 X117.787 Y195.264 E0.03278
G1 X117.277 Y195.665 E0.02036
G1 X116.846 Y195.957 E0.01633
G1 X116.183 Y196.327 E0.02380
G1 X115.707 Y196.544 E0.01641
G1 X115.096 Y196.763 E0.02035
G1 X114.454 Y196.931 E0.02079
G1 X113.409 Y197.070 E0.03306
G1 X46.967 Y197.082 E2.08325
G1 X46.391 Y197.055 E0.01807
G1 X45.665 Y196.954 E0.02298
G1 X45.083 Y196.816 E0.01876
G1 X44.494 Y196.622 E0.01943
G1 X43.838 Y196.338 E0.02242
G1 X43.182 Y195.975 E0.02350
G1 X42.710 Y195.655 E0.01789
G1 X42.093 Y195.160 E0.02479
G1 X41.597 Y194.679 E0.02165
G1 X41.166 Y194.192 E0.02041
G1 X40.707 Y193.582 E0.02394
G1 X40.302 Y192.939 E0.02382
G1 X39.702 Y191.703 E0.04306
G1 X39.278 Y190.422 E0.04232
G1 X39.036 Y189.230 E0.03813
G1 X38.951 Y188.471 E0.02394
G1 X38.919 Y187.695 E0.02437
G1 X38.918 Y22.367 E5.18372
G1 X38.959 Y21.437 E0.02920
G1 X39.096 Y20.409 E0.03251
G1 X39.295 Y19.513 E0.02878
G1 X39.575 Y18.628 E0.02911
G1 X40.079 Y17.473 E0.03951
G1 X40.726 Y16.389 E0.03957
G1 X41.036 Y15.971 E0.01633
G1 X41.462 Y15.464 E0.02076
G1 X42.213 Y14.736 E0.03279
G1 X42.723 Y14.335 E0.02036
G1 X43.154 Y14.043 E0.01633
G1 X43.817 Y13.673 E0.02379
G1 X44.293 Y13.456 E0.01641
G1 X44.904 Y13.237 E0.02035
G1 X45.545 Y13.069 E0.02077
G1 X46.433 Y12.948 E0.02812
G1 X46.484 Y13.321 F10800.000
G1 F1200
G1 X46.577 Y13.309 E0.00296
G1 X113.162 Y13.299 E2.08771
G1 X113.904 Y13.357 E0.02332
G1 X114.616 Y13.495 E0.02276
G1 X115.222 Y13.676 E0.01983
G1 X115.979 Y13.992 E0.02571
G1 X116.664 Y14.374 E0.02459
G1 X117.303 Y14.826 E0.02454
G1 X117.907 Y15.355 E0.02518
G1 X118.454 Y15.941 E0.02513
G1 X118.947 Y16.581 E0.02534
G1 X119.384 Y17.272 E0.02563
G1 X119.758 Y17.999 E0.02563
G1 X120.064 Y18.739 E0.02511
G1 X120.319 Y19.533 E0.02614
G1 X120.507 Y20.332 E0.02573
G1 X120.636 Y21.173 E0.02667
G1 X120.698 Y22.010 E0.02634
G1 X120.705 Y187.628 E5.19284
G1 X120.666 Y188.522 E0.02803
G1 X120.532 Y189.533 E0.03198
G1 X120.338 Y190.396 E0.02774
G1 X120.069 Y191.247 E0.02800
G1 X119.593 Y192.342 E0.03743
G1 X119.360 Y192.770 E0.01527
G1 X119.005 Y193.334 E0.02091
G1 X118.673 Y193.789 E0.01766
G1 X118.255 Y194.286 E0.02034
G1 X117.547 Y194.974 E0.03097
G1 X117.049 Y195.365 E0.01984
G1 X116.641 Y195.640 E0.01543
G1 X116.006 Y195.993 E0.02278
G1 X115.558 Y196.197 E0.01544
G1 X114.977 Y196.405 E0.01935
G1 X114.371 Y196.563 E0.01964
G1 X113.372 Y196.695 E0.03158
G1 X46.971 Y196.705 E2.08196
G1 X46.434 Y196.680 E0.01685
G1 X45.726 Y196.582 E0.02242
G1 X45.193 Y196.455 E0.01717
G1 X44.620 Y196.267 E0.01892
G1 X44.013 Y196.003 E0.02075
G1 X43.372 Y195.649 E0.02295
G1 X42.940 Y195.356 E0.01638
G1 X42.337 Y194.871 E0.02427
G1 X41.865 Y194.414 E0.02060
G1 X41.463 Y193.959 E0.01904
G1 X41.022 Y193.374 E0.02297
G1 X40.626 Y192.747 E0.02325
G1 X40.056 Y191.573 E0.04092
G1 X39.645 Y190.335 E0.04088
G1 X39.409 Y189.180 E0.03696
G1 X39.327 Y188.436 E0.02347
G1 X39.296 Y187.683 E0.02364
G1 X39.295 Y22.372 E5.18323
G1 X39.334 Y21.478 E0.02803
G1 X39.468 Y20.467 E0.03198
G1 X39.661 Y19.604 E0.02774
G1 X39.931 Y18.751 E0.02804
G1 X40.409 Y17.656 E0.03747
G1 X41.035 Y16.606 E0.03832
G1 X41.328 Y16.209 E0.01548
G1 X41.745 Y15.714 E0.02028
G1 X42.453 Y15.026 E0.03097
G1 X42.951 Y14.635 E0.01984
G1 X43.359 Y14.360 E0.01544
G1 X43.994 Y14.007 E0.02278
G1 X44.442 Y13.803 E0.01544
G1 X45.023 Y13.595 E0.01935
G1 X45.629 Y13.437 E0.01963
G1 X46.425 Y13.329 E0.02517
G1 X46.475 Y13.703 F10800.000
G1 F1200
G1 X46.615 Y13.684 E0.00444
G1 X113.141 Y13.675 E2.08587
G1 X113.843 Y13.729 E0.02210
G1 X114.518 Y13.859 E0.02154
G1 X115.087 Y14.028 E0.01862
G1 X115.805 Y14.327 E0.02439
G1 X116.455 Y14.688 E0.02330
G1 X117.062 Y15.117 E0.02329
G1 X117.651 Y15.633 E0.02457
G1 X118.172 Y16.191 E0.02394
G1 X118.643 Y16.804 E0.02422
G1 X119.061 Y17.466 E0.02455
G1 X119.419 Y18.164 E0.02460
G1 X119.713 Y18.876 E0.02413
G1 X119.958 Y19.641 E0.02519
G1 X120.138 Y20.410 E0.02479
G1 X120.262 Y21.222 E0.02575
G1 X120.322 Y22.031 E0.02544
G1 X120.328 Y187.624 E5.19206
G1 X120.291 Y188.480 E0.02686
G1 X120.159 Y189.475 E0.03146
G1 X119.972 Y190.305 E0.02669
G1 X119.713 Y191.124 E0.02693
G1 X119.258 Y192.169 E0.03573
G1 X119.037 Y192.574 E0.01446
G1 X118.689 Y193.128 E0.02052
G1 X118.380 Y193.552 E0.01643
G1 X117.973 Y194.036 E0.01984
G1 X117.306 Y194.683 E0.02915
G1 X116.821 Y195.064 E0.01932
G1 X116.437 Y195.323 E0.01453
G1 X115.830 Y195.660 E0.02176
G1 X115.409 Y195.850 E0.01448
G1 X114.874 Y196.042 E0.01785
G1 X114.287 Y196.195 E0.01900
G1 X113.336 Y196.319 E0.03008
G1 X46.975 Y196.328 E2.08068
G1 X46.477 Y196.305 E0.01564
G1 X45.787 Y196.210 E0.02186
G1 X45.304 Y196.094 E0.01557
G1 X44.746 Y195.911 E0.01841
G1 X44.188 Y195.669 E0.01908
G1 X43.562 Y195.323 E0.02240
G1 X43.170 Y195.057 E0.01486
G1 X42.580 Y194.583 E0.02375
G1 X42.133 Y194.149 E0.01954
G1 X41.759 Y193.726 E0.01768
G1 X41.328 Y193.153 E0.02249
G1 X40.951 Y192.555 E0.02218
G1 X40.410 Y191.442 E0.03879
G1 X40.012 Y190.248 E0.03944
G1 X39.783 Y189.130 E0.03580
G1 X39.702 Y188.401 E0.02299
G1 X39.673 Y187.672 E0.02290
G1 X39.672 Y22.376 E5.18274
G1 X39.709 Y21.520 E0.02686
G1 X39.841 Y20.525 E0.03145
G1 X40.028 Y19.695 E0.02669
G1 X40.288 Y18.875 E0.02697
G1 X40.749 Y17.818 E0.03617
G1 X41.344 Y16.823 E0.03634
G1 X41.621 Y16.447 E0.01463
G1 X42.027 Y15.964 E0.01979
G1 X42.694 Y15.317 E0.02915
G1 X43.179 Y14.936 E0.01931
G1 X43.563 Y14.677 E0.01453
G1 X44.170 Y14.340 E0.02176
G1 X44.591 Y14.150 E0.01448
G1 X45.126 Y13.958 E0.01785
G1 X45.713 Y13.805 E0.01900
G1 X46.415 Y13.711 E0.02222
G1 X46.465 Y14.084 F10800.000
G1 F1200
G1 X46.652 Y14.060 E0.00593
G1 X113.120 Y14.052 E2.08405
G1 X113.783 Y14.102 E0.02087
G1 X114.420 Y14.223 E0.02032
G1 X114.952 Y14.381 E0.01740
G1 X115.632 Y14.662 E0.02305
G1 X116.262 Y15.013 E0.02263
G1 X116.836 Y15.419 E0.02202
G1 X117.395 Y15.910 E0.02334
G1 X117.890 Y16.441 E0.02277
G1 X118.338 Y17.026 E0.02311
G1 X118.737 Y17.660 E0.02348
G1 X119.080 Y18.329 E0.02357
G1 X119.361 Y19.012 E0.02315
G1 X119.596 Y19.748 E0.02423
G1 X119.769 Y20.489 E0.02385
G1 X119.888 Y21.271 E0.02482
G1 X119.945 Y22.052 E0.02453
G1 X119.951 Y187.620 E5.19129
G1 X119.916 Y188.439 E0.02570
G1 X119.786 Y189.417 E0.03092
G1 X119.606 Y190.214 E0.02563
G1 X119.356 Y191.000 E0.02587
G1 X118.923 Y191.996 E0.03404
G1 X118.715 Y192.379 E0.01366
G1 X118.380 Y192.912 E0.01973
G1 X118.088 Y193.314 E0.01560
G1 X117.691 Y193.786 E0.01933
G1 X117.065 Y194.393 E0.02733
G1 X116.594 Y194.763 E0.01879
G1 X116.234 Y195.006 E0.01362
G1 X115.655 Y195.326 E0.02075
G1 X115.261 Y195.504 E0.01353
G1 X114.770 Y195.679 E0.01635
G1 X114.204 Y195.827 E0.01836
G1 X113.300 Y195.944 E0.02858
G1 X46.979 Y195.951 E2.07942
G1 X46.520 Y195.931 E0.01442
G1 X45.848 Y195.838 E0.02129
G1 X45.414 Y195.734 E0.01398
G1 X44.872 Y195.555 E0.01790
G1 X44.362 Y195.335 E0.01743
G1 X43.766 Y195.006 E0.02133
G1 X43.400 Y194.758 E0.01387
G1 X42.836 Y194.306 E0.02265
G1 X42.401 Y193.883 E0.01903
G1 X42.056 Y193.493 E0.01633
G1 X41.642 Y192.945 E0.02151
G1 X41.275 Y192.363 E0.02160
G1 X40.755 Y191.288 E0.03743
G1 X40.379 Y190.162 E0.03724
G1 X40.157 Y189.079 E0.03464
G1 X40.079 Y188.379 E0.02209
G1 X40.050 Y187.660 E0.02257
G1 X40.049 Y22.380 E5.18226
G1 X40.084 Y21.561 E0.02570
G1 X40.214 Y20.583 E0.03092
G1 X40.394 Y19.786 E0.02563
G1 X40.644 Y18.999 E0.02590
G1 X41.090 Y17.980 E0.03487
G1 X41.653 Y17.039 E0.03437
G1 X41.913 Y16.685 E0.01377
G1 X42.309 Y16.214 E0.01930
G1 X42.935 Y15.607 E0.02733
G1 X43.406 Y15.237 E0.01879
G1 X43.766 Y14.994 E0.01362
G1 X44.345 Y14.674 E0.02075
G1 X44.739 Y14.496 E0.01353
G1 X45.230 Y14.321 E0.01635
G1 X45.797 Y14.173 E0.01837
G1 X46.405 Y14.092 E0.01925
G1 X46.689 Y14.435 F10800.000
G1 F1200
G1 X113.099 Y14.428 E2.08226
G1 X113.724 Y14.474 E0.01965
G1 X114.323 Y14.587 E0.01910
G1 X114.818 Y14.733 E0.01619
G1 X115.458 Y14.997 E0.02171
G1 X116.053 Y15.327 E0.02132
G1 X116.610 Y15.721 E0.02138
G1 X117.139 Y16.186 E0.02210
G1 X117.607 Y16.691 E0.02159
G1 X118.033 Y17.248 E0.02199
G1 X118.413 Y17.853 E0.02241
G1 X118.741 Y18.494 E0.02255
G1 X119.009 Y19.148 E0.02217
G1 X119.234 Y19.855 E0.02328
G1 X119.400 Y20.567 E0.02291
G1 X119.514 Y21.320 E0.02389
G1 X119.568 Y22.072 E0.02363
G1 X119.574 Y187.616 E5.19053
G1 X119.541 Y188.398 E0.02453
G1 X119.414 Y189.359 E0.03038
G1 X119.241 Y190.123 E0.02456
G1 X119.000 Y190.877 E0.02481
G1 X118.588 Y191.823 E0.03237
G1 X118.392 Y192.184 E0.01286
G1 X118.071 Y192.695 E0.01893
G1 X117.795 Y193.076 E0.01476
G1 X117.408 Y193.536 E0.01882
G1 X116.824 Y194.102 E0.02551
G1 X116.367 Y194.462 E0.01825
G1 X116.030 Y194.688 E0.01270
G1 X115.479 Y194.992 E0.01973
G1 X115.114 Y195.157 E0.01257
G1 X114.667 Y195.317 E0.01487
G1 X114.120 Y195.459 E0.01772
G1 X113.288 Y195.566 E0.02632
G1 X46.983 Y195.574 E2.07892
G1 X46.562 Y195.556 E0.01322
G1 X45.926 Y195.469 E0.02014
G1 X45.524 Y195.373 E0.01294
G1 X44.998 Y195.200 E0.01738
G1 X44.536 Y195.000 E0.01578
G1 X43.970 Y194.688 E0.02027
G1 X43.629 Y194.459 E0.01287
G1 X43.092 Y194.029 E0.02155
G1 X42.669 Y193.618 E0.01852
G1 X42.352 Y193.260 E0.01498
G1 X41.948 Y192.725 E0.02103
G1 X41.600 Y192.171 E0.02052
G1 X41.108 Y191.157 E0.03532
G1 X40.746 Y190.074 E0.03580
G1 X40.531 Y189.029 E0.03346
G1 X40.454 Y188.344 E0.02160
G1 X40.427 Y187.649 E0.02182
G1 X40.426 Y22.383 E5.18178
G1 X40.459 Y21.602 E0.02453
G1 X40.586 Y20.641 E0.03038
G1 X40.759 Y19.877 E0.02456
G1 X41.000 Y19.123 E0.02483
G1 X41.420 Y18.163 E0.03285
G1 X41.962 Y17.255 E0.03315
G1 X42.206 Y16.923 E0.01291
G1 X42.592 Y16.464 E0.01880
G1 X43.176 Y15.898 E0.02551
G1 X43.633 Y15.538 E0.01825
G1 X43.970 Y15.312 E0.01270
G1 X44.521 Y15.008 E0.01973
G1 X44.886 Y14.843 E0.01257
G1 X45.333 Y14.683 E0.01487
G1 X45.880 Y14.541 E0.01773
G1 X46.629 Y14.443 E0.02368
G1 X46.677 Y14.817 F10800.000
G1 F1200
G1 X113.079 Y14.805 E2.08199
G1 X113.665 Y14.847 E0.01841
G1 X114.243 Y14.956 E0.01846
G1 X114.684 Y15.086 E0.01441
G1 X115.286 Y15.332 E0.02039
G1 X115.844 Y15.641 E0.02000
G1 X116.368 Y16.011 E0.02011
G1 X116.869 Y16.450 E0.02087
G1 X117.324 Y16.941 E0.02100
G1 X117.728 Y17.470 E0.02087
G1 X118.089 Y18.046 E0.02134
G1 X118.401 Y18.658 E0.02152
G1 X118.657 Y19.283 E0.02120
G1 X118.873 Y19.962 E0.02232
G1 X119.031 Y20.645 E0.02198
