; generated by Slic3r Prusa Edition 1.41.2+win64 on 2019-06-10 at 12:53:29

; 

; external perimeters extrusion width = 0.60mm
; perimeters extrusion width = 0.43mm
; infill extrusion width = 0.45mm
; solid infill extrusion width = 0.70mm
; top infill extrusion width = 0.43mm
; first layer extrusion width = 0.42mm

M201 X9000 Y9000 Z500 E10000 ; sets maximum accelerations, mm/sec^2
M203 X500 Y500 Z12 E120 ; sets maximum feedrates, mm/sec
M204 P2000 R1500 T2000 ; sets acceleration (P, T) and retract acceleration (R), mm/sec^2
M205 X10.00 Y10.00 Z0.20 E2.50 ; sets the jerk limits, mm/sec
M205 S0 T0 ; sets the minimum extruding and travel feed rate, mm/sec
M107
M115 U3.1.0 ; tell printer latest fw version
M204 S2000 T1500 ; MK2 firmware only supports the old M204 format
; Start G-Code sequence START
T3
M104 S215 ; set extruder temp
M140 S60 ; set bed temp
M190 S60 ; wait for bed temp
M109 S215 ; wait for extruder temp
G21 ; set units to millimeters
G90 ; use absolute coordinates
M83 ; use relative distances for extrusion
G28 W
G80
G92 E0.0
M203 E100 ; set max feedrate
M92 E140 ; E-steps per filament milimeter

G1 Z0.250 F7200.000
G1 X50.0 E80.0  F1000.0
G1 X160.0 E20.0  F1000.0
G1 Z0.200 F7200.000
G1 X220.0 E13 F1000.0
G1 X240.0 E0 F1000.0

G92 E0.0
M900 K200; Filament gcode
G21 ; set units to millimeters
G90 ; use absolute coordinates
M83 ; use relative distances for extrusion
T3
M900 K200; Filament gcode
;BEFORE_LAYER_CHANGE
G92 E0.0
;0.2


G1 Z0.200 F10800.000
;AFTER_LAYER_CHANGE
;0.2
G1 E-4.00000 F4800.00000
G1 Z0.800 F10800.000
G1 X69.289 Y54.885
G1 Z0.200
G1 E4.00000 F3000.00000
M204 S1000
G1 F1200
G1 X70.789 Y53.050 E0.07430
G1 X71.876 Y51.964 E0.04816
G1 X73.188 Y50.857 E0.05384
G1 X74.580 Y49.876 E0.05338
G1 X76.054 Y49.013 E0.05356
G1 X78.379 Y47.894 E0.08091
G1 X80.396 Y47.076 E0.06822
G1 X84.074 Y45.886 E0.12120
G1 X85.693 Y45.502 E0.05218
G1 X87.348 Y45.230 E0.05258
G1 X89.015 Y45.093 E0.05247
G1 X90.554 Y45.073 E0.04823
G1 X92.209 Y45.131 E0.05194
G1 X95.262 Y45.403 E0.09609
G1 X98.714 Y46.000 E0.10987
G1 X100.796 Y46.602 E0.06793
G1 X102.269 Y47.205 E0.04990
G1 X103.398 Y47.790 E0.03989
G1 X105.357 Y49.068 E0.07334
G1 X106.516 Y50.041 E0.04744
G1 X107.329 Y50.876 E0.03654
G1 X111.685 Y56.609 E0.22576
G1 X112.295 Y57.839 E0.04304
G1 X124.820 Y95.615 E1.24785
G1 X125.019 Y97.007 E0.04408
G1 X124.987 Y138.294 E1.29453
G1 X124.833 Y139.086 E0.02532
G1 X124.381 Y140.470 E0.04563
G1 X123.991 Y141.221 E0.02653
G1 X123.478 Y141.901 E0.02671
G1 X122.423 Y142.961 E0.04691
G1 X121.778 Y143.465 E0.02566
G1 X120.078 Y144.366 E0.06032
G1 X119.277 Y144.672 E0.02688
G1 X117.266 Y145.170 E0.06495
G1 X114.948 Y145.357 E0.07294
G1 X65.033 Y145.019 E1.56508
G1 X63.069 Y144.874 E0.06174
G1 X62.317 Y144.748 E0.02392
G1 X60.325 Y144.199 E0.06477
G1 X58.625 Y143.364 E0.05940
G1 X57.924 Y142.910 E0.02619
G1 X56.647 Y141.692 E0.05533
G1 X56.084 Y140.988 E0.02828
G1 X55.612 Y140.098 E0.03158
G1 X55.187 Y138.794 E0.04299
G1 X54.988 Y137.403 E0.04408
G1 X54.988 Y97.150 E1.26210
G1 X55.052 Y96.350 E0.02514
G1 X55.251 Y95.539 E0.02619
G1 X68.266 Y56.902 E1.27834
G1 X69.262 Y54.938 E0.06904
G1 E-2.40000 F4800.00000
G1 F8640
G1 X70.789 Y53.050 E-1.28165
G1 X71.109 Y52.731 E-0.23835
G1 E-0.08000 F4800.00000
G1 Z0.800 F10800.000
G1 X111.637 Y64.198
G1 Z0.200
G1 E4.00000 F3000.00000
G1 F1200
G1 X111.894 Y65.031 E0.02735
G1 X112.138 Y66.198 E0.03736
G1 X112.276 Y66.712 E0.01671
G1 X112.365 Y67.756 E0.03284
G1 X112.366 Y68.091 E0.01049
G1 X112.402 Y68.451 E0.01135
G1 X112.403 Y69.009 E0.01751
G1 X112.307 Y70.055 E0.03294
G1 X112.290 Y70.470 E0.01301
G1 X112.101 Y71.337 E0.02782
G1 X111.877 Y71.944 E0.02030
G1 X112.219 Y72.948 E0.03326
G1 X112.309 Y74.437 E0.04677
G1 X112.143 Y75.315 E0.02800
G1 X111.830 Y76.150 E0.02798
G1 X111.113 Y77.693 E0.05334
G1 X110.459 Y78.987 E0.04545
G1 X109.920 Y79.858 E0.03213
G1 X108.989 Y81.028 E0.04690
G1 X108.092 Y82.004 E0.04157
G1 X107.230 Y82.848 E0.03779
G1 X106.436 Y83.562 E0.03349
G1 X105.595 Y84.258 E0.03424
G1 X104.631 Y84.986 E0.03788
G1 X103.531 Y85.714 E0.04135
G1 X101.772 Y86.690 E0.06307
G1 X100.835 Y86.934 E0.03037
G1 X99.864 Y86.970 E0.03047
G1 X98.541 Y86.647 E0.04268
G1 X97.364 Y85.995 E0.04221
G1 X96.471 Y85.176 E0.03798
G1 X95.842 Y84.142 E0.03795
G1 X95.519 Y82.968 E0.03818
G1 X95.495 Y67.185 E0.49488
G1 X92.774 Y67.185 E0.08534
G1 X92.740 Y85.192 E0.56461
G1 X92.528 Y86.043 E0.02748
G1 X92.136 Y86.862 E0.02849
G1 X91.572 Y87.585 E0.02875
G1 X90.863 Y88.226 E0.02996
G1 X90.087 Y88.709 E0.02865
G1 X89.239 Y89.019 E0.02831
G1 X87.934 Y89.141 E0.04108
G1 X86.068 Y88.898 E0.05903
G1 X84.881 Y88.692 E0.03777
G1 X83.705 Y88.431 E0.03776
G1 X82.023 Y87.947 E0.05489
G1 X80.317 Y87.281 E0.05740
G1 X79.280 Y86.802 E0.03582
G1 X78.471 Y86.389 E0.02849
G1 X76.658 Y85.367 E0.06523
G1 X75.708 Y84.763 E0.03530
G1 X74.795 Y84.115 E0.03512
G1 X73.624 Y83.138 E0.04781
G1 X72.880 Y82.388 E0.03314
G1 X72.182 Y81.581 E0.03346
G1 X71.221 Y80.301 E0.05018
G1 X70.270 Y78.904 E0.05299
G1 X69.794 Y77.910 E0.03456
G1 X68.975 Y75.979 E0.06576
G1 X68.723 Y75.452 E0.01833
G1 X68.340 Y74.443 E0.03382
G1 X67.635 Y72.792 E0.05630
G1 X67.415 Y71.684 E0.03543
G1 X67.408 Y71.398 E0.00896
G1 X67.330 Y70.837 E0.01775
G1 X67.299 Y69.469 E0.04292
G1 X67.440 Y68.509 E0.03040
G1 X67.748 Y67.456 E0.03440
G1 X68.248 Y66.588 E0.03144
G1 X68.087 Y66.159 E0.01436
G1 X67.945 Y65.637 E0.01697
G1 X67.792 Y64.515 E0.03549
G1 X67.825 Y63.581 E0.02931
G1 X67.929 Y63.070 E0.01635
G1 X67.961 Y62.554 E0.01622
G1 X68.145 Y61.794 E0.02450
G1 X68.260 Y61.519 E0.00936
G1 X68.087 Y60.897 E0.02025
G1 X68.001 Y59.971 E0.02917
G1 X68.069 Y59.002 E0.03045
G1 X68.254 Y58.144 E0.02752
G1 X68.567 Y57.173 E0.03199
G1 X69.268 Y55.661 E0.05224
G1 X69.818 Y54.788 E0.03236
G1 X70.998 Y53.375 E0.05773
G1 X72.030 Y52.335 E0.04593
G1 X72.986 Y51.512 E0.03956
G1 X73.512 Y51.085 E0.02123
G1 X74.874 Y50.135 E0.05207
G1 X76.127 Y49.402 E0.04551
G1 X77.303 Y48.801 E0.04142
G1 X78.660 Y48.183 E0.04676
G1 X80.050 Y47.617 E0.04705
G1 X81.130 Y47.212 E0.03618
G1 X82.740 Y46.669 E0.05325
G1 X84.197 Y46.244 E0.04760
G1 X85.681 Y45.889 E0.04784
G1 X87.513 Y45.590 E0.05820
G1 X89.083 Y45.468 E0.04938
G1 X90.660 Y45.451 E0.04945
G1 X92.153 Y45.505 E0.04684
G1 X93.673 Y45.617 E0.04780
G1 X95.238 Y45.780 E0.04933
G1 X96.967 Y46.032 E0.05476
G1 X98.684 Y46.379 E0.05494
G1 X100.597 Y46.930 E0.06240
G1 X102.023 Y47.507 E0.04825
G1 X103.199 Y48.112 E0.04146
G1 X103.802 Y48.460 E0.02183
G1 X105.145 Y49.380 E0.05106
G1 X106.194 Y50.256 E0.04284
G1 X107.078 Y51.158 E0.03961
G1 X107.638 Y51.846 E0.02783
G1 X108.139 Y52.576 E0.02772
G1 X109.015 Y54.099 E0.05509
G1 X111.174 Y56.540 E0.10218
G1 X111.782 Y57.567 E0.03743
G1 X112.164 Y58.651 E0.03604
G1 X112.402 Y59.621 E0.03131
G1 X112.442 Y59.929 E0.00975
G1 X112.550 Y60.353 E0.01370
G1 X112.665 Y61.358 E0.03173
G1 X112.386 Y62.949 E0.05064
G1 X111.868 Y63.926 E0.03469
G1 X111.676 Y64.152 E0.00929
G1 X111.214 Y64.105 F10800.000
G1 F1200
G1 X111.527 Y65.117 E0.03323
G1 X111.771 Y66.285 E0.03741
G1 X111.907 Y66.793 E0.01650
G1 X111.988 Y67.779 E0.03101
G1 X111.989 Y68.110 E0.01038
G1 X112.025 Y68.461 E0.01107
G1 X112.026 Y69.001 E0.01693
G1 X111.931 Y70.030 E0.03239
G1 X111.914 Y70.437 E0.01278
G1 X111.736 Y71.242 E0.02585
G1 X111.476 Y71.940 E0.02335
G1 X111.845 Y72.999 E0.03515
G1 X111.934 Y74.392 E0.04376
G1 X111.784 Y75.198 E0.02572
G1 X111.485 Y75.998 E0.02677
G1 X110.772 Y77.531 E0.05301
G1 X110.126 Y78.809 E0.04490
G1 X109.606 Y79.650 E0.03101
G1 X108.698 Y80.788 E0.04563
G1 X107.818 Y81.746 E0.04079
G1 X106.970 Y82.575 E0.03720
G1 X106.187 Y83.279 E0.03300
G1 X105.365 Y83.960 E0.03348
G1 X104.418 Y84.675 E0.03720
G1 X103.341 Y85.389 E0.04050
G1 X101.654 Y86.331 E0.06060
G1 X100.761 Y86.564 E0.02893
G1 X99.879 Y86.592 E0.02766
G1 X98.658 Y86.288 E0.03946
G1 X97.568 Y85.677 E0.03916
G1 X96.747 Y84.918 E0.03506
G1 X96.179 Y83.972 E0.03461
G1 X95.889 Y82.895 E0.03496
G1 X95.872 Y66.808 E0.50440
G1 X92.397 Y66.808 E0.10896
G1 X92.368 Y85.123 E0.57427
G1 X92.167 Y85.932 E0.02614
G1 X91.806 Y86.679 E0.02600
G1 X91.286 Y87.339 E0.02634
G1 X90.623 Y87.935 E0.02795
G1 X89.939 Y88.362 E0.02527
G1 X89.133 Y88.656 E0.02693
G1 X87.962 Y88.765 E0.03685
G1 X86.128 Y88.526 E0.05799
G1 X84.950 Y88.321 E0.03751
G1 X83.792 Y88.064 E0.03717
G1 X82.152 Y87.592 E0.05353
G1 X80.460 Y86.932 E0.05694
G1 X79.442 Y86.461 E0.03517
G1 X78.646 Y86.055 E0.02802
G1 X76.856 Y85.046 E0.06440
G1 X75.923 Y84.453 E0.03469
G1 X75.019 Y83.812 E0.03474
G1 X73.886 Y82.866 E0.04629
G1 X73.152 Y82.127 E0.03265
G1 X72.471 Y81.339 E0.03264
G1 X71.525 Y80.078 E0.04943
G1 X70.590 Y78.704 E0.05212
G1 X70.136 Y77.751 E0.03307
G1 X69.319 Y75.823 E0.06567
G1 X69.072 Y75.310 E0.01785
G1 X68.689 Y74.302 E0.03382
G1 X68.000 Y72.698 E0.05472
G1 X67.791 Y71.658 E0.03325
G1 X67.785 Y71.367 E0.00914
G1 X67.706 Y70.817 E0.01740
G1 X67.677 Y69.476 E0.04206
G1 X67.805 Y68.603 E0.02769
G1 X68.103 Y67.585 E0.03326
G1 X68.643 Y66.661 E0.03355
G1 X68.568 Y66.342 E0.01027
G1 X68.447 Y66.046 E0.01002
G1 X68.312 Y65.549 E0.01615
G1 X68.169 Y64.512 E0.03282
G1 X68.202 Y63.611 E0.02828
G1 X68.304 Y63.119 E0.01575
G1 X68.332 Y62.625 E0.01551
G1 X68.507 Y61.900 E0.02341
G1 X68.660 Y61.546 E0.01209
G1 X68.460 Y60.843 E0.02290
G1 X68.378 Y59.981 E0.02714
G1 X68.444 Y59.042 E0.02952
G1 X68.621 Y58.233 E0.02596
G1 X68.914 Y57.320 E0.03007
G1 X69.594 Y55.851 E0.05075
G1 X70.116 Y55.020 E0.03079
G1 X71.272 Y53.635 E0.05656
G1 X72.293 Y52.606 E0.04544
G1 X73.226 Y51.802 E0.03862
G1 X73.733 Y51.390 E0.02050
G1 X75.071 Y50.457 E0.05114
G1 X76.312 Y49.730 E0.04510
G1 X77.471 Y49.139 E0.04078
G1 X78.806 Y48.530 E0.04601
G1 X80.190 Y47.967 E0.04685
G1 X81.254 Y47.568 E0.03563
G1 X82.849 Y47.030 E0.05279
G1 X84.289 Y46.609 E0.04704
G1 X85.762 Y46.258 E0.04748
G1 X87.550 Y45.965 E0.05681
G1 X89.094 Y45.845 E0.04854
G1 X90.651 Y45.828 E0.04884
G1 X92.129 Y45.881 E0.04637
G1 X93.643 Y45.993 E0.04760
G1 X95.195 Y46.155 E0.04894
G1 X96.897 Y46.403 E0.05392
G1 X98.602 Y46.747 E0.05454
G1 X100.464 Y47.283 E0.06076
G1 X101.874 Y47.853 E0.04767
G1 X103.023 Y48.445 E0.04051
G1 X103.595 Y48.775 E0.02073
G1 X104.911 Y49.675 E0.04998
G1 X105.945 Y50.539 E0.04225
G1 X106.802 Y51.416 E0.03844
G1 X107.341 Y52.078 E0.02677
G1 X107.823 Y52.782 E0.02677
G1 X108.707 Y54.320 E0.05560
G1 X110.879 Y56.776 E0.10281
G1 X111.448 Y57.742 E0.03514
G1 X111.805 Y58.766 E0.03403
G1 X112.033 Y59.699 E0.03011
G1 X112.071 Y59.999 E0.00948
G1 X112.181 Y60.433 E0.01404
G1 X112.287 Y61.374 E0.02968
G1 X112.039 Y62.798 E0.04535
G1 X111.546 Y63.729 E0.03300
G1 X111.253 Y64.060 E0.01386
G1 X110.795 Y64.003 F10800.000
G1 F1200
G1 X111.027 Y64.818 E0.02659
G1 X111.161 Y65.209 E0.01294
G1 X111.404 Y66.373 E0.03729
G1 X111.538 Y66.874 E0.01628
G1 X111.648 Y68.472 E0.05022
G1 X111.649 Y68.993 E0.01634
G1 X111.555 Y70.004 E0.03184
G1 X111.538 Y70.404 E0.01255
G1 X111.371 Y71.147 E0.02385
G1 X111.052 Y71.996 E0.02846
G1 X111.170 Y72.196 E0.00725
G1 X111.470 Y73.051 E0.02843
G1 X111.559 Y74.346 E0.04071
G1 X111.416 Y75.112 E0.02444
G1 X111.140 Y75.845 E0.02455
G1 X110.431 Y77.369 E0.05270
G1 X109.793 Y78.632 E0.04435
G1 X109.291 Y79.442 E0.02988
G1 X108.408 Y80.547 E0.04437
G1 X107.544 Y81.486 E0.04001
G1 X106.709 Y82.303 E0.03661
G1 X105.938 Y82.996 E0.03251
G1 X105.134 Y83.662 E0.03272
G1 X104.204 Y84.364 E0.03653
G1 X103.150 Y85.064 E0.03968
G1 X101.533 Y85.973 E0.05817
G1 X100.727 Y86.188 E0.02616
G1 X99.894 Y86.214 E0.02612
G1 X98.776 Y85.929 E0.03617
G1 X97.773 Y85.360 E0.03616
G1 X97.057 Y84.701 E0.03054
G1 X96.516 Y83.801 E0.03290
G1 X96.260 Y82.823 E0.03169
G1 X96.249 Y66.431 E0.51398
G1 X92.020 Y66.431 E0.13259
G1 X91.996 Y85.056 E0.58399
G1 X91.819 Y85.786 E0.02356
G1 X91.475 Y86.495 E0.02469
G1 X91.001 Y87.091 E0.02387
G1 X90.385 Y87.643 E0.02594
G1 X89.758 Y88.030 E0.02309
G1 X89.028 Y88.293 E0.02433
G1 X87.990 Y88.388 E0.03267
G1 X86.189 Y88.154 E0.05696
G1 X85.027 Y87.952 E0.03697
G1 X83.880 Y87.697 E0.03685
G1 X82.281 Y87.238 E0.05216
G1 X80.603 Y86.582 E0.05649
G1 X79.604 Y86.120 E0.03451
G1 X78.821 Y85.721 E0.02756
G1 X77.055 Y84.726 E0.06356
G1 X76.129 Y84.138 E0.03438
G1 X75.244 Y83.508 E0.03406
G1 X74.147 Y82.594 E0.04477
G1 X73.433 Y81.875 E0.03176
G1 X72.761 Y81.098 E0.03223
G1 X71.829 Y79.855 E0.04868
G1 X70.910 Y78.504 E0.05125
G1 X70.479 Y77.594 E0.03158
G1 X69.663 Y75.667 E0.06560
G1 X69.422 Y75.168 E0.01737
G1 X69.039 Y74.160 E0.03384
G1 X68.366 Y72.603 E0.05316
G1 X68.168 Y71.633 E0.03106
G1 X68.161 Y71.335 E0.00933
G1 X68.083 Y70.797 E0.01706
G1 X68.052 Y69.515 E0.04021
G1 X68.171 Y68.696 E0.02594
G1 X68.458 Y67.714 E0.03208
G1 X69.045 Y66.723 E0.03610
G1 X68.928 Y66.226 E0.01602
G1 X68.808 Y65.935 E0.00986
G1 X68.679 Y65.462 E0.01539
G1 X68.547 Y64.509 E0.03014
G1 X68.578 Y63.642 E0.02723
G1 X68.679 Y63.168 E0.01517
G1 X68.703 Y62.696 E0.01482
G1 X68.870 Y62.005 E0.02228
G1 X69.061 Y61.573 E0.01483
G1 X68.834 Y60.788 E0.02563
G1 X68.755 Y59.992 E0.02509
G1 X68.820 Y59.083 E0.02857
G1 X68.987 Y58.323 E0.02439
G1 X69.261 Y57.468 E0.02817
G1 X69.920 Y56.041 E0.04927
G1 X70.414 Y55.251 E0.02920
G1 X71.545 Y53.895 E0.05538
G1 X72.555 Y52.877 E0.04495
G1 X73.466 Y52.093 E0.03769
G1 X73.955 Y51.695 E0.01977
G1 X75.268 Y50.778 E0.05021
G1 X76.498 Y50.059 E0.04469
G1 X77.638 Y49.477 E0.04014
G1 X78.959 Y48.875 E0.04550
G1 X80.329 Y48.317 E0.04640
G1 X81.377 Y47.924 E0.03509
G1 X82.959 Y47.391 E0.05233
G1 X84.381 Y46.975 E0.04647
G1 X85.843 Y46.626 E0.04712
G1 X87.588 Y46.340 E0.05543
G1 X89.117 Y46.221 E0.04808
G1 X90.642 Y46.205 E0.04783
G1 X92.105 Y46.257 E0.04589
G1 X93.607 Y46.368 E0.04722
G1 X95.153 Y46.530 E0.04873
G1 X96.838 Y46.775 E0.05339
G1 X98.520 Y47.115 E0.05382
G1 X100.332 Y47.636 E0.05912
G1 X101.724 Y48.200 E0.04709
G1 X102.846 Y48.778 E0.03956
G1 X103.388 Y49.091 E0.01964
G1 X104.676 Y49.971 E0.04890
G1 X105.696 Y50.822 E0.04166
G1 X106.526 Y51.673 E0.03727
G1 X107.043 Y52.310 E0.02571
G1 X107.508 Y52.989 E0.02581
G1 X108.399 Y54.541 E0.05611
G1 X110.584 Y57.012 E0.10342
G1 X111.112 Y57.915 E0.03282
G1 X111.446 Y58.881 E0.03202
G1 X111.664 Y59.777 E0.02892
G1 X111.699 Y60.069 E0.00924
G1 X111.808 Y60.489 E0.01359
G1 X111.910 Y61.389 E0.02841
G1 X111.691 Y62.648 E0.04006
G1 X111.225 Y63.530 E0.03128
G1 X110.835 Y63.958 E0.01815
G1 X110.354 Y63.921 F10800.000
G1 F1200
G1 X110.508 Y64.340 E0.01399
G1 X110.666 Y64.928 E0.01909
G1 X110.794 Y65.298 E0.01227
G1 X111.037 Y66.460 E0.03723
G1 X111.169 Y66.954 E0.01605
G1 X111.235 Y67.822 E0.02727
G1 X111.235 Y68.150 E0.01028
G1 X111.270 Y68.483 E0.01052
G1 X111.272 Y68.985 E0.01573
G1 X111.178 Y69.981 E0.03136
G1 X111.166 Y70.340 E0.01126
G1 X111.008 Y71.045 E0.02265
G1 X110.886 Y71.335 E0.00988
G1 X110.637 Y72.048 E0.02367
G1 X110.823 Y72.345 E0.01100
G1 X111.096 Y73.105 E0.02532
G1 X111.184 Y74.301 E0.03761
G1 X111.048 Y75.026 E0.02312
G1 X110.790 Y75.704 E0.02275
G1 X110.091 Y77.207 E0.05198
G1 X109.468 Y78.441 E0.04331
G1 X108.990 Y79.215 E0.02856
G1 X108.117 Y80.307 E0.04380
G1 X107.270 Y81.227 E0.03924
G1 X106.454 Y82.025 E0.03578
G1 X105.688 Y82.713 E0.03227
G1 X104.897 Y83.369 E0.03223
G1 X103.991 Y84.053 E0.03560
G1 X102.959 Y84.739 E0.03884
G1 X101.370 Y85.632 E0.05716
G1 X100.654 Y85.817 E0.02318
G1 X99.912 Y85.837 E0.02328
G1 X98.897 Y85.571 E0.03289
G1 X97.980 Y85.044 E0.03315
G1 X97.334 Y84.444 E0.02767
G1 X96.855 Y83.634 E0.02950
G1 X96.632 Y82.754 E0.02846
G1 X96.626 Y66.054 E0.52363
G1 X91.644 Y66.054 E0.15622
G1 X91.625 Y84.989 E0.59370
G1 X91.457 Y85.677 E0.02220
G1 X91.146 Y86.310 E0.02212
G1 X90.738 Y86.820 E0.02048
G1 X90.146 Y87.350 E0.02492
G1 X89.579 Y87.698 E0.02087
G1 X88.925 Y87.929 E0.02174
G1 X88.019 Y88.012 E0.02854
G1 X86.249 Y87.782 E0.05594
G1 X85.104 Y87.583 E0.03644
G1 X83.967 Y87.330 E0.03653
G1 X82.410 Y86.883 E0.05080
G1 X80.745 Y86.233 E0.05603
G1 X79.765 Y85.780 E0.03386
G1 X78.996 Y85.387 E0.02710
G1 X77.252 Y84.405 E0.06273
G1 X76.344 Y83.827 E0.03376
G1 X75.468 Y83.205 E0.03367
G1 X74.408 Y82.322 E0.04326
G1 X73.705 Y81.614 E0.03127
G1 X73.051 Y80.856 E0.03141
G1 X72.134 Y79.633 E0.04794
G1 X71.233 Y78.308 E0.05023
