;FLAVOR:RepRap
;TIME:4902
;Filament used: 2.38437m
;Layer height: 0.1
;Generated with Cura_SteamEngine 2.4.0
M190 S50
M104 S195
M109 S195
G21 ;metric values
G90 ;absolute positioning
M82 ;set extruder to absolute mode
M107 ;start with the fan off
G28 ;Home all axes (max endstops)

M0 Add PROBE
M106 S255 ;	Turn fan on 100% power, cool the probe
M117 Auto leveling...
G29   ; DAQ -- auto level
M500
G1 x0 y0
M0 Remove PROBE

G1 Z75.0 F9000 ;move the platform down 15mm
G92 E0 ;zero the extruded length
G1 F200 E3 ;extrude 3mm of feed stock
G92 E0 ;zero the extruded length again

G1 Z100 F9000
M0 CLEAN ME...

M106 S191 ;	Turn fan on 50% power

G1 F9000
M117 Printing...
;LAYER_COUNT:66
;LAYER:0
M107
G1 F1500 E-6.5
G1 Z21
G0 F3600 X26.171 Y-54.362 Z1.15
;TYPE:SKIRT
G1 Z0.15
G1 F1500 E0
G1 F1800 X26.168 Y54.439 E2.71405
G1 X26.117 Y55.057 E2.72952
G1 X26.043 Y55.506 E2.74087
G1 X25.87 Y56.173 E2.75806
G1 X25.597 Y56.933 E2.77821
G1 X25.28 Y57.602 E2.79667
G1 X25.021 Y58.034 E2.80924
G1 X24.574 Y58.636 E2.82794
G1 X24.065 Y59.196 E2.84682
G1 X23.666 Y59.576 E2.86056
G1 X23.21 Y59.897 E2.87447
G1 X22.381 Y60.395 E2.8986
G1 X21.889 Y60.644 E2.91235
G1 X21.121 Y60.874 E2.93235
G1 X20.14 Y61.057 E2.95724
G1 X19.443 Y61.121 E2.9747
G1 X-19.539 Y61.12 E3.94711
G1 X-20.237 Y61.055 E3.9646
G1 X-21.034 Y60.906 E3.98483
G1 X-21.567 Y60.766 E3.99857
G1 X-21.964 Y60.604 E4.00927
G1 X-22.508 Y60.346 E4.02429
G1 X-22.988 Y60.075 E4.03804
G1 X-23.376 Y59.778 E4.05023
G1 X-24.106 Y59.142 E4.07438
G1 X-24.494 Y58.751 E4.08812
G1 X-24.879 Y58.214 E4.1046
G1 X-25.407 Y57.323 E4.13044
G1 X-25.653 Y56.83 E4.14418
G1 X-25.78 Y56.471 E4.15368
G1 X-25.956 Y55.88 E4.16906
G1 X-26.078 Y55.317 E4.18343
G1 X-26.135 Y54.906 E4.19378
G1 X-26.171 Y54.384 E4.20684
G1 X-26.168 Y-54.413 E6.92079
G1 X-26.128 Y-54.963 E6.93454
G1 X-26.048 Y-55.359 E6.94462
G1 X-25.783 Y-56.39 E6.97118
G1 X-25.608 Y-56.912 E6.98491
G1 X-25.267 Y-57.549 E7.00293
G1 X-24.607 Y-58.541 E7.03266
G1 X-24.269 Y-58.976 E7.0464
G1 X-23.671 Y-59.514 E7.06646
G1 X-22.863 Y-60.099 E7.09135
G1 X-22.395 Y-60.389 E7.10508
G1 X-22.05 Y-60.548 E7.11456
G1 X-21.711 Y-60.684 E7.12367
G1 X-21.186 Y-60.851 E7.13741
G1 X-20.796 Y-60.924 E7.14731
G1 X-19.696 Y-61.07 E7.17499
G1 X-19.195 Y-61.103 E7.18751
G1 X19.624 Y-61.089 E8.15586
G1 X20.174 Y-61.049 E8.16961
G1 X20.595 Y-60.963 E8.18033
G1 X21.604 Y-60.696 E8.20637
G1 X22.125 Y-60.516 E8.22012
G1 X22.838 Y-60.116 E8.24051
G1 X23.625 Y-59.555 E8.26462
G1 X24.049 Y-59.204 E8.27835
G1 X24.423 Y-58.788 E8.29231
G1 X24.908 Y-58.162 E8.31206
G1 X25.213 Y-57.703 E8.32581
G1 X25.451 Y-57.199 E8.33971
G1 X25.862 Y-56.13 E8.36828
G1 X26.022 Y-55.602 E8.38204
G1 X26.079 Y-55.288 E8.39
G1 X26.135 Y-54.884 E8.40018
G1 X26.171 Y-54.362 E8.41323
G0 F3600 X25.771 Y-54.362
G1 F1800 X25.768 Y54.439 E11.12728
G1 X25.723 Y54.992 E11.14112
G1 X25.649 Y55.441 E11.15247
G1 X25.494 Y56.037 E11.16784
G1 X25.221 Y56.797 E11.18798
G1 X24.937 Y57.396 E11.20452
G1 X24.678 Y57.828 E11.21708
G1 X24.278 Y58.367 E11.23382
G1 X23.769 Y58.927 E11.2527
G1 X23.39 Y59.285 E11.26571
G1 X23.004 Y59.555 E11.27746
G1 X22.175 Y60.053 E11.30158
G1 X21.709 Y60.286 E11.31458
G1 X21.047 Y60.48 E11.33179
G1 X20.066 Y60.663 E11.35668
G1 X19.443 Y60.721 E11.37229
G1 X-19.539 Y60.72 E12.3447
G1 X-20.164 Y60.662 E12.36035
G1 X-20.961 Y60.513 E12.38058
G1 X-21.464 Y60.378 E12.39357
G1 X-21.793 Y60.243 E12.40244
G1 X-22.337 Y59.985 E12.41746
G1 X-22.789 Y59.726 E12.43046
G1 X-23.113 Y59.477 E12.44065
G1 X-23.843 Y58.841 E12.4648
G1 X-24.209 Y58.469 E12.47782
G1 X-24.535 Y58.01 E12.49186
G1 X-25.063 Y57.119 E12.5177
G1 X-25.294 Y56.652 E12.5307
G1 X-25.397 Y56.356 E12.53851
G1 X-25.573 Y55.765 E12.5539
G1 X-25.682 Y55.262 E12.56673
G1 X-25.739 Y54.851 E12.57709
G1 X-25.771 Y54.384 E12.58876
G1 X-25.768 Y-54.413 E15.30271
G1 X-25.728 Y-54.933 E15.31572
G1 X-25.661 Y-55.259 E15.32403
G1 X-25.396 Y-56.29 E15.35058
G1 X-25.228 Y-56.784 E15.3636
G1 X-24.934 Y-57.327 E15.379
G1 X-24.274 Y-58.319 E15.40872
G1 X-23.953 Y-58.73 E15.42173
G1 X-23.437 Y-59.19 E15.43897
G1 X-22.629 Y-59.775 E15.46386
G1 X-22.185 Y-60.047 E15.47685
G1 X-21.901 Y-60.177 E15.48464
G1 X-21.562 Y-60.313 E15.49375
G1 X-21.065 Y-60.469 E15.50674
G1 X-20.743 Y-60.527 E15.51491
G1 X-19.643 Y-60.673 E15.54259
G1 X-19.195 Y-60.703 E15.55379
G1 X19.624 Y-60.689 E16.52213
G1 X20.144 Y-60.649 E16.53514
G1 X20.493 Y-60.576 E16.54403
G1 X21.502 Y-60.309 E16.57007
G1 X21.994 Y-60.137 E16.58307
G1 X22.606 Y-59.791 E16.60061
G1 X23.393 Y-59.23 E16.62472
G1 X23.792 Y-58.895 E16.63771
G1 X24.107 Y-58.543 E16.6495
G1 X24.592 Y-57.917 E16.66925
G1 X24.878 Y-57.482 E16.68224
G1 X25.078 Y-57.055 E16.694
G1 X25.489 Y-55.986 E16.72257
G1 X25.683 Y-55.233 E16.74197
G1 X25.739 Y-54.829 E16.75214
G1 X25.771 Y-54.362 E16.76382
G0 F3600 X25.371 Y-54.362
G1 F1800 X25.368 Y54.439 E19.47787
G1 X25.328 Y54.927 E19.49008
G1 X25.254 Y55.376 E19.50143
G1 X25.117 Y55.902 E19.51499
G1 X24.844 Y56.662 E19.53514
G1 X24.594 Y57.191 E19.54973
G1 X24.335 Y57.623 E19.5623
G1 X23.982 Y58.098 E19.57706
G1 X23.473 Y58.658 E19.59594
G1 X23.115 Y58.992 E19.60815
G1 X22.798 Y59.212 E19.61778
G1 X21.969 Y59.71 E19.6419
G1 X21.53 Y59.927 E19.65412
G1 X20.974 Y60.087 E19.66855
G1 X19.993 Y60.27 E19.69344
G1 X19.443 Y60.321 E19.70722
G1 X-19.539 Y60.32 E20.67963
G1 X-20.09 Y60.269 E20.69343
G1 X-20.887 Y60.12 E20.71366
G1 X-21.36 Y59.991 E20.72589
G1 X-21.622 Y59.882 E20.73297
G1 X-22.166 Y59.624 E20.74799
G1 X-22.589 Y59.378 E20.76019
G1 X-22.851 Y59.175 E20.76846
G1 X-23.581 Y58.539 E20.79261
G1 X-23.922 Y58.188 E20.80482
G1 X-24.191 Y57.806 E20.81647
G1 X-24.719 Y56.915 E20.84231
G1 X-24.933 Y56.475 E20.85452
G1 X-25.013 Y56.242 E20.86066
G1 X-25.189 Y55.651 E20.87604
G1 X-25.286 Y55.207 E20.88738
G1 X-25.343 Y54.796 E20.89773
G1 X-25.371 Y54.384 E20.90803
G1 X-25.368 Y-54.413 E23.62198
G1 X-25.328 Y-54.901 E23.6342
G1 X-25.274 Y-55.16 E23.6408
G1 X-25.009 Y-56.191 E23.66735
G1 X-24.848 Y-56.653 E23.67956
G1 X-24.601 Y-57.106 E23.69243
G1 X-23.941 Y-58.098 E23.72215
G1 X-23.637 Y-58.482 E23.73437
G1 X-23.202 Y-58.866 E23.74884
G1 X-22.394 Y-59.451 E23.77372
G1 X-21.976 Y-59.705 E23.78593
G1 X-21.752 Y-59.805 E23.79204
G1 X-21.413 Y-59.941 E23.80116
G1 X-20.945 Y-60.086 E23.81338
G1 X-20.691 Y-60.131 E23.81981
G1 X-19.591 Y-60.277 E23.84749
G1 X-19.195 Y-60.303 E23.85739
G1 X19.624 Y-60.289 E24.82574
G1 X20.112 Y-60.249 E24.83795
G1 X20.39 Y-60.189 E24.84504
G1 X21.399 Y-59.922 E24.87108
G1 X21.861 Y-59.759 E24.8833
G1 X22.373 Y-59.465 E24.89803
G1 X23.16 Y-58.904 E24.92214
G1 X23.534 Y-58.588 E24.93435
G1 X23.791 Y-58.298 E24.94402
G1 X24.276 Y-57.672 E24.96377
G1 X24.543 Y-57.262 E24.97598
G1 X24.704 Y-56.912 E24.98559
G1 X25.115 Y-55.843 E25.01416
G1 X25.287 Y-55.178 E25.03129
G1 X25.343 Y-54.774 E25.04146
G1 X25.371 Y-54.362 E25.05177
G0 F3600 X24.971 Y-54.362
G1 F1800 X24.968 Y54.439 E27.76582
G1 X24.933 Y54.862 E27.77641
G1 X24.859 Y55.311 E27.78776
G1 X24.741 Y55.767 E27.79951
G1 X24.468 Y56.527 E27.81965
G1 X24.251 Y56.985 E27.83229
G1 X23.992 Y57.417 E27.84486
G1 X23.686 Y57.829 E27.85766
G1 X23.177 Y58.389 E27.87654
G1 X22.842 Y58.698 E27.88791
G1 X22.592 Y58.869 E27.89546
G1 X21.763 Y59.367 E27.91959
G1 X21.353 Y59.566 E27.93095
G1 X20.901 Y59.694 E27.94267
G1 X19.92 Y59.877 E27.96757
G1 X19.443 Y59.921 E27.97952
G1 X-19.539 Y59.92 E28.95193
G1 X-20.017 Y59.876 E28.9639
G1 X-20.814 Y59.727 E28.98413
G1 X-21.45 Y59.52 E29.00081
G1 X-21.994 Y59.262 E29.01583
G1 X-22.387 Y59.032 E29.02719
G1 X-22.588 Y58.873 E29.03358
G1 X-23.318 Y58.237 E29.05773
G1 X-23.634 Y57.909 E29.06909
G1 X-23.847 Y57.602 E29.07841
G1 X-24.375 Y56.711 E29.10425
G1 X-24.63 Y56.128 E29.12012
G1 X-24.806 Y55.537 E29.13551
G1 X-24.889 Y55.152 E29.14533
G1 X-24.946 Y54.741 E29.15568
G1 X-24.971 Y54.384 E29.16461
G1 X-24.968 Y-54.413 E31.87856
G1 X-24.886 Y-55.06 E31.89483
G1 X-24.621 Y-56.091 E31.92138
G1 X-24.469 Y-56.521 E31.93276
G1 X-24.268 Y-56.884 E31.94311
G1 X-23.608 Y-57.876 E31.97283
G1 X-23.323 Y-58.232 E31.98421
G1 X-22.968 Y-58.542 E31.99596
G1 X-22.16 Y-59.127 E32.02085
G1 X-21.603 Y-59.434 E32.03671
G1 X-21.264 Y-59.57 E32.04582
G1 X-20.638 Y-59.734 E32.06197
G1 X-19.538 Y-59.88 E32.08965
G1 X-19.195 Y-59.903 E32.09822
G1 X19.624 Y-59.889 E33.06657
G1 X20.288 Y-59.802 E33.08327
G1 X21.297 Y-59.535 E33.10931
G1 X21.726 Y-59.381 E33.12068
G1 X22.141 Y-59.139 E33.13266
G1 X22.928 Y-58.578 E33.15677
G1 X23.275 Y-58.282 E33.16815
G1 X23.474 Y-58.053 E33.17572
G1 X23.959 Y-57.427 E33.19547
G1 X24.206 Y-57.044 E33.20684
G1 X24.331 Y-56.768 E33.2144
G1 X24.742 Y-55.699 E33.24297
G1 X24.89 Y-55.123 E33.2578
G1 X24.946 Y-54.719 E33.26798
G1 X24.971 Y-54.362 E33.2769
G0 F3600 X24.571 Y-54.362
G1 F1800 X24.568 Y54.439 E35.99095
G1 X24.539 Y54.797 E35.99991
G1 X24.465 Y55.246 E36.01127
G1 X24.364 Y55.632 E36.02122
G1 X24.091 Y56.392 E36.04136
G1 X23.908 Y56.779 E36.05204
G1 X23.649 Y57.211 E36.06461
G1 X23.39 Y57.56 E36.07545
G1 X22.881 Y58.12 E36.09432
G1 X22.571 Y58.402 E36.10478
G1 X22.386 Y58.526 E36.11033
G1 X21.557 Y59.024 E36.13446
G1 X21.179 Y59.204 E36.1449
G1 X20.827 Y59.301 E36.15401
G1 X19.846 Y59.484 E36.1789
G1 X19.443 Y59.521 E36.189
G1 X-19.539 Y59.52 E37.16141
G1 X-19.943 Y59.483 E37.17153
G1 X-20.74 Y59.334 E37.19175
G1 X-21.279 Y59.159 E37.20589
G1 X-21.823 Y58.901 E37.22091
G1 X-22.325 Y58.572 E37.23588
G1 X-23.055 Y57.936 E37.26003
G1 X-23.343 Y57.632 E37.27048
G1 X-23.503 Y57.399 E37.27753
G1 X-24.031 Y56.508 E37.30337
G1 X-24.246 Y56.014 E37.3168
G1 X-24.422 Y55.423 E37.33219
G1 X-24.493 Y55.097 E37.34051
G1 X-24.55 Y54.686 E37.35086
G1 X-24.571 Y54.384 E37.35841
G1 X-24.568 Y-54.413 E40.07236
G1 X-24.499 Y-54.961 E40.08614
G1 X-24.234 Y-55.992 E40.1127
G1 X-24.091 Y-56.386 E40.12315
G1 X-23.935 Y-56.663 E40.13108
G1 X-23.275 Y-57.655 E40.1608
G1 X-23.01 Y-57.98 E40.17126
G1 X-22.733 Y-58.218 E40.18037
G1 X-21.925 Y-58.803 E40.20526
G1 X-21.454 Y-59.063 E40.21868
G1 X-21.115 Y-59.199 E40.22779
G1 X-20.585 Y-59.338 E40.24146
G1 X-19.485 Y-59.484 E40.26914
G1 X-19.195 Y-59.503 E40.27639
G1 X19.624 Y-59.489 E41.24473
G1 X20.186 Y-59.416 E41.25887
G1 X21.195 Y-59.149 E41.28491
G1 X21.588 Y-59.004 E41.29535
G1 X21.909 Y-58.813 E41.30467
G1 X22.696 Y-58.252 E41.32878
G1 X23.013 Y-57.978 E41.33923
G1 X23.158 Y-57.808 E41.34481
G1 X23.643 Y-57.182 E41.36456
G1 X23.867 Y-56.828 E41.37501
G1 X23.957 Y-56.624 E41.38057
G1 X24.368 Y-55.555 E41.40914
G1 X24.494 Y-55.068 E41.42169
G1 X24.55 Y-54.664 E41.43186
G1 X24.571 Y-54.362 E41.43942
G1 F1500 E34.93942
G1 Z1.15
G0 F3600 X21.794 Y-54.046 Z1.15
;TYPE:WALL-INNER
G1 Z0.15
G1 F1500 E41.43942
G1 F1800 X21.794 Y54.065 E44.13626
G1 X21.786 Y54.304 E44.14222
G1 X21.761 Y54.53 E44.14789
G1 X21.721 Y54.743 E44.1533
G1 X21.668 Y54.941 E44.15841
G1 X21.585 Y55.175 E44.16461
G1 X21.498 Y55.371 E44.16996
G1 X21.402 Y55.55 E44.17502
G1 X21.276 Y55.746 E44.18083
G1 X21.151 Y55.906 E44.1859
G1 X21.018 Y56.054 E44.19086
G1 X20.875 Y56.187 E44.19573
G1 X20.708 Y56.319 E44.20104
G1 X20.551 Y56.422 E44.20573
G1 X20.376 Y56.515 E44.21067
G1 X20.199 Y56.592 E44.21549
G1 X20.015 Y56.653 E44.22032
G1 X19.824 Y56.698 E44.22522
G1 X19.662 Y56.719 E44.22929
G1 X19.432 Y56.73 E44.23504
G1 X-19.432 Y56.731 E45.2045
G1 X-19.663 Y56.72 E45.21027
G1 X-19.829 Y56.698 E45.21445
G1 X-20.017 Y56.654 E45.21927
G1 X-20.2 Y56.594 E45.22407
G1 X-20.378 Y56.517 E45.22891
G1 X-20.545 Y56.427 E45.23364
G1 X-20.718 Y56.313 E45.23881
G1 X-20.87 Y56.192 E45.24365
G1 X-21.013 Y56.058 E45.24854
G1 X-21.163 Y55.892 E45.25412
G1 X-21.28 Y55.739 E45.25893
G1 X-21.407 Y55.543 E45.26475
G1 X-21.498 Y55.371 E45.26961
G1 X-21.59 Y55.163 E45.27528
G1 X-21.664 Y54.955 E45.28079
G1 X-21.72 Y54.745 E45.28621
G1 X-21.76 Y54.535 E45.29154
G1 X-21.786 Y54.302 E45.29739
G1 X-21.794 Y54.072 E45.30313
G1 X-21.794 Y-54.039 E47.99997
G1 X-21.786 Y-54.278 E48.00594
G1 X-21.761 Y-54.501 E48.01153
G1 X-21.72 Y-54.72 E48.01709
G1 X-21.657 Y-54.948 E48.02299
G1 X-21.587 Y-55.145 E48.02821
G1 X-21.495 Y-55.351 E48.03384
G1 X-21.398 Y-55.531 E48.03894
G1 X-21.279 Y-55.714 E48.04438
G1 X-21.151 Y-55.88 E48.04961
G1 X-21.013 Y-56.033 E48.05475
G1 X-20.877 Y-56.159 E48.05938
G1 X-20.704 Y-56.296 E48.06488
G1 X-20.551 Y-56.396 E48.06944
G1 X-20.376 Y-56.489 E48.07438
G1 X-20.199 Y-56.566 E48.0792
G1 X-20.015 Y-56.627 E48.08403
G1 X-19.824 Y-56.672 E48.08893
G1 X-19.662 Y-56.693 E48.093
G1 X-19.432 Y-56.704 E48.09875
G1 X19.432 Y-56.705 E49.06821
G1 X19.663 Y-56.694 E49.07398
G1 X19.829 Y-56.672 E49.07816
G1 X20.017 Y-56.628 E49.08298
G1 X20.2 Y-56.568 E49.08778
G1 X20.378 Y-56.491 E49.09262
G1 X20.545 Y-56.401 E49.09735
G1 X20.711 Y-56.292 E49.1023
G1 X20.872 Y-56.164 E49.10744
G1 X21.014 Y-56.031 E49.11229
G1 X21.161 Y-55.868 E49.11776
G1 X21.284 Y-55.709 E49.12278
G1 X21.392 Y-55.542 E49.12774
G1 X21.502 Y-55.338 E49.13352
G1 X21.584 Y-55.156 E49.1385
G1 X21.668 Y-54.916 E49.14484
G1 X21.718 Y-54.73 E49.14965
G1 X21.76 Y-54.509 E49.15526
G1 X21.785 Y-54.292 E49.16071
G1 X21.794 Y-54.046 E49.16685
G0 F3600 X21.695 Y-54.045
G0 X18.775 Y-50.656
G0 X18.705 Y-50.586
G1 F1800 X16.505 Y-50.586 E49.22173
G1 X16.505 Y50.613 E51.74615
G1 X18.705 Y50.613 E51.80103
G1 X18.705 Y-50.586 E54.32545
G0 F3600 X18.775 Y-50.656
G0 X13.17 Y-50.756
G0 X13.1 Y-50.686
G1 F1800 X-13.099 Y-50.686 E54.97898
G1 X-13.099 Y22.513 E56.80494
G1 X13.1 Y22.513 E57.45848
G1 X13.1 Y-50.686 E59.28443
G0 F3600 X13.17 Y-50.756
G0 X-13.127 Y-50.714
G0 X-16.224 Y-50.656
G0 X-16.294 Y-50.586
G1 F1800 X-18.494 Y-50.586 E59.33931
G1 X-18.494 Y50.613 E61.86373
G1 X-16.294 Y50.613 E61.91861
G1 X-16.294 Y-50.586 E64.44303
G0 F3600 X-16.224 Y-50.656
G0 X-13.127 Y22.541
G0 X-9.718 Y27.73
G0 X-9.714 Y27.829
G1 F1800 X-10.014 Y27.856 E64.45054
G1 X-10.31 Y27.91 E64.45805
G1 X-10.6 Y27.99 E64.46555
G1 X-10.882 Y28.096 E64.47307
G1 X-11.152 Y28.226 E64.48054
G1 X-11.41 Y28.38 E64.48804
G1 X-11.653 Y28.557 E64.49554
G1 X-11.878 Y28.754 E64.503
G1 X-12.087 Y28.971 E64.51051
G1 X-12.275 Y29.207 E64.51804
G1 X-12.441 Y29.459 E64.52557
G1 X-12.582 Y29.723 E64.53303
G1 X-12.7 Y29.997 E64.54047
G1 X-12.794 Y30.284 E64.54801
G1 X-12.861 Y30.578 E64.55553
G1 X-12.901 Y30.876 E64.56303
G1 X-12.914 Y31.176 E64.57052
G1 X-12.901 Y31.477 E64.57804
G1 X-12.861 Y31.774 E64.58551
G1 X-12.794 Y32.069 E64.59306
G1 X-12.699 Y32.356 E64.6006
G1 X-12.582 Y32.629 E64.60801
G1 X-12.441 Y32.893 E64.61547
G1 X-12.275 Y33.146 E64.62302
G1 X-12.087 Y33.382 E64.63055
G1 X-11.878 Y33.599 E64.63807
G1 X-11.653 Y33.796 E64.64553
G1 X-11.411 Y33.972 E64.65299
G1 X-11.152 Y34.127 E64.66052
G1 X-10.882 Y34.257 E64.66799
G1 X-10.599 Y34.363 E64.67553
G1 X-10.308 Y34.442 E64.68305
G1 X-10.015 Y34.496 E64.69049
G1 X-9.715 Y34.524 E64.698
G1 X-9.412 Y34.524 E64.70556
G1 X-9.113 Y34.496 E64.71305
G1 X-8.82 Y34.442 E64.72048
G1 X-8.529 Y34.363 E64.72801
G1 X-8.246 Y34.257 E64.73554
G1 X-7.976 Y34.126 E64.74303
G1 X-7.719 Y33.972 E64.7505
G1 X-7.475 Y33.796 E64.75801
G1 X-7.248 Y33.598 E64.76552
G1 X-7.041 Y33.382 E64.77299
G1 X-6.853 Y33.146 E64.78051
G1 X-6.687 Y32.895 E64.78802
G1 X-6.545 Y32.629 E64.79554
G1 X-6.427 Y32.354 E64.80301
G1 X-6.334 Y32.068 E64.81051
G1 X-6.267 Y31.774 E64.81803
G1 X-6.227 Y31.477 E64.8255
G1 X-6.214 Y31.176 E64.83302
G1 X-6.227 Y30.876 E64.84051
G1 X-6.267 Y30.578 E64.84801
G1 X-6.334 Y30.285 E64.85551
G1 X-6.427 Y29.999 E64.86301
G1 X-6.545 Y29.723 E64.8705
G1 X-6.687 Y29.458 E64.878
G1 X-6.853 Y29.207 E64.8855
G1 X-7.041 Y28.971 E64.89303
G1 X-7.248 Y28.755 E64.90049
G1 X-7.474 Y28.556 E64.90801
G1 X-7.719 Y28.379 E64.91555
G1 X-7.976 Y28.226 E64.92301
G1 X-8.246 Y28.096 E64.93048
G1 X-8.528 Y27.99 E64.938
G1 X-8.818 Y27.91 E64.9455
G1 X-9.114 Y27.856 E64.95301
G1 X-9.413 Y27.829 E64.9605
G1 X-9.714 Y27.829 E64.968
G0 F3600 X-9.718 Y27.73
G0 X-10.897 Y28.06
G0 X-11.677 Y28.526
G0 X-12.307 Y29.184
G0 X-12.737 Y29.983
G0 X-12.94 Y30.873
G0 X-12.87 Y39.796
G0 X-12.8 Y39.866
G1 F1800 X-12.8 Y51.566 E65.25986
G1 X-6.1 Y51.566 E65.42699
G1 X-6.1 Y39.866 E65.71885
G1 X-12.8 Y39.866 E65.88598
G0 F3600 X-12.87 Y39.796
G0 X-6.072 Y39.838
G0 X5.252 Y45.278
