;FLAVOR:RepRap
;TIME:8375
;Filament used: 4.03847m
;Layer height: 0.1
;Generated with Cura_SteamEngine 2.5.0
G21 ; set units to millimeters
G90 ; use absolute positioning
M82 ; absolute extrusion mode
G28 W ; home all without mesh bed level
G80 ; mesh bed leveling
M104 S230 ; set extruder temp
M140 S100 ; set bed temp
M190 S100 ; wait for bed temp
M109 S230 ; wait for extruder temp
G92 E0.0 ; reset extruder distance position
G1 Y-3.0 F1000.0 ; go outside print area
G1 X60.0 E9.0 F1000.0 ; intro line
G1 X100.0 E21.5 F1000.0 ; intro line
G92 E0.0 ; reset extruder distance position
;LAYER_COUNT:19
;LAYER:0
M107
G0 F3600 X98.259 Y49.656 Z0.15
G0 X98.489 Y49.312
;TYPE:SKIRT
G1 F1800 X99.042 Y48.581 E0.02286
G1 X99.396 Y48.179 E0.03623
G1 X99.701 Y47.913 E0.04632
G1 X100.587 Y47.223 E0.07433
G1 X101.034 Y46.926 E0.08772
G1 X101.49 Y46.709 E0.10032
G1 X102.502 Y46.314 E0.12742
G1 X103.015 Y46.157 E0.1408
G1 X103.513 Y46.08 E0.15337
G1 X104.787 Y45.974 E0.18526
G1 X105.086 Y45.962 E0.19273
G1 X145.525 Y45.972 E1.20148
G1 X146.025 Y46.007 E1.21398
G1 X146.815 Y46.118 E1.23388
G1 X147.56 Y46.306 E1.25305
G1 X148.327 Y46.589 E1.27344
G1 X148.815 Y46.811 E1.28682
G1 X149.172 Y47.036 E1.29735
G1 X150.16 Y47.741 E1.32762
G1 X150.572 Y48.084 E1.34099
G1 X150.907 Y48.455 E1.35346
G1 X151.541 Y49.267 E1.37916
G1 X151.838 Y49.714 E1.39255
G1 X152.024 Y50.093 E1.40308
G1 X152.447 Y51.104 E1.43042
G1 X152.617 Y51.613 E1.44381
G1 X152.712 Y52.174 E1.458
G1 X152.857 Y53.799 E1.4987
G1 X152.871 Y54.119 E1.50669
G1 X152.864 Y156.702 E4.06563
G1 X152.796 Y157.397 E4.08305
G1 X152.546 Y158.667 E4.11534
G1 X152.404 Y159.184 E4.12871
G1 X152.184 Y159.678 E4.1422
G1 X151.66 Y160.652 E4.16979
G1 X151.372 Y161.104 E4.18316
G1 X151.067 Y161.46 E4.19485
G1 X150.276 Y162.271 E4.22311
G1 X149.874 Y162.626 E4.23649
G1 X149.482 Y162.884 E4.2482
G1 X148.593 Y163.391 E4.27373
G1 X148.109 Y163.621 E4.28709
G1 X147.832 Y163.716 E4.2944
G1 X147.116 Y163.928 E4.31303
G1 X146.592 Y164.041 E4.3264
G1 X146.101 Y164.076 E4.33868
G1 X105.29 Y164.15 E5.35671
G1 X105.081 Y164.144 E5.36193
G1 X103.782 Y164.071 E5.39438
G1 X103.25 Y164.001 E5.40777
G1 X102.758 Y163.862 E5.42052
G1 X101.59 Y163.439 E5.45151
G1 X101.101 Y163.219 E5.46489
G1 X100.709 Y162.973 E5.47643
G1 X99.976 Y162.444 E5.49898
G1 X99.566 Y162.099 E5.51235
G1 X99.277 Y161.78 E5.52308
G1 X98.557 Y160.884 E5.55176
G1 X98.253 Y160.442 E5.56514
G1 X98.038 Y160.009 E5.5772
G1 X97.6 Y158.954 E5.60569
G1 X97.401 Y158.309 E5.62253
G1 X97.322 Y157.93 E5.63219
G1 X97.246 Y157.197 E5.65057
G1 X97.19 Y54.119 E8.22186
G1 X97.201 Y53.835 E8.22895
G1 X97.32 Y52.32 E8.26686
G1 X97.402 Y51.79 E8.28024
G1 X97.57 Y51.255 E8.29423
G1 X98.021 Y50.137 E8.3243
G1 X98.259 Y49.656 E8.33769
G1 X98.489 Y49.312 E8.34801
G0 F3600 X98.808 Y49.553
G1 F1800 X99.361 Y48.822 E8.37087
G1 X99.697 Y48.445 E8.38347
G1 X99.947 Y48.228 E8.39173
G1 X100.833 Y47.538 E8.41974
G1 X101.255 Y47.26 E8.43235
G1 X101.635 Y47.082 E8.44282
G1 X102.647 Y46.687 E8.46991
G1 X103.131 Y46.541 E8.48253
G1 X103.546 Y46.479 E8.49299
G1 X104.82 Y46.373 E8.52488
G1 X105.086 Y46.362 E8.53152
G1 X145.525 Y46.372 E9.54028
G1 X145.969 Y46.403 E9.55138
G1 X146.759 Y46.514 E9.57128
G1 X147.422 Y46.681 E9.58834
G1 X148.189 Y46.964 E9.60873
G1 X148.648 Y47.176 E9.62134
G1 X148.94 Y47.361 E9.62996
G1 X149.928 Y48.066 E9.66024
G1 X150.315 Y48.391 E9.67285
G1 X150.591 Y48.702 E9.68322
G1 X151.225 Y49.514 E9.70892
G1 X151.504 Y49.935 E9.72152
G1 X151.655 Y50.248 E9.73019
G1 X152.078 Y51.259 E9.75752
G1 X152.236 Y51.739 E9.77013
G1 X152.313 Y52.21 E9.78204
G1 X152.458 Y53.835 E9.82273
G1 X152.471 Y54.119 E9.82982
G1 X152.464 Y156.702 E12.38877
G1 X152.404 Y157.32 E12.40426
G1 X152.154 Y158.59 E12.43654
G1 X152.017 Y159.077 E12.44916
G1 X151.832 Y159.488 E12.46041
G1 X151.308 Y160.462 E12.488
G1 X151.034 Y160.887 E12.50061
G1 X150.781 Y161.18 E12.51027
G1 X149.99 Y161.991 E12.53853
G1 X149.609 Y162.324 E12.55115
G1 X149.284 Y162.537 E12.56084
G1 X148.395 Y163.044 E12.58637
G1 X147.718 Y163.332 E12.60472
G1 X147.002 Y163.544 E12.62335
G1 X146.508 Y163.649 E12.63595
G1 X146.1 Y163.676 E12.64615
G1 X105.289 Y163.75 E13.66419
G1 X105.103 Y163.745 E13.66883
G1 X103.804 Y163.672 E13.70128
G1 X103.303 Y163.604 E13.71389
G1 X102.894 Y163.486 E13.72451
G1 X101.726 Y163.063 E13.7555
G1 X101.266 Y162.854 E13.7681
G1 X100.943 Y162.649 E13.77765
G1 X100.21 Y162.12 E13.8002
G1 X99.825 Y161.793 E13.8128
G1 X99.589 Y161.529 E13.82163
G1 X98.869 Y160.633 E13.8503
G1 X98.584 Y160.216 E13.8629
G1 X98.408 Y159.856 E13.8729
G1 X97.97 Y158.801 E13.90139
G1 X97.792 Y158.227 E13.91638
G1 X97.713 Y157.848 E13.92604
G1 X97.646 Y157.197 E13.94237
G1 X97.59 Y54.119 E16.51366
G1 X97.6 Y53.866 E16.51997
G1 X97.719 Y52.351 E16.55788
G1 X97.798 Y51.852 E16.57049
G1 X97.941 Y51.405 E16.58219
G1 X98.392 Y50.287 E16.61226
G1 X98.618 Y49.834 E16.62489
G1 X98.808 Y49.553 E16.63335
G1 F2100 E15.83335
G0 F3600 X100.055 Y50.415
G0 X101.933 Y51.713
G0 X102.001 Y51.756
G0 X101.917 Y51.703
;TYPE:WALL-INNER
G1 F2100 E16.63335
G1 F1800 X102.088 Y51.457 E16.64083
G1 X102.261 Y51.245 E16.64765
G1 X102.463 Y51.038 E16.65487
G1 X102.659 Y50.868 E16.66134
G1 X102.846 Y50.729 E16.66715
G1 X103.071 Y50.588 E16.67378
G1 X103.3 Y50.467 E16.68024
G1 X103.416 Y50.416 E16.6834
G1 X103.643 Y50.33 E16.68945
G1 X103.877 Y50.26 E16.69555
G1 X104.103 Y50.21 E16.70132
G1 X104.33 Y50.178 E16.70704
G1 X104.542 Y50.162 E16.71234
G1 X145.51 Y50.162 E17.73429
G1 X145.724 Y50.177 E17.73964
G1 X145.943 Y50.208 E17.74516
G1 X146.176 Y50.258 E17.75111
G1 X146.418 Y50.329 E17.7574
G1 X146.61 Y50.4 E17.7625
G1 X146.85 Y50.511 E17.7691
G1 X147.053 Y50.624 E17.7749
G1 X147.273 Y50.77 E17.78148
G1 X147.471 Y50.925 E17.78775
G1 X147.663 Y51.1 E17.79423
G1 X147.845 Y51.296 E17.80091
G1 X147.999 Y51.487 E17.80703
G1 X148.15 Y51.71 E17.81375
G1 X148.287 Y51.953 E17.8207
G1 X148.395 Y52.18 E17.82697
G1 X148.481 Y52.403 E17.83294
G1 X148.557 Y52.65 E17.83938
G1 X148.61 Y52.884 E17.84537
G1 X148.651 Y53.14 E17.85184
G1 X148.67 Y53.356 E17.85724
G1 X148.675 Y60.63 E18.0387
G1 X148.674 Y156.685 E20.4348
G1 X148.655 Y156.93 E20.44093
G1 X148.617 Y157.193 E20.44756
G1 X148.558 Y157.454 E20.45423
G1 X148.467 Y157.743 E20.46179
G1 X148.37 Y157.985 E20.46829
G1 X148.242 Y158.243 E20.47548
G1 X148.087 Y158.495 E20.48286
G1 X147.924 Y158.719 E20.48977
G1 X147.731 Y158.941 E20.49711
G1 X147.526 Y159.138 E20.5042
G1 X147.298 Y159.322 E20.51151
G1 X147.075 Y159.472 E20.51821
G1 X146.818 Y159.614 E20.52553
G1 X146.575 Y159.723 E20.53218
G1 X146.327 Y159.81 E20.53873
G1 X146.069 Y159.877 E20.54538
G1 X145.81 Y159.923 E20.55195
G1 X145.58 Y159.944 E20.55771
G1 X134.675 Y159.95 E20.82973
G1 X104.602 Y159.95 E21.57991
G1 X104.339 Y159.932 E21.58648
G1 X104.091 Y159.897 E21.59273
G1 X103.844 Y159.842 E21.59904
G1 X103.595 Y159.763 E21.60556
G1 X103.342 Y159.66 E21.61237
G1 X103.084 Y159.528 E21.6196
G1 X102.855 Y159.385 E21.62634
G1 X102.618 Y159.208 E21.63372
G1 X102.526 Y159.13 E21.63672
G1 X102.311 Y158.917 E21.64427
G1 X102.123 Y158.699 E21.65146
G1 X101.963 Y158.476 E21.6583
G1 X101.808 Y158.217 E21.66583
G1 X101.682 Y157.96 E21.67297
G1 X101.578 Y157.696 E21.68005
G1 X101.5 Y157.436 E21.68682
G1 X101.443 Y157.182 E21.69331
G1 X101.406 Y156.917 E21.69999
G1 X101.388 Y156.648 E21.70671
G1 X101.39 Y53.422 E24.2817
G1 X101.399 Y53.258 E24.28579
G1 X101.431 Y52.997 E24.29235
G1 X101.485 Y52.727 E24.29922
G1 X101.558 Y52.468 E24.30593
G1 X101.652 Y52.216 E24.31264
G1 X101.784 Y51.932 E24.32046
G1 X101.917 Y51.703 E24.32706
G0 F3600 X102.001 Y51.756
G0 X119.919 Y79.402
G0 X119.985 Y79.476
G1 F1800 X119.985 Y79.699 E24.33262
G1 X119.985 Y79.7 E24.33265
G1 X119.985 Y81.437 E24.37598
G1 X121.21 Y81.587 E24.40677
G1 X122.661 Y81.744 E24.44317
G1 X123.442 Y81.815 E24.46273
G1 X124.168 Y81.868 E24.48089
G1 X124.969 Y81.904 E24.50089
G1 X125.586 Y81.906 E24.51629
G1 X125.824 Y81.897 E24.52223
G1 X126.189 Y81.867 E24.53136
G1 X126.505 Y81.82 E24.53933
G1 X126.671 Y81.784 E24.54357
G1 X126.934 Y81.706 E24.55041
G1 X127.214 Y81.587 E24.558
G1 X127.461 Y81.432 E24.56527
G1 X127.604 Y81.315 E24.56988
G1 X127.729 Y81.188 E24.57433
G1 X127.907 Y80.952 E24.5817
G1 X127.997 Y80.784 E24.58646
G1 X128.085 Y80.551 E24.59267
G1 X128.132 Y80.343 E24.59799
G1 X128.15 Y80.207 E24.60141
G1 X128.156 Y79.995 E24.6067
G1 X128.141 Y79.787 E24.6119
G1 X128.09 Y79.52 E24.61868
G1 X128.168 Y79.478 E24.62089
G1 X128.35 Y79.396 E24.62587
G1 X128.569 Y79.317 E24.63168
G1 X128.955 Y79.207 E24.64169
G1 X129.232 Y79.146 E24.64877
G1 X129.556 Y79.09 E24.65697
G1 X130.095 Y79.023 E24.67052
G1 X130.48 Y78.995 E24.68015
G1 X130.881 Y78.98 E24.69016
G1 X131.253 Y78.979 E24.69944
G1 X131.716 Y78.997 E24.711
G1 X132.102 Y79.022 E24.72065
G1 X132.531 Y79.068 E24.73141
G1 X132.946 Y79.127 E24.74187
G1 X133.374 Y79.204 E24.75271
G1 X133.774 Y79.292 E24.76293
G1 X134.191 Y79.402 E24.77369
G1 X134.565 Y79.517 E24.78345
G1 X134.947 Y79.654 E24.79357
G1 X135.299 Y79.797 E24.80305
G1 X135.682 Y79.978 E24.81362
G1 X136.034 Y80.169 E24.82361
G1 X136.36 Y80.374 E24.83321
G1 X136.687 Y80.612 E24.8433
G1 X136.989 Y80.867 E24.85316
G1 X137.107 Y80.98 E24.85724
G1 X137.379 Y81.276 E24.86726
G1 X137.473 Y81.396 E24.87107
G1 X137.687 Y81.713 E24.88061
G1 X137.777 Y81.873 E24.88519
G1 X137.846 Y82.018 E24.88919
G1 X137.919 Y82.195 E24.89397
G1 X137.97 Y82.344 E24.8979
G1 X138.013 Y82.511 E24.9022
G1 X138.053 Y82.719 E24.90748
G1 X138.07 Y82.874 E24.91137
G1 X138.076 Y83.049 E24.91574
G1 X138.056 Y83.367 E24.92369
G1 X137.984 Y83.71 E24.93243
G1 X137.935 Y83.866 E24.93651
G1 X137.864 Y84.044 E24.94129
G1 X137.79 Y84.203 E24.94567
G1 X137.706 Y84.359 E24.95009
G1 X137.616 Y84.506 E24.95438
G1 X137.394 Y84.807 E24.96371
G1 X137.254 Y84.969 E24.96906
G1 X136.979 Y85.243 E24.97874
G1 X136.628 Y85.534 E24.99011
G1 X136.229 Y85.809 E25.0022
G1 X135.805 Y86.053 E25.0144
G1 X135.355 Y86.268 E25.02684
G1 X135.112 Y86.372 E25.03344
G1 X134.595 Y86.562 E25.04718
G1 X134.041 Y86.725 E25.06158
G1 X133.533 Y86.845 E25.0746
G1 X132.941 Y86.952 E25.08961
G1 X132.36 Y87.028 E25.10423
G1 X131.803 Y87.07 E25.11816
G1 X131.278 Y87.085 E25.13126
G1 X130.743 Y87.078 E25.14461
G1 X130.212 Y87.042 E25.15789
G1 X129.721 Y86.986 E25.17021
G1 X129.332 Y86.92 E25.18006
G1 X128.913 Y86.825 E25.19077
G1 X128.586 Y86.725 E25.1993
G1 X128.434 Y86.669 E25.20334
G1 X128.194 Y86.564 E25.20988
G1 X128.086 Y86.501 E25.213
G1 X128.117 Y86.328 E25.21738
G1 X128.138 Y86.139 E25.22213
G1 X128.141 Y85.929 E25.22736
G1 X128.121 Y85.703 E25.23302
G1 X128.065 Y85.47 E25.239
G1 X127.972 Y85.237 E25.24526
G1 X127.855 Y85.033 E25.25113
G1 X127.706 Y84.841 E25.25719
G1 X127.503 Y84.652 E25.26411
G1 X127.245 Y84.483 E25.2718
G1 X127.077 Y84.402 E25.27645
G1 X126.908 Y84.336 E25.28098
G1 X126.73 Y84.282 E25.28562
G1 X126.539 Y84.237 E25.29051
G1 X126.156 Y84.183 E25.30016
G1 X125.811 Y84.158 E25.30879
G1 X125.266 Y84.153 E25.32239
G1 X124.555 Y84.177 E25.34013
G1 X123.86 Y84.227 E25.35751
G1 X122.758 Y84.332 E25.38513
G1 X121.714 Y84.453 E25.41135
G1 X119.987 Y84.676 E25.45478
G1 X119.987 Y86.415 E25.49816
G1 X119.987 Y86.416 E25.49819
G1 X119.987 Y86.642 E25.50383
G1 X120.212 Y86.614 E25.50736
G1 X122.488 Y86.324 E25.56459
G1 X123.121 Y86.256 E25.58048
G1 X124.354 Y86.145 E25.61136
G1 X125.135 Y86.107 E25.63086
G1 X125.676 Y86.105 E25.64436
G1 X126.077 Y86.137 E25.65439
G1 X126.166 Y86.152 E25.65664
G1 X126.13 Y86.344 E25.65899
G1 X126.109 Y86.507 E25.66309
G1 X126.1 Y86.715 E25.66828
G1 X126.121 Y86.934 E25.67377
G1 X126.175 Y87.152 E25.67937
G1 X126.261 Y87.356 E25.68489
G1 X126.378 Y87.553 E25.69061
G1 X126.586 Y87.8 E25.69866
G1 X126.784 Y87.972 E25.70521
G1 X127.004 Y88.128 E25.71193
G1 X127.35 Y88.323 E25.72184
G1 X127.605 Y88.438 E25.72882
G1 X127.883 Y88.545 E25.73625
G1 X128.168 Y88.639 E25.74373
G1 X128.468 Y88.723 E25.75151
G1 X128.785 Y88.799 E25.75964
G1 X129.115 Y88.863 E25.76802
G1 X129.457 Y88.918 E25.77666
G1 X129.789 Y88.961 E25.78501
G1 X130.153 Y88.995 E25.79413
G1 X130.526 Y89.021 E25.80346
G1 X130.914 Y89.034 E25.81315
G1 X131.698 Y89.028 E25.8327
G1 X132.498 Y88.973 E25.85271
G1 X132.907 Y88.927 E25.86297
G1 X133.311 Y88.869 E25.87315
G1 X133.715 Y88.798 E25.88339
G1 X134.115 Y88.714 E25.89358
G1 X134.514 Y88.618 E25.90382
G1 X134.907 Y88.507 E25.91401
G1 X135.273 Y88.391 E25.92358
G1 X135.654 Y88.254 E25.93368
G1 X136.032 Y88.102 E25.94385
G1 X136.407 Y87.933 E25.95411
G1 X136.773 Y87.746 E25.96436
G1 X137.131 Y87.543 E25.97463
G1 X137.47 Y87.328 E25.98464
G1 X137.815 Y87.081 E25.99522
G1 X138.129 Y86.828 E26.00528
G1 X138.436 Y86.548 E26.01565
G1 X138.722 Y86.252 E26.02592
G1 X138.881 Y86.069 E26.03196
G1 X139.13 Y85.745 E26.04216
G1 X139.262 Y85.552 E26.04799
G1 X139.463 Y85.21 E26.05788
G1 X139.66 Y84.81 E26.06901
G1 X139.807 Y84.417 E26.07947
G1 X139.874 Y84.199 E26.08516
G1 X139.964 Y83.79 E26.09561
G1 X139.997 Y83.564 E26.10131
G1 X140.026 Y83.142 E26.11186
G1 X140.016 Y82.711 E26.12261
G1 X139.956 Y82.259 E26.13399
G1 X139.855 Y81.84 E26.14474
G1 X139.719 Y81.437 E26.15535
G1 X139.547 Y81.049 E26.16593
G1 X139.342 Y80.677 E26.17653
G1 X139.095 Y80.309 E26.18759
G1 X138.85 Y79.996 E26.1975
G1 X138.694 Y79.815 E26.20346
G1 X138.374 Y79.491 E26.21482
G1 X138.193 Y79.326 E26.22093
G1 X137.858 Y79.051 E26.23174
G1 X137.457 Y78.761 E26.24409
G1 X137.029 Y78.492 E26.2567
G1 X136.619 Y78.268 E26.26835
G1 X136.162 Y78.048 E26.281
G1 X135.694 Y77.852 E26.29366
G1 X135.235 Y77.684 E26.30585
G1 X134.773 Y77.542 E26.31791
G1 X134.268 Y77.406 E26.33096
G1 X133.798 Y77.3 E26.34297
G1 X133.331 Y77.213 E26.35482
G1 X132.863 Y77.144 E26.36663
G1 X132.401 Y77.093 E26.37822
G1 X131.942 Y77.056 E26.38971
G1 X131.447 Y77.033 E26.40207
G1 X131.001 Y77.028 E26.41319
G1 X130.565 Y77.038 E26.42407
G1 X130.14 Y77.061 E26.43469
G1 X129.725 Y77.099 E26.44509
G1 X129.292 Y77.156 E26.45598
G1 X128.908 Y77.222 E26.4657
G1 X128.383 Y77.339 E26.47912
G1 X128.024 Y77.442 E26.48843
G1 X127.706 Y77.553 E26.49684
G1 X127.406 Y77.678 E26.50494
G1 X127.111 Y77.83 E26.51322
G1 X126.829 Y78.014 E26.52162
G1 X126.68 Y78.134 E26.52639
G1 X126.539 Y78.267 E26.53123
G1 X126.406 Y78.421 E26.5363
G1 X126.288 Y78.599 E26.54163
G1 X126.193 Y78.799 E26.54715
G1 X126.127 Y79.022 E26.55296
G1 X126.099 Y79.244 E26.55854
G1 X126.101 Y79.463 E26.564
G1 X126.148 Y79.761 E26.57153
G1 X126.15 Y79.775 E26.57188
G1 X126.169 Y79.865 E26.57417
G1 X126.176 Y79.894 E26.57492
G1 X126.039 Y79.921
G1 X125.817 Y79.942 E26.5794
G1 X125.802 Y79.942 E26.57977
G1 X125.297 Y79.959 E26.59238
G1 X124.907 Y79.951 E26.60211
G1 X124.432 Y79.93 E26.61397
G1 X123.677 Y79.879 E26.63285
G1 X122.508 Y79.77 E26.66213
G1 X120.207 Y79.501 E26.71992
G1 X119.985 Y79.476 E26.72342
G0 F3600 X119.919 Y79.402
G0 X129.287 Y77.117
G0 X131.001 Y76.988
G0 X132.868 Y77.105
G0 X134.784 Y77.504
G0 X136.178 Y78.012
G0 X137.479 Y78.728
G0 X138.401 Y79.463
G0 X139.127 Y80.286
G0 X139.756 Y81.423
G0 X139.995 Y82.252
G0 X140.065 Y83.142
G0 X139.912 Y84.209
G0 X139.498 Y85.228
G0 X138.751 Y86.279
G0 X127.671 Y99.56
G0 X127.706 Y99.653
G1 F1800 X127.406 Y99.778 E26.73153
G1 X127.111 Y99.93 E26.73981
G1 X126.829 Y100.114 E26.74821
G1 X126.68 Y100.234 E26.75298
G1 X126.539 Y100.367 E26.75781
G1 X126.406 Y100.521 E26.76289
G1 X126.288 Y100.699 E26.76822
G1 X126.193 Y100.899 E26.77374
G1 X126.127 Y101.122 E26.77954
G1 X126.099 Y101.344 E26.78512
G1 X126.101 Y101.563 E26.79059
G1 X126.148 Y101.861 E26.79811
G1 X126.15 Y101.875 E26.79847
G1 X126.169 Y101.965 E26.80076
G1 X126.176 Y101.994 E26.8015
G1 X126.039 Y102.021
G1 X125.817 Y102.042 E26.80599
G1 X125.802 Y102.042 E26.80636
G1 X125.297 Y102.059 E26.81897
G1 X124.907 Y102.051 E26.8287
G1 X124.432 Y102.03 E26.84056
G1 X123.677 Y101.979 E26.85943
G1 X122.508 Y101.87 E26.88872
G1 X120.207 Y101.601 E26.94651
G1 X119.985 Y101.576 E26.95208
G1 X119.985 Y101.799 E26.95558
G1 X119.985 Y101.8 E26.9556
G1 X119.985 Y103.537 E26.99893
G1 X121.21 Y103.687 E27.02972
G1 X122.661 Y103.844 E27.06612
G1 X123.442 Y103.915 E27.08569
G1 X124.168 Y103.968 E27.10384
G1 X124.969 Y104.004 E27.12384
