; generated by Slic3r Prusa Edition 1.38.6-prusa3d-win64 on 2018-10-13 at 21:15:28

; 

; external perimeters extrusion width = 0.45mm
; perimeters extrusion width = 0.45mm
; infill extrusion width = 0.45mm
; solid infill extrusion width = 0.45mm
; top infill extrusion width = 0.40mm
; first layer extrusion width = 0.42mm

M107
M115 U3.1.0 ; tell printer latest fw version
; Start G-Code sequence START
T0
M104 S230 ; set extruder temp
M140 S60 ; set bed temp
M190 S60 ; wait for bed temp
M109 S230 ; wait for extruder temp
G21 ; set units to millimeters
G90 ; use absolute coordinates
M83 ; use relative distances for extrusion
G28 W
G80
G92 E0.0
M203 E100 ; set max feedrate
M92 E140 ; E-steps per filament milimeter

G1 Z0.250 F7200.000
G1 X50.0 E80.0  F1000.0
G1 X160.0 E20.0  F1000.0
G1 Z0.200 F7200.000
G1 X220.0 E13 F1000.0
G1 X240.0 E0 F1000.0
G1 E-4 F1000.0

G92 E0.0
M900 K200; Filament gcode
G21 ; set units to millimeters
G90 ; use absolute coordinates
M83 ; use relative distances for extrusion
;BEFORE_LAYER_CHANGE
;0.2


G1 Z0.200 F7200.000
;AFTER_LAYER_CHANGE
;0.2
G1 E-4.00000 F4800.00000
G1 Z0.800 F7200.000
G1 X62.988 Y53.862 F7200.000
G1 Z0.200 F7200.000
G1 E4.00000 F3000.00000
M204 S1000
G1 F1800
G1 X65.680 Y50.762 E0.13001
G1 X68.527 Y47.804 E0.13001
G1 X71.521 Y44.995 E0.13001
G1 X74.640 Y42.355 E0.12941
G1 X77.583 Y40.101 E0.11739
G1 X80.183 Y38.277 E0.10057
G1 X83.630 Y36.086 E0.12933
G1 X87.202 Y34.064 E0.13001
G1 X90.874 Y32.227 E0.13001
G1 X94.634 Y30.579 E0.13001
G1 X98.474 Y29.126 E0.13001
G1 X102.364 Y27.876 E0.12941
G1 X105.043 Y27.140 E0.08796
G1 X109.044 Y26.222 E0.13001
G1 X113.066 Y25.514 E0.12933
G1 X117.140 Y25.008 E0.13001
G1 X121.235 Y24.711 E0.13001
G1 X125.336 Y24.624 E0.12989
G1 X129.443 Y24.746 E0.13013
G1 X133.516 Y25.076 E0.12941
G1 X136.273 Y25.418 E0.08796
G1 X140.319 Y26.097 E0.12993
G1 X144.310 Y26.977 E0.12941
G1 X148.268 Y28.065 E0.13001
G1 X152.166 Y29.354 E0.13001
G1 X155.993 Y30.839 E0.13001
G1 X159.740 Y32.519 E0.13001
G1 X163.378 Y34.378 E0.12941
G1 X166.593 Y36.225 E0.11739
G1 X169.279 Y37.920 E0.10057
G1 X172.629 Y40.256 E0.12933
G1 X175.873 Y42.772 E0.13001
G1 X178.984 Y45.451 E0.13001
G1 X181.954 Y48.285 E0.13001
G1 X184.775 Y51.267 E0.13001
G1 X187.429 Y54.375 E0.12941
G1 X189.695 Y57.309 E0.11739
G1 X191.530 Y59.900 E0.10058
G1 X193.735 Y63.338 E0.12933
G1 X195.773 Y66.902 E0.13001
G1 X197.626 Y70.566 E0.13001
G1 X199.290 Y74.319 E0.13001
G1 X200.759 Y78.152 E0.13001
G1 X202.026 Y82.038 E0.12941
G1 X202.773 Y84.713 E0.08796
G1 X203.708 Y88.710 E0.13001
G1 X204.433 Y92.729 E0.12933
G1 X204.956 Y96.801 E0.13001
G1 X205.271 Y100.895 E0.13001
G1 X205.376 Y104.999 E0.13001
G1 X205.271 Y109.103 E0.13001
G1 X204.959 Y113.177 E0.12941
G1 X204.494 Y116.855 E0.11739
G1 X203.966 Y119.987 E0.10057
G1 X203.103 Y123.979 E0.12934
G1 X202.032 Y127.942 E0.13001
G1 X200.760 Y131.845 E0.13001
G1 X199.290 Y135.679 E0.13001
G1 X197.627 Y139.432 E0.13001
G1 X195.783 Y143.079 E0.12941
G1 X194.425 Y145.502 E0.08796
G1 X192.267 Y148.994 E0.13001
G1 X189.945 Y152.354 E0.12933
G1 X187.442 Y155.609 E0.13001
G1 X184.777 Y158.731 E0.13001
G1 X181.955 Y161.713 E0.13001
G1 X178.985 Y164.548 E0.13001
G1 X175.889 Y167.214 E0.12940
G1 X172.646 Y169.732 E0.13001
G1 X170.381 Y171.339 E0.08796
G1 X166.953 Y173.559 E0.12933
G1 X163.397 Y175.612 E0.13001
G1 X159.742 Y177.480 E0.13001
G1 X155.996 Y179.160 E0.13001
G1 X152.168 Y180.646 E0.13001
G1 X148.271 Y181.934 E0.13001
G1 X144.312 Y183.022 E0.13001
G1 X140.321 Y183.903 E0.12941
G1 X137.586 Y184.385 E0.08796
G1 X133.519 Y184.924 E0.12993
G1 X129.446 Y185.254 E0.12941
G1 X125.331 Y185.376 E0.13037
G1 X121.237 Y185.289 E0.12965
G1 X117.143 Y184.992 E0.13001
G1 X113.069 Y184.487 E0.13001
G1 X109.044 Y183.778 E0.12941
G1 X105.043 Y182.860 E0.13001
G1 X102.364 Y182.124 E0.08796
G1 X98.476 Y180.875 E0.12933
G1 X94.636 Y179.422 E0.13001
G1 X90.876 Y177.774 E0.13001
G1 X87.204 Y175.937 E0.13001
G1 X83.632 Y173.915 E0.13001
G1 X80.183 Y171.723 E0.12940
G1 X76.819 Y169.337 E0.13061
G1 X73.611 Y166.805 E0.12941
G1 X71.015 Y164.546 E0.10898
G1 X68.513 Y162.183 E0.10899
G1 X65.681 Y159.240 E0.12933
G1 X62.989 Y156.140 E0.13001
G1 X60.459 Y152.907 E0.13001
G1 X58.108 Y149.565 E0.12941
G1 X56.264 Y146.659 E0.10898
G1 X54.541 Y143.680 E0.10898
G1 X52.667 Y140.051 E0.12933
G1 X50.963 Y136.293 E0.13069
G1 X49.469 Y132.492 E0.12933
G1 X48.164 Y128.599 E0.13001
G1 X47.059 Y124.645 E0.13001
G1 X46.158 Y120.640 E0.13001
G1 X45.462 Y116.594 E0.13001
G1 X44.974 Y112.518 E0.13001
G1 X44.694 Y108.422 E0.13001
G1 X44.624 Y104.336 E0.12941
G1 X44.764 Y100.214 E0.13061
G1 X45.111 Y96.142 E0.12941
G1 X45.465 Y93.387 E0.08796
G1 X46.162 Y89.341 E0.13001
G1 X47.059 Y85.357 E0.12933
G1 X48.163 Y81.403 E0.13001
G1 X49.468 Y77.511 E0.13001
G1 X50.971 Y73.690 E0.13001
G1 X52.666 Y69.951 E0.13001
G1 X54.541 Y66.320 E0.12941
G1 X56.539 Y62.886 E0.12581
G1 X58.108 Y60.435 E0.09216
G1 X60.458 Y57.095 E0.12933
G1 X62.951 Y53.909 E0.12811
G1 E-2.40000 F4800.00000
G1 F5760
G1 X64.209 Y52.458 E-1.52000
G1 E-0.08000 F4800.00000
G1 Z0.800 F7200.000
G1 X106.272 Y89.068 F7200.000
G1 Z0.200 F7200.000
G1 E4.00000 F3000.00000
G1 F1800
G1 X107.283 Y87.950 E0.04772
G1 X108.357 Y86.900 E0.04758
G1 X108.927 Y86.393 E0.02415
G1 X110.093 Y85.446 E0.04757
G1 X111.254 Y84.615 E0.04522
G1 X111.955 Y84.158 E0.02648
G1 X113.249 Y83.402 E0.04746
G1 X113.924 Y83.048 E0.02415
G1 X115.282 Y82.414 E0.04744
G1 X115.987 Y82.124 E0.02415
G1 X117.401 Y81.616 E0.04758
G1 X118.843 Y81.196 E0.04758
G1 X119.584 Y81.016 E0.02415
G1 X121.055 Y80.731 E0.04744
G1 X121.809 Y80.620 E0.02415
G1 X123.304 Y80.471 E0.04757
G1 X124.731 Y80.415 E0.04522
G1 X125.567 Y80.419 E0.02648
G1 X127.064 Y80.500 E0.04746
G1 X127.823 Y80.576 E0.02415
G1 X129.309 Y80.793 E0.04757
G1 X130.707 Y81.086 E0.04522
G1 X131.517 Y81.293 E0.02648
G1 X132.879 Y81.711 E0.04511
G1 X133.667 Y81.991 E0.02648
G1 X135.052 Y82.562 E0.04746
G1 X135.743 Y82.885 E0.02415
G1 X137.074 Y83.582 E0.04757
G1 X138.296 Y84.320 E0.04522
G1 X138.993 Y84.784 E0.02648
G1 X140.198 Y85.674 E0.04746
G1 X140.790 Y86.155 E0.02415
G1 X141.912 Y87.154 E0.04758
G1 X142.974 Y88.224 E0.04772
G1 X143.967 Y89.356 E0.04772
G1 X144.887 Y90.544 E0.04758
G1 X145.740 Y91.798 E0.04801
G1 X146.508 Y93.089 E0.04758
G1 X147.195 Y94.425 E0.04758
G1 X147.513 Y95.118 E0.02414
G1 X148.046 Y96.438 E0.04508
G1 X148.325 Y97.227 E0.02648
G1 X148.756 Y98.667 E0.04761
G1 X149.099 Y100.130 E0.04758
G1 X149.238 Y100.879 E0.02415
G1 X149.444 Y102.363 E0.04744
G1 X149.514 Y103.122 E0.02415
G1 X149.583 Y104.619 E0.04744
G1 X149.583 Y105.381 E0.02415
G1 X149.514 Y106.882 E0.04758
G1 X149.352 Y108.380 E0.04772
G1 X149.100 Y109.866 E0.04771
G1 X148.775 Y111.257 E0.04522
G1 X148.551 Y112.058 E0.02634
G1 X148.322 Y112.781 E0.02403
G1 X147.803 Y114.191 E0.04758
G1 X147.199 Y115.567 E0.04758
G1 X146.506 Y116.915 E0.04801
G1 X145.738 Y118.206 E0.04757
G1 X144.936 Y119.387 E0.04522
G1 X144.438 Y120.054 E0.02634
G1 X143.965 Y120.647 E0.02403
G1 X142.974 Y121.776 E0.04757
G1 X141.969 Y122.790 E0.04522
G1 X141.355 Y123.358 E0.02648
G1 X140.263 Y124.274 E0.04511
G1 X139.600 Y124.782 E0.02648
G1 X138.429 Y125.594 E0.04511
G1 X137.722 Y126.039 E0.02648
G1 X136.412 Y126.778 E0.04761
G1 X135.061 Y127.434 E0.04758
G1 X134.360 Y127.735 E0.02415
G1 X132.954 Y128.265 E0.04758
G1 X131.514 Y128.708 E0.04771
G1 X130.126 Y129.046 E0.04522
G1 X129.306 Y129.207 E0.02648
G1 X127.823 Y129.424 E0.04746
G1 X127.064 Y129.500 E0.02415
G1 X125.568 Y129.581 E0.04744
G1 X124.806 Y129.586 E0.02415
G1 X123.304 Y129.529 E0.04758
G1 X121.805 Y129.379 E0.04772
G1 X120.318 Y129.138 E0.04771
G1 X118.924 Y128.824 E0.04522
G1 X118.117 Y128.605 E0.02648
G1 X116.692 Y128.142 E0.04746
G1 X115.282 Y127.586 E0.04801
G1 X113.920 Y126.950 E0.04757
G1 X112.665 Y126.269 E0.04522
G1 X111.948 Y125.838 E0.02648
G1 X110.703 Y125.004 E0.04746
G1 X110.090 Y124.551 E0.02415
G1 X108.923 Y123.604 E0.04757
G1 X107.871 Y122.639 E0.04522
G1 X107.280 Y122.047 E0.02648
G1 X106.272 Y120.932 E0.04761
G1 X105.334 Y119.759 E0.04758
G1 X104.886 Y119.142 E0.02414
G1 X104.102 Y117.954 E0.04508
G1 X103.672 Y117.236 E0.02648
G1 X102.966 Y115.914 E0.04746
G1 X102.336 Y114.535 E0.04801
G1 X101.795 Y113.133 E0.04758
G1 X101.341 Y111.697 E0.04771
G1 X100.993 Y110.312 E0.04522
G1 X100.825 Y109.492 E0.02648
G1 X100.596 Y108.007 E0.04761
G1 X100.458 Y106.511 E0.04758
G1 X100.423 Y105.749 E0.02414
G1 X100.422 Y104.326 E0.04508
G1 X100.458 Y103.490 E0.02648
G1 X100.596 Y101.993 E0.04761
G1 X100.825 Y100.508 E0.04758
G1 X100.976 Y99.761 E0.02415
G1 X101.340 Y98.308 E0.04744
G1 X101.559 Y97.577 E0.02415
G1 X102.054 Y96.164 E0.04744
G1 X102.339 Y95.456 E0.02415
G1 X102.964 Y94.090 E0.04758
G1 X103.672 Y92.765 E0.04758
G1 X104.466 Y91.474 E0.04801
G1 X105.331 Y90.245 E0.04758
G1 X106.234 Y89.114 E0.04582
G1 X106.529 Y89.350 F7200.000
G1 F1800
G1 X107.555 Y88.212 E0.04852
G1 X108.615 Y87.176 E0.04694
G1 X109.171 Y86.680 E0.02360
G1 X110.322 Y85.746 E0.04694
G1 X111.467 Y84.926 E0.04460
G1 X112.153 Y84.479 E0.02593
G1 X113.432 Y83.732 E0.04690
G1 X114.092 Y83.386 E0.02360
G1 X115.433 Y82.760 E0.04689
G1 X116.122 Y82.476 E0.02360
G1 X117.517 Y81.975 E0.04694
G1 X118.940 Y81.560 E0.04694
G1 X119.665 Y81.385 E0.02360
G1 X121.118 Y81.103 E0.04689
G1 X121.855 Y80.995 E0.02360
G1 X123.330 Y80.847 E0.04694
G1 X124.738 Y80.792 E0.04460
G1 X125.556 Y80.796 E0.02593
G1 X127.035 Y80.876 E0.04690
G1 X127.777 Y80.950 E0.02360
G1 X129.243 Y81.165 E0.04694
G1 X130.622 Y81.453 E0.04460
G1 X131.415 Y81.656 E0.02593
G1 X132.760 Y82.069 E0.04456
G1 X133.531 Y82.343 E0.02593
G1 X134.901 Y82.908 E0.04690
G1 X135.576 Y83.223 E0.02360
G1 X136.889 Y83.911 E0.04694
G1 X138.094 Y84.639 E0.04460
G1 X138.776 Y85.092 E0.02593
G1 X139.967 Y85.972 E0.04690
G1 X140.546 Y86.442 E0.02360
G1 X141.653 Y87.428 E0.04694
G1 X142.698 Y88.481 E0.04699
G1 X143.676 Y89.597 E0.04699
G1 X144.584 Y90.768 E0.04694
G1 X145.421 Y91.998 E0.04709
G1 X146.178 Y93.272 E0.04694
G1 X146.856 Y94.590 E0.04694
G1 X147.166 Y95.267 E0.02360
G1 X147.693 Y96.572 E0.04455
G1 X147.966 Y97.344 E0.02593
G1 X148.392 Y98.764 E0.04695
G1 X148.729 Y100.207 E0.04694
G1 X148.866 Y100.940 E0.02360
G1 X149.069 Y102.406 E0.04689
G1 X149.138 Y103.148 E0.02360
G1 X149.206 Y104.627 E0.04689
G1 X149.206 Y105.373 E0.02360
G1 X149.138 Y106.853 E0.04694
G1 X148.979 Y108.329 E0.04699
G1 X148.730 Y109.791 E0.04699
G1 X148.410 Y111.163 E0.04460
G1 X148.190 Y111.950 E0.02588
G1 X147.965 Y112.659 E0.02356
G1 X147.454 Y114.050 E0.04694
G1 X146.858 Y115.407 E0.04694
G1 X146.177 Y116.730 E0.04709
G1 X145.420 Y118.004 E0.04694
G1 X144.628 Y119.169 E0.04460
G1 X144.140 Y119.824 E0.02588
G1 X143.675 Y120.405 E0.02356
G1 X142.698 Y121.519 E0.04694
G1 X141.707 Y122.519 E0.04460
G1 X141.105 Y123.075 E0.02593
G1 X140.027 Y123.979 E0.04456
G1 X139.378 Y124.477 E0.02593
G1 X138.221 Y125.279 E0.04456
G1 X137.528 Y125.716 E0.02593
G1 X136.237 Y126.444 E0.04695
G1 X134.904 Y127.091 E0.04694
G1 X134.219 Y127.385 E0.02360
G1 X132.832 Y127.908 E0.04694
G1 X131.414 Y128.345 E0.04699
G1 X130.045 Y128.677 E0.04460
G1 X129.242 Y128.835 E0.02593
G1 X127.777 Y129.050 E0.04690
G1 X127.035 Y129.124 E0.02360
G1 X125.557 Y129.204 E0.04689
G1 X124.811 Y129.209 E0.02360
G1 X123.330 Y129.153 E0.04694
G1 X121.854 Y129.005 E0.04699
G1 X120.389 Y128.767 E0.04699
G1 X119.015 Y128.458 E0.04460
G1 X118.225 Y128.243 E0.02593
G1 X116.817 Y127.786 E0.04690
G1 X115.433 Y127.240 E0.04709
G1 X114.090 Y126.613 E0.04694
G1 X112.852 Y125.942 E0.04460
G1 X112.151 Y125.520 E0.02593
G1 X110.920 Y124.696 E0.04690
G1 X110.321 Y124.253 E0.02360
G1 X109.170 Y123.319 E0.04694
G1 X108.132 Y122.367 E0.04460
G1 X107.554 Y121.787 E0.02593
G1 X106.559 Y120.688 E0.04695
G1 X105.634 Y119.530 E0.04694
G1 X105.196 Y118.927 E0.02360
G1 X104.421 Y117.753 E0.04455
G1 X104.001 Y117.050 E0.02593
G1 X103.303 Y115.744 E0.04690
G1 X102.684 Y114.392 E0.04709
G1 X102.151 Y113.009 E0.04694
G1 X101.704 Y111.594 E0.04699
G1 X101.361 Y110.228 E0.04460
G1 X101.197 Y109.426 E0.02593
G1 X100.970 Y107.961 E0.04695
G1 X100.834 Y106.485 E0.04694
G1 X100.800 Y105.740 E0.02360
G1 X100.799 Y104.334 E0.04455
G1 X100.834 Y103.516 E0.02593
G1 X100.970 Y102.039 E0.04695
G1 X101.196 Y100.574 E0.04694
G1 X101.344 Y99.844 E0.02360
G1 X101.703 Y98.408 E0.04689
G1 X101.917 Y97.694 E0.02360
G1 X102.407 Y96.297 E0.04689
G1 X102.686 Y95.605 E0.02360
G1 X103.302 Y94.257 E0.04694
G1 X104.000 Y92.950 E0.04694
G1 X104.780 Y91.684 E0.04709
G1 X105.633 Y90.471 E0.04694
G1 X106.491 Y89.397 E0.04356
G1 X106.394 Y88.973 F7200.000
G1 E-2.40000 F4800.00000
G1 F5760
G1 X107.555 Y88.212 E-1.26040
G1 F5760
G1 X107.789 Y87.983 E-0.25960
G1 E-0.08000 F4800.00000
G1 Z0.800 F7200.000
G1 X66.018 Y54.876 F7200.000
G1 Z0.200 F7200.000
G1 E4.00000 F3000.00000
G1 F1800
G1 X66.902 Y53.840 E0.04312
G1 X67.869 Y52.761 E0.04586
G1 X68.764 Y51.798 E0.04165
G1 X70.612 Y49.911 E0.08364
G1 X71.554 Y48.996 E0.04158
G1 X73.494 Y47.207 E0.08356
G1 X75.491 Y45.487 E0.08348
G1 X77.548 Y43.834 E0.08356
G1 X79.655 Y42.257 E0.08332
G1 X81.821 Y40.747 E0.08364
G1 X82.917 Y40.024 E0.04158
G1 X85.158 Y38.626 E0.08364
G1 X86.290 Y37.960 E0.04158
G1 X88.599 Y36.678 E0.08364
G1 X89.764 Y36.071 E0.04158
G1 X92.133 Y34.910 E0.08357
G1 X94.420 Y33.884 E0.07937
G1 X95.755 Y33.323 E0.04586
G1 X96.977 Y32.837 E0.04165
G1 X99.455 Y31.923 E0.08364
G1 X100.699 Y31.500 E0.04158
G1 X103.218 Y30.714 E0.08356
G1 X105.762 Y30.015 E0.08356
G1 X107.039 Y29.699 E0.04166
G1 X108.321 Y29.405 E0.04166
G1 X110.910 Y28.880 E0.08364
G1 X112.203 Y28.652 E0.04158
G1 X114.813 Y28.260 E0.08357
G1 X117.302 Y27.972 E0.07937
G1 X118.745 Y27.840 E0.04586
G1 X120.056 Y27.745 E0.04165
G1 X122.695 Y27.621 E0.08364
G1 X124.008 Y27.593 E0.04159
G1 X126.516 Y27.603 E0.07945
G1 X127.964 Y27.644 E0.04586
G1 X130.593 Y27.790 E0.08339
G1 X133.224 Y28.025 E0.08364
G1 X134.528 Y28.176 E0.04158
G1 X137.141 Y28.545 E0.08357
G1 X139.610 Y28.980 E0.07937
G1 X141.027 Y29.265 E0.04579
G1 X143.601 Y29.855 E0.08363
G1 X144.875 Y30.182 E0.04166
G1 X146.144 Y30.531 E0.04166
G1 X148.672 Y31.296 E0.08364
G1 X149.919 Y31.708 E0.04158
G1 X152.405 Y32.601 E0.08364
G1 X153.629 Y33.076 E0.04158
G1 X156.066 Y34.094 E0.08364
G1 X157.264 Y34.632 E0.04158
G1 X159.643 Y35.772 E0.08356
G1 X161.982 Y36.993 E0.08356
G1 X163.131 Y37.630 E0.04159
G1 X165.293 Y38.902 E0.07945
G1 X166.523 Y39.667 E0.04586
G1 X167.627 Y40.382 E0.04165
G1 X169.805 Y41.872 E0.08356
G1 X171.928 Y43.434 E0.08348
G1 X173.999 Y45.069 E0.08356
G1 X175.011 Y45.911 E0.04166
G1 X176.008 Y46.769 E0.04166
G1 X177.964 Y48.543 E0.08364
G1 X178.914 Y49.450 E0.04158
G1 X180.776 Y51.320 E0.08357
G1 X182.484 Y53.154 E0.07937
G1 X183.443 Y54.236 E0.04579
G1 X185.056 Y56.157 E0.07944
G1 X185.959 Y57.286 E0.04579
G1 X187.551 Y59.393 E0.08363
G1 X188.317 Y60.463 E0.04166
G1 X189.065 Y61.545 E0.04166
G1 X190.508 Y63.754 E0.08356
G1 X191.876 Y66.011 E0.08356
G1 X192.529 Y67.153 E0.04166
G1 X193.162 Y68.306 E0.04166
G1 X194.374 Y70.653 E0.08364
G1 X194.947 Y71.834 E0.04159
G1 X195.984 Y74.119 E0.07945
G1 X196.550 Y75.452 E0.04586
G1 X197.042 Y76.672 E0.04165
G1 X197.966 Y79.144 E0.08356
G1 X198.805 Y81.645 E0.08356
G1 X199.190 Y82.901 E0.04159
G1 X199.866 Y85.317 E0.07945
G1 X200.222 Y86.718 E0.04579
G1 X200.774 Y89.165 E0.07943
G1 X201.057 Y90.583 E0.04579
G1 X201.505 Y93.185 E0.08363
G1 X201.694 Y94.487 E0.04166
G1 X201.862 Y95.792 E0.04166
G1 X202.131 Y98.417 E0.08357
G1 X202.303 Y100.918 E0.07937
G1 X202.367 Y102.362 E0.04579
G1 X202.411 Y105.002 E0.08363
G1 X202.400 Y106.318 E0.04166
G1 X202.367 Y107.633 E0.04166
G1 X202.232 Y110.271 E0.08364
G1 X202.131 Y111.580 E0.04158
G1 X201.862 Y114.205 E0.08356
G1 X201.504 Y116.819 E0.08356
G1 X201.292 Y118.118 E0.04166
G1 X201.058 Y119.413 E0.04167
G1 X200.550 Y121.870 E0.07945
G1 X200.222 Y123.280 E0.04587
G1 X199.901 Y124.556 E0.04165
G1 X199.227 Y126.972 E0.07945
G1 X198.804 Y128.355 E0.04579
G1 X198.008 Y130.734 E0.07943
G1 X197.515 Y132.096 E0.04587
G1 X197.044 Y133.324 E0.04165
G1 X196.037 Y135.762 E0.08356
G1 X194.947 Y138.166 E0.08356
G1 X194.373 Y139.350 E0.04166
