; generated by Slic3r Prusa Edition 1.38.6-prusa3d-win64 on 2018-10-13 at 21:35:23

; 

; external perimeters extrusion width = 0.45mm
; perimeters extrusion width = 0.45mm
; infill extrusion width = 0.45mm
; solid infill extrusion width = 0.45mm
; top infill extrusion width = 0.40mm
; first layer extrusion width = 0.42mm

M107
M115 U3.1.0 ; tell printer latest fw version
; Start G-Code sequence START
T0
M104 S230 ; set extruder temp
M140 S60 ; set bed temp
M190 S60 ; wait for bed temp
M109 S230 ; wait for extruder temp
G21 ; set units to millimeters
G90 ; use absolute coordinates
M83 ; use relative distances for extrusion
G28 W
G80
G92 E0.0
M203 E100 ; set max feedrate
M92 E140 ; E-steps per filament milimeter

G1 Z0.250 F7200.000
G1 X50.0 E80.0  F1000.0
G1 X160.0 E20.0  F1000.0
G1 Z0.200 F7200.000
G1 X220.0 E13 F1000.0
G1 X240.0 E0 F1000.0
G1 E-4 F1000.0

G92 E0.0
M900 K200; Filament gcode
G21 ; set units to millimeters
G90 ; use absolute coordinates
M83 ; use relative distances for extrusion
;BEFORE_LAYER_CHANGE
;0.2


G1 Z0.200 F7200.000
;AFTER_LAYER_CHANGE
;0.2
G1 E-4.00000 F4800.00000
G1 Z0.800 F7200.000
G1 X62.988 Y53.862 F7200.000
G1 Z0.200 F7200.000
G1 E4.00000 F3000.00000
M204 S1000
G1 F1800
G1 X65.680 Y50.762 E0.13001
G1 X68.527 Y47.804 E0.13001
G1 X71.521 Y44.995 E0.13001
G1 X74.640 Y42.355 E0.12941
G1 X77.583 Y40.101 E0.11739
G1 X80.183 Y38.277 E0.10057
G1 X83.630 Y36.086 E0.12933
G1 X87.202 Y34.064 E0.13001
G1 X90.874 Y32.227 E0.13001
G1 X94.634 Y30.579 E0.13001
G1 X98.474 Y29.126 E0.13001
G1 X102.364 Y27.876 E0.12941
G1 X105.043 Y27.140 E0.08796
G1 X109.044 Y26.222 E0.13001
G1 X113.066 Y25.514 E0.12933
G1 X117.140 Y25.008 E0.13001
G1 X121.235 Y24.711 E0.13001
G1 X125.336 Y24.624 E0.12989
G1 X129.443 Y24.746 E0.13013
G1 X133.516 Y25.076 E0.12941
G1 X136.273 Y25.418 E0.08796
G1 X140.319 Y26.097 E0.12993
G1 X144.310 Y26.977 E0.12941
G1 X148.268 Y28.065 E0.13001
G1 X152.166 Y29.354 E0.13001
G1 X155.993 Y30.839 E0.13001
G1 X159.740 Y32.519 E0.13001
G1 X163.378 Y34.378 E0.12941
G1 X166.593 Y36.225 E0.11739
G1 X169.279 Y37.920 E0.10057
G1 X172.629 Y40.256 E0.12933
G1 X175.873 Y42.772 E0.13001
G1 X178.984 Y45.451 E0.13001
G1 X181.954 Y48.285 E0.13001
G1 X184.775 Y51.267 E0.13001
G1 X187.429 Y54.375 E0.12941
G1 X189.695 Y57.309 E0.11739
G1 X191.530 Y59.900 E0.10058
G1 X193.735 Y63.338 E0.12933
G1 X195.773 Y66.902 E0.13001
G1 X197.626 Y70.566 E0.13001
G1 X199.290 Y74.319 E0.13001
G1 X200.759 Y78.152 E0.13001
G1 X202.026 Y82.038 E0.12941
G1 X202.773 Y84.713 E0.08796
G1 X203.708 Y88.710 E0.13001
G1 X204.433 Y92.729 E0.12933
G1 X204.956 Y96.801 E0.13001
G1 X205.271 Y100.895 E0.13001
G1 X205.376 Y104.999 E0.13001
G1 X205.271 Y109.103 E0.13001
G1 X204.959 Y113.177 E0.12941
G1 X204.494 Y116.855 E0.11739
G1 X203.966 Y119.987 E0.10057
G1 X203.103 Y123.979 E0.12934
G1 X202.032 Y127.942 E0.13001
G1 X200.760 Y131.845 E0.13001
G1 X199.290 Y135.679 E0.13001
G1 X197.627 Y139.432 E0.13001
G1 X195.783 Y143.079 E0.12941
G1 X194.425 Y145.502 E0.08796
G1 X192.267 Y148.994 E0.13001
G1 X189.945 Y152.354 E0.12933
G1 X187.442 Y155.609 E0.13001
G1 X184.777 Y158.731 E0.13001
G1 X181.955 Y161.713 E0.13001
G1 X178.985 Y164.548 E0.13001
G1 X175.889 Y167.214 E0.12940
G1 X172.646 Y169.732 E0.13001
G1 X170.381 Y171.339 E0.08796
G1 X166.953 Y173.559 E0.12933
G1 X163.397 Y175.612 E0.13001
G1 X159.742 Y177.480 E0.13001
G1 X155.996 Y179.160 E0.13001
G1 X152.168 Y180.646 E0.13001
G1 X148.271 Y181.934 E0.13001
G1 X144.312 Y183.022 E0.13001
G1 X140.321 Y183.903 E0.12941
G1 X137.586 Y184.385 E0.08796
G1 X133.519 Y184.924 E0.12993
G1 X129.446 Y185.254 E0.12941
G1 X125.331 Y185.376 E0.13037
G1 X121.237 Y185.289 E0.12965
G1 X117.143 Y184.992 E0.13001
G1 X113.069 Y184.487 E0.13001
G1 X109.044 Y183.778 E0.12941
G1 X105.043 Y182.860 E0.13001
G1 X102.364 Y182.124 E0.08796
G1 X98.476 Y180.875 E0.12933
G1 X94.636 Y179.422 E0.13001
G1 X90.876 Y177.774 E0.13001
G1 X87.204 Y175.937 E0.13001
G1 X83.632 Y173.915 E0.13001
G1 X80.183 Y171.723 E0.12940
G1 X76.819 Y169.337 E0.13061
G1 X73.611 Y166.805 E0.12941
G1 X71.015 Y164.546 E0.10898
G1 X68.513 Y162.183 E0.10899
G1 X65.681 Y159.240 E0.12933
G1 X62.989 Y156.140 E0.13001
G1 X60.459 Y152.907 E0.13001
G1 X58.108 Y149.565 E0.12941
G1 X56.264 Y146.659 E0.10898
G1 X54.541 Y143.680 E0.10898
G1 X52.667 Y140.051 E0.12933
G1 X50.963 Y136.293 E0.13069
G1 X49.469 Y132.492 E0.12933
G1 X48.164 Y128.599 E0.13001
G1 X47.059 Y124.645 E0.13001
G1 X46.158 Y120.640 E0.13001
G1 X45.462 Y116.594 E0.13001
G1 X44.974 Y112.518 E0.13001
G1 X44.694 Y108.422 E0.13001
G1 X44.624 Y104.336 E0.12941
G1 X44.764 Y100.214 E0.13061
G1 X45.111 Y96.142 E0.12941
G1 X45.465 Y93.387 E0.08796
G1 X46.162 Y89.341 E0.13001
G1 X47.059 Y85.357 E0.12933
G1 X48.163 Y81.403 E0.13001
G1 X49.468 Y77.511 E0.13001
G1 X50.971 Y73.690 E0.13001
G1 X52.666 Y69.951 E0.13001
G1 X54.541 Y66.320 E0.12941
G1 X56.539 Y62.886 E0.12581
G1 X58.108 Y60.435 E0.09216
G1 X60.458 Y57.095 E0.12933
G1 X62.951 Y53.909 E0.12811
G1 E-2.40000 F4800.00000
G1 F5760
G1 X64.209 Y52.458 E-1.52000
G1 E-0.08000 F4800.00000
G1 Z0.800 F7200.000
G1 X104.741 Y88.565 F7200.000
G1 Z0.200 F7200.000
G1 E4.00000 F3000.00000
G1 F1800
G1 X105.171 Y88.047 E0.02132
G1 X106.209 Y86.903 E0.04892
G1 X106.762 Y86.346 E0.02488
G1 X107.902 Y85.296 E0.04906
G1 X109.105 Y84.313 E0.04919
G1 X110.364 Y83.404 E0.04919
G1 X111.672 Y82.574 E0.04906
G1 X112.353 Y82.183 E0.02488
G1 X113.726 Y81.474 E0.04892
G1 X114.435 Y81.147 E0.02474
G1 X115.154 Y80.842 E0.02474
G1 X116.605 Y80.300 E0.04906
G1 X118.090 Y79.844 E0.04919
G1 X119.600 Y79.477 E0.04919
G1 X121.124 Y79.202 E0.04906
G1 X121.903 Y79.097 E0.02488
G1 X123.446 Y78.959 E0.04905
G1 X124.917 Y78.914 E0.04663
G1 X125.779 Y78.924 E0.02729
G1 X127.326 Y79.017 E0.04908
G1 X128.864 Y79.201 E0.04906
G1 X129.635 Y79.328 E0.02474
G1 X130.401 Y79.478 E0.02474
G1 X131.907 Y79.844 E0.04906
G1 X133.392 Y80.300 E0.04919
G1 X134.847 Y80.843 E0.04919
G1 X136.267 Y81.472 E0.04919
G1 X137.648 Y82.185 E0.04919
G1 X138.980 Y82.976 E0.04906
G1 X140.273 Y83.852 E0.04947
G1 X141.498 Y84.793 E0.04892
G1 X142.099 Y85.299 E0.02488
G1 X143.238 Y86.349 E0.04906
G1 X144.316 Y87.467 E0.04919
G1 X145.322 Y88.645 E0.04906
G1 X145.805 Y89.264 E0.02488
G1 X146.700 Y90.523 E0.04892
G1 X147.126 Y91.183 E0.02488
G1 X147.905 Y92.517 E0.04892
G1 X148.271 Y93.212 E0.02488
G1 X148.928 Y94.611 E0.04892
G1 X149.230 Y95.336 E0.02488
G1 X149.761 Y96.791 E0.04906
G1 X150.205 Y98.279 E0.04919
G1 X150.543 Y99.712 E0.04663
G1 X150.705 Y100.559 E0.02729
G1 X150.923 Y102.089 E0.04894
G1 X150.999 Y102.870 E0.02488
G1 X151.079 Y104.413 E0.04892
G1 X151.085 Y105.199 E0.02488
G1 X151.027 Y106.746 E0.04905
G1 X150.886 Y108.212 E0.04663
G1 X150.767 Y109.065 E0.02729
G1 X150.481 Y110.584 E0.04894
G1 X150.301 Y111.349 E0.02488
G1 X149.880 Y112.839 E0.04906
G1 X149.371 Y114.302 E0.04906
G1 X149.080 Y115.032 E0.02488
G1 X148.444 Y116.440 E0.04892
G1 X148.089 Y117.140 E0.02488
G1 X147.328 Y118.490 E0.04906
G1 X146.485 Y119.795 E0.04919
G1 X145.569 Y121.044 E0.04906
G1 X145.077 Y121.656 E0.02488
G1 X144.053 Y122.818 E0.04905
G1 X143.016 Y123.864 E0.04663
G1 X142.384 Y124.449 E0.02729
G1 X141.199 Y125.448 E0.04908
G1 X139.956 Y126.373 E0.04906
G1 X139.306 Y126.814 E0.02488
G1 X137.986 Y127.625 E0.04906
G1 X136.617 Y128.357 E0.04919
G1 X135.280 Y128.975 E0.04663
G1 X134.483 Y129.302 E0.02729
G1 X133.023 Y129.822 E0.04907
G1 X131.610 Y130.235 E0.04663
G1 X130.773 Y130.440 E0.02729
G1 X129.252 Y130.738 E0.04908
G1 X127.717 Y130.945 E0.04906
G1 X126.935 Y131.015 E0.02488
G1 X125.387 Y131.084 E0.04905
G1 X123.915 Y131.064 E0.04663
G1 X123.055 Y131.015 E0.02729
G1 X121.514 Y130.853 E0.04907
G1 X120.061 Y130.615 E0.04663
G1 X119.217 Y130.439 E0.02729
G1 X117.717 Y130.050 E0.04907
G1 X116.316 Y129.599 E0.04663
G1 X115.508 Y129.299 E0.02729
G1 X114.085 Y128.695 E0.04894
G1 X113.377 Y128.355 E0.02488
G1 X112.011 Y127.625 E0.04906
G1 X110.687 Y126.811 E0.04919
G1 X109.418 Y125.923 E0.04906
G1 X108.795 Y125.445 E0.02488
G1 X107.614 Y124.450 E0.04892
G1 X107.036 Y123.918 E0.02488
G1 X105.945 Y122.818 E0.04906
G1 X104.921 Y121.656 E0.04906
G1 X104.428 Y121.044 E0.02488
G1 X103.512 Y119.795 E0.04906
G1 X102.672 Y118.493 E0.04906
G1 X102.278 Y117.819 E0.02474
G1 X101.904 Y117.133 E0.02474
G1 X101.225 Y115.741 E0.04906
G1 X100.628 Y114.307 E0.04919
G1 X100.143 Y112.917 E0.04663
G1 X99.894 Y112.092 E0.02729
G1 X99.517 Y110.588 E0.04908
G1 X99.229 Y109.062 E0.04919
G1 X99.042 Y107.602 E0.04663
G1 X98.970 Y106.743 E0.02729
G1 X98.912 Y105.194 E0.04908
G1 X98.947 Y103.646 E0.04906
G1 X98.999 Y102.862 E0.02488
G1 X99.172 Y101.323 E0.04905
G1 X99.421 Y99.872 E0.04663
G1 X99.604 Y99.029 E0.02729
G1 X100.003 Y97.532 E0.04908
G1 X100.491 Y96.061 E0.04906
G1 X100.771 Y95.328 E0.02487
G1 X101.354 Y93.981 E0.04649
G1 X101.730 Y93.205 E0.02729
G1 X102.471 Y91.844 E0.04908
G1 X103.294 Y90.527 E0.04919
G1 X104.192 Y89.264 E0.04906
G1 X104.703 Y88.611 E0.02625
G1 X104.993 Y88.852 F7200.000
G1 F1800
G1 X105.456 Y88.294 E0.02295
G1 X106.483 Y87.163 E0.04838
G1 X107.024 Y86.617 E0.02434
G1 X108.149 Y85.581 E0.04843
G1 X109.335 Y84.613 E0.04848
G1 X110.576 Y83.716 E0.04848
G1 X111.867 Y82.896 E0.04843
G1 X112.534 Y82.514 E0.02434
G1 X113.891 Y81.813 E0.04838
G1 X114.588 Y81.492 E0.02429
G1 X115.294 Y81.192 E0.02429
G1 X116.727 Y80.657 E0.04843
G1 X118.190 Y80.208 E0.04848
G1 X119.678 Y79.846 E0.04848
G1 X121.183 Y79.575 E0.04843
G1 X121.945 Y79.472 E0.02434
G1 X123.468 Y79.335 E0.04843
G1 X124.921 Y79.291 E0.04602
G1 X125.765 Y79.301 E0.02675
G1 X127.292 Y79.392 E0.04844
G1 X128.811 Y79.574 E0.04843
G1 X129.568 Y79.699 E0.02429
G1 X130.321 Y79.847 E0.02429
G1 X131.807 Y80.208 E0.04843
G1 X133.270 Y80.657 E0.04848
G1 X134.705 Y81.192 E0.04848
G1 X136.104 Y81.812 E0.04848
G1 X137.465 Y82.514 E0.04848
G1 X138.780 Y83.296 E0.04843
G1 X140.050 Y84.156 E0.04858
G1 X141.261 Y85.087 E0.04838
G1 X141.849 Y85.582 E0.02434
G1 X142.974 Y86.618 E0.04843
G1 X144.036 Y87.721 E0.04848
G1 X145.030 Y88.883 E0.04843
G1 X145.503 Y89.490 E0.02434
G1 X146.388 Y90.735 E0.04838
G1 X146.805 Y91.381 E0.02434
G1 X147.576 Y92.700 E0.04838
G1 X147.933 Y93.380 E0.02434
G1 X148.583 Y94.763 E0.04838
G1 X148.878 Y95.473 E0.02434
G1 X149.403 Y96.910 E0.04843
G1 X149.841 Y98.376 E0.04848
G1 X150.174 Y99.791 E0.04602
G1 X150.333 Y100.621 E0.02675
G1 X150.548 Y102.133 E0.04839
G1 X150.623 Y102.899 E0.02434
G1 X150.702 Y104.424 E0.04838
G1 X150.708 Y105.193 E0.02434
G1 X150.651 Y106.721 E0.04843
G1 X150.512 Y108.168 E0.04602
G1 X150.395 Y109.004 E0.02675
G1 X150.112 Y110.506 E0.04839
G1 X149.936 Y111.254 E0.02434
G1 X149.520 Y112.726 E0.04843
G1 X149.018 Y114.170 E0.04843
G1 X148.733 Y114.884 E0.02434
G1 X148.104 Y116.277 E0.04838
G1 X147.756 Y116.962 E0.02434
G1 X147.005 Y118.295 E0.04843
G1 X146.174 Y119.581 E0.04848
G1 X145.270 Y120.814 E0.04843
G1 X144.788 Y121.413 E0.02434
G1 X143.777 Y122.561 E0.04843
G1 X142.754 Y123.593 E0.04602
G1 X142.135 Y124.167 E0.02675
G1 X140.964 Y125.152 E0.04844
G1 X139.738 Y126.066 E0.04843
G1 X139.101 Y126.497 E0.02434
G1 X137.798 Y127.297 E0.04843
G1 X136.449 Y128.020 E0.04848
G1 X135.129 Y128.629 E0.04602
G1 X134.348 Y128.950 E0.02675
G1 X132.907 Y129.464 E0.04844
G1 X131.512 Y129.870 E0.04602
G1 X130.692 Y130.072 E0.02675
G1 X129.191 Y130.366 E0.04844
G1 X127.675 Y130.570 E0.04843
G1 X126.909 Y130.639 E0.02434
G1 X125.381 Y130.707 E0.04843
G1 X123.928 Y130.687 E0.04602
G1 X123.085 Y130.639 E0.02675
G1 X121.564 Y130.480 E0.04844
G1 X120.130 Y130.244 E0.04602
G1 X119.303 Y130.071 E0.02675
G1 X117.822 Y129.688 E0.04844
G1 X116.439 Y129.242 E0.04602
G1 X115.647 Y128.949 E0.02675
G1 X114.241 Y128.351 E0.04839
G1 X113.547 Y128.019 E0.02434
G1 X112.199 Y127.297 E0.04843
G1 X110.894 Y126.496 E0.04848
G1 X109.641 Y125.619 E0.04843
G1 X109.032 Y125.151 E0.02434
G1 X107.863 Y124.167 E0.04838
G1 X107.298 Y123.646 E0.02434
G1 X106.220 Y122.561 E0.04843
G1 X105.209 Y121.413 E0.04843
G1 X104.727 Y120.814 E0.02434
G1 X103.823 Y119.581 E0.04843
G1 X102.993 Y118.296 E0.04843
G1 X102.607 Y117.633 E0.02429
G1 X102.240 Y116.960 E0.02429
G1 X101.569 Y115.585 E0.04843
G1 X100.980 Y114.172 E0.04848
G1 X100.501 Y112.800 E0.04602
G1 X100.257 Y111.991 E0.02675
G1 X99.885 Y110.508 E0.04844
G1 X99.602 Y109.003 E0.04848
G1 X99.418 Y107.562 E0.04602
G1 X99.346 Y106.720 E0.02675
G1 X99.289 Y105.191 E0.04844
G1 X99.323 Y103.662 E0.04843
G1 X99.375 Y102.895 E0.02434
G1 X99.545 Y101.376 E0.04843
G1 X99.792 Y99.943 E0.04602
G1 X99.970 Y99.118 E0.02675
G1 X100.365 Y97.640 E0.04844
G1 X100.846 Y96.188 E0.04843
G1 X101.120 Y95.470 E0.02434
G1 X101.697 Y94.138 E0.04597
G1 X102.065 Y93.378 E0.02675
G1 X102.797 Y92.035 E0.04844
G1 X103.608 Y90.736 E0.04848
G1 X104.494 Y89.490 E0.04843
G1 X104.955 Y88.899 E0.02373
G1 X104.847 Y88.480 F7200.000
G1 E-2.40000 F4800.00000
G1 F5760
G1 X105.456 Y88.294 E-0.62131
G1 F5760
G1 X106.219 Y87.454 E-0.89869
G1 E-0.08000 F4800.00000
G1 Z0.800 F7200.000
G1 X64.521 Y56.694 F7200.000
G1 Z0.200 F7200.000
G1 E4.00000 F3000.00000
G1 F1800
G1 X65.275 Y55.747 E0.03835
G1 X66.902 Y53.840 E0.07937
G1 X67.869 Y52.761 E0.04586
G1 X68.764 Y51.798 E0.04165
G1 X70.612 Y49.911 E0.08364
G1 X71.554 Y48.996 E0.04158
G1 X73.494 Y47.207 E0.08356
G1 X75.491 Y45.487 E0.08348
G1 X77.548 Y43.834 E0.08356
G1 X78.595 Y43.037 E0.04166
G1 X79.655 Y42.257 E0.04166
G1 X81.821 Y40.747 E0.08364
G1 X82.917 Y40.024 E0.04158
G1 X85.158 Y38.626 E0.08364
G1 X86.290 Y37.960 E0.04158
G1 X88.599 Y36.678 E0.08364
G1 X89.764 Y36.071 E0.04158
G1 X92.133 Y34.910 E0.08357
G1 X94.420 Y33.884 E0.07937
G1 X95.755 Y33.323 E0.04586
G1 X96.977 Y32.837 E0.04165
G1 X99.455 Y31.923 E0.08364
G1 X100.699 Y31.500 E0.04158
G1 X103.218 Y30.714 E0.08356
G1 X105.762 Y30.015 E0.08356
G1 X107.039 Y29.699 E0.04166
G1 X108.321 Y29.405 E0.04166
G1 X110.910 Y28.880 E0.08364
G1 X112.203 Y28.652 E0.04158
G1 X114.813 Y28.260 E0.08357
G1 X117.302 Y27.972 E0.07937
G1 X118.745 Y27.840 E0.04586
G1 X120.056 Y27.745 E0.04165
G1 X122.695 Y27.621 E0.08364
G1 X124.008 Y27.593 E0.04159
G1 X126.516 Y27.603 E0.07945
G1 X127.964 Y27.644 E0.04586
G1 X130.593 Y27.790 E0.08339
G1 X133.224 Y28.025 E0.08364
G1 X134.528 Y28.176 E0.04158
G1 X137.141 Y28.545 E0.08357
G1 X139.610 Y28.980 E0.07937
G1 X141.027 Y29.265 E0.04579
G1 X143.601 Y29.855 E0.08363
G1 X146.144 Y30.531 E0.08332
G1 X148.672 Y31.296 E0.08364
G1 X149.919 Y31.708 E0.04158
G1 X152.405 Y32.601 E0.08364
G1 X153.629 Y33.076 E0.04158
G1 X156.066 Y34.094 E0.08364
G1 X157.264 Y34.632 E0.04158
G1 X159.643 Y35.772 E0.08356
G1 X161.982 Y36.993 E0.08356
G1 X163.131 Y37.630 E0.04159
G1 X165.293 Y38.902 E0.07945
G1 X166.523 Y39.667 E0.04586
G1 X167.627 Y40.382 E0.04165
G1 X169.805 Y41.872 E0.08356
G1 X171.928 Y43.434 E0.08348
G1 X173.999 Y45.069 E0.08356
G1 X176.008 Y46.769 E0.08332
G1 X177.964 Y48.543 E0.08364
G1 X178.914 Y49.450 E0.04158
G1 X180.776 Y51.320 E0.08357
G1 X182.484 Y53.154 E0.07937
G1 X183.443 Y54.236 E0.04579
G1 X185.056 Y56.157 E0.07944
G1 X185.959 Y57.286 E0.04579
G1 X187.551 Y59.393 E0.08363
G1 X189.065 Y61.545 E0.08332
G1 X190.508 Y63.754 E0.08356
G1 X191.876 Y66.011 E0.08356
G1 X193.162 Y68.306 E0.08332
G1 X194.374 Y70.653 E0.08364
G1 X194.947 Y71.834 E0.04159
G1 X195.984 Y74.119 E0.07945
G1 X196.550 Y75.452 E0.04586
G1 X197.042 Y76.672 E0.04165
G1 X197.966 Y79.144 E0.08356
G1 X198.805 Y81.645 E0.08356
G1 X199.190 Y82.901 E0.04159
G1 X199.866 Y85.317 E0.07945
G1 X200.222 Y86.718 E0.04579
G1 X200.774 Y89.165 E0.07943
G1 X201.057 Y90.583 E0.04579
G1 X201.505 Y93.185 E0.08363
G1 X201.862 Y95.792 E0.08332
G1 X202.131 Y98.417 E0.08357
G1 X202.303 Y100.918 E0.07937
G1 X202.367 Y102.362 E0.04579
G1 X202.411 Y105.002 E0.08363
G1 X202.400 Y106.318 E0.04166
G1 X202.367 Y107.633 E0.04166
G1 X202.232 Y110.271 E0.08364
G1 X202.131 Y111.580 E0.04158
G1 X201.862 Y114.205 E0.08356
G1 X201.504 Y116.819 E0.08356
G1 X201.058 Y119.413 E0.08333
G1 X200.550 Y121.870 E0.07945
G1 X200.222 Y123.280 E0.04587
G1 X199.901 Y124.556 E0.04165
G1 X199.227 Y126.972 E0.07945
G1 X198.804 Y128.355 E0.04579
G1 X198.008 Y130.734 E0.07943
G1 X197.515 Y132.096 E0.04587
G1 X197.044 Y133.324 E0.04165
