; generated by Slic3r Prusa Edition 1.41.2+win64 on 2019-10-25 at 19:38:20

; 

; external perimeters extrusion width = 0.45mm
; perimeters extrusion width = 0.45mm
; infill extrusion width = 0.45mm
; solid infill extrusion width = 0.45mm
; top infill extrusion width = 0.40mm
; first layer extrusion width = 0.42mm

M201 X9000 Y9000 Z500 E10000 ; sets maximum accelerations, mm/sec^2
M203 X500 Y500 Z12 E120 ; sets maximum feedrates, mm/sec
M204 P2000 R1500 T2000 ; sets acceleration (P, T) and retract acceleration (R), mm/sec^2
M205 X10.00 Y10.00 Z0.20 E2.50 ; sets the jerk limits, mm/sec
M205 S0 T0 ; sets the minimum extruding and travel feed rate, mm/sec
M107
M115 U3.1.0 ; tell printer latest fw version
M204 S2000 T1500 ; MK2 firmware only supports the old M204 format
; Start G-Code sequence START
T2
M104 S255 ; set extruder temp
M140 S100 ; set bed temp
M190 S100 ; wait for bed temp
M109 S255 ; wait for extruder temp
G21 ; set units to millimeters
G90 ; use absolute coordinates
M83 ; use relative distances for extrusion
G28 W
G80
G92 E0.0
M203 E100 ; set max feedrate
M92 E140 ; E-steps per filament milimeter

G1 Z0.250 F7200.000
G1 X50.0 E80.0  F1000.0
G1 X160.0 E20.0  F1000.0
G1 Z0.200 F7200.000
G1 X220.0 E13 F1000.0
G1 X240.0 E0 F1000.0

G92 E0.0
M900 K200; Filament gcode
G21 ; set units to millimeters
G90 ; use absolute coordinates
M83 ; use relative distances for extrusion
T2
M900 K200; Filament gcode
;BEFORE_LAYER_CHANGE
G92 E0.0
;0.2


G1 Z0.200 F10800.000
;AFTER_LAYER_CHANGE
;0.2
G1 E-4.00000 F4800.00000
G1 Z0.800 F10800.000
G1 X237.750 Y21.387
G1 Z0.200
G1 E4.00000 F3000.00000
M204 S1000
G1 F1200
G1 X238.309 Y22.205 E0.03107
G1 X238.516 Y23.174 E0.03107
G1 X238.516 Y113.247 E2.82417
G1 X238.434 Y113.858 E0.01931
G1 X238.212 Y114.428 E0.01919
G1 X237.860 Y114.929 E0.01919
G1 X237.397 Y115.334 E0.01931
G1 X236.843 Y115.621 E0.01956
G1 X236.236 Y115.765 E0.01956
G1 X233.611 Y115.759 E0.08231
G1 X121.924 Y100.756 E3.53332
G1 X121.410 Y100.627 E0.01660
G1 X120.931 Y100.394 E0.01672
G1 X120.510 Y100.067 E0.01672
G1 X120.165 Y99.660 E0.01672
G1 X119.837 Y98.983 E0.02361
G1 X119.720 Y98.235 E0.02374
G1 X119.720 Y38.188 E1.88273
G1 X119.800 Y37.577 E0.01931
G1 X120.024 Y37.003 E0.01931
G1 X120.375 Y36.502 E0.01919
G1 X120.839 Y36.097 E0.01931
G1 X121.363 Y35.821 E0.01857
G1 X121.936 Y35.674 E0.01857
G1 X233.609 Y20.673 E3.53285
G1 X235.954 Y20.650 E0.07355
G1 X236.923 Y20.841 E0.03095
G1 X237.700 Y21.354 E0.02919
; PURGING FINISHED
G1 E-2.40000 F4800.00000
G1 F8640
G1 X238.309 Y22.205 E-0.55243
G1 X238.516 Y23.174 E-0.52300
G1 X238.516 Y24.017 E-0.44457
G1 E-0.08000 F4800.00000
G1 Z0.800 F10800.000
G1 X190.311 Y62.378
G1 Z0.200
G1 E4.00000 F3000.00000
G1 F1200
G1 X190.311 Y74.053 E0.36603
G1 X179.137 Y74.053 E0.35036
G1 X179.137 Y62.378 E0.36603
G1 X190.251 Y62.378 E0.34848
G1 X189.934 Y62.755 F10800.000
G1 F1200
G1 X189.934 Y73.675 E0.34239
G1 X179.514 Y73.675 E0.32671
G1 X179.514 Y62.755 E0.34239
G1 X189.874 Y62.755 E0.32483
G1 X190.319 Y62.649 F10800.000
G1 E-2.40000 F4800.00000
G1 F8640
G1 X189.890 Y65.635 E-1.52000
G1 E-0.08000 F4800.00000
G1 Z0.800 F10800.000
G1 X196.637 Y64.044
G1 Z0.200
G1 E4.00000 F3000.00000
G1 F1200
G1 X196.637 Y72.387 E0.26158
G1 X233.976 Y83.803 E1.22424
G1 X235.363 Y83.803 E0.04349
G1 X235.363 Y112.628 E0.90381
G1 X234.193 Y112.628 E0.03668
G1 X231.537 Y109.972 E0.11778
G1 X231.537 Y97.515 E0.39060
G1 X158.316 Y75.128 E2.40072
G1 X129.698 Y75.128 E0.89728
G1 X129.698 Y94.972 E0.62219
G1 X127.042 Y97.628 E0.11778
G1 X122.872 Y97.628 E0.13074
G1 X122.872 Y38.803 E1.84444
G1 X127.042 Y38.803 E0.13074
G1 X129.698 Y41.459 E0.11778
G1 X129.698 Y61.303 E0.62219
G1 X158.316 Y61.303 E0.89728
G1 X231.537 Y38.916 E2.40072
G1 X231.537 Y26.459 E0.39060
G1 X234.193 Y23.803 E0.11778
G1 X235.363 Y23.803 E0.03668
G1 X235.363 Y52.628 E0.90381
G1 X233.976 Y52.628 E0.04349
G1 X196.694 Y64.027 E1.22236
G1 X197.014 Y64.323 F10800.000
G1 F1200
G1 X197.014 Y72.108 E0.24408
G1 X234.032 Y83.425 E1.21373
G1 X235.740 Y83.425 E0.05355
G1 X235.740 Y113.005 E0.92746
G1 X234.037 Y113.005 E0.05340
G1 X231.160 Y110.129 E0.12757
G1 X231.160 Y97.794 E0.38675
G1 X158.259 Y75.505 E2.39020
G1 X130.075 Y75.505 E0.88369
G1 X130.075 Y95.129 E0.61527
G1 X127.198 Y98.005 E0.12757
G1 X122.495 Y98.005 E0.14746
G1 X122.495 Y38.425 E1.86809
G1 X127.198 Y38.425 E0.14746
G1 X130.075 Y41.302 E0.12757
G1 X130.075 Y60.925 E0.61527
G1 X158.259 Y60.925 E0.88369
G1 X231.160 Y38.637 E2.39020
G1 X231.160 Y26.302 E0.38675
G1 X234.037 Y23.425 E0.12757
G1 X235.740 Y23.425 E0.05340
G1 X235.740 Y53.005 E0.92746
G1 X234.032 Y53.005 E0.05355
G1 X197.071 Y64.306 E1.21184
G1 X196.616 Y64.361 F10800.000
G1 E-2.40000 F4800.00000
G1 F8640
G1 X197.050 Y67.186 E-1.52000
G1 E-0.08000 F4800.00000
G1 Z0.800 F10800.000
G1 X196.524 Y68.771
G1 Z0.200
G1 E4.00000 F3000.00000
G1 F1200
G1 X190.594 Y62.841 E0.26346
G1 X190.594 Y63.375 E0.01679
G1 X196.354 Y69.135 E0.25592
G1 X196.354 Y69.670 E0.01679
G1 X190.594 Y63.910 E0.25592
G1 X190.594 Y64.444 E0.01679
G1 X196.354 Y70.204 E0.25592
G1 X196.354 Y70.738 E0.01679
G1 X190.594 Y64.978 E0.25592
G1 X190.594 Y65.512 E0.01679
G1 X196.354 Y71.273 E0.25592
G1 X196.354 Y71.807 E0.01679
G1 X190.594 Y66.047 E0.25592
G1 X190.594 Y66.581 E0.01679
G1 X216.693 Y92.681 E1.15954
G1 X217.463 Y92.916 E0.02528
G1 X197.490 Y72.944 E0.88733
G1 X198.260 Y73.179 E0.02528
G1 X218.232 Y93.151 E0.88733
G1 X219.002 Y93.386 E0.02528
G1 X199.030 Y73.414 E0.88733
G1 X199.799 Y73.649 E0.02528
G1 X219.772 Y93.622 E0.88733
G1 X220.541 Y93.857 E0.02528
G1 X200.569 Y73.885 E0.88733
G1 X201.338 Y74.120 E0.02528
G1 X221.311 Y94.092 E0.88733
G1 X222.080 Y94.328 E0.02528
G1 X202.108 Y74.355 E0.88733
G1 X202.878 Y74.591 E0.02528
G1 X222.850 Y94.563 E0.88733
G1 X223.620 Y94.798 E0.02528
G1 X203.647 Y74.826 E0.88733
G1 X204.417 Y75.061 E0.02528
G1 X224.389 Y95.033 E0.88733
G1 X225.159 Y95.269 E0.02528
G1 X205.186 Y75.296 E0.88733
G1 X205.956 Y75.532 E0.02528
G1 X225.928 Y95.504 E0.88733
G1 X226.698 Y95.739 E0.02528
G1 X206.726 Y75.767 E0.88733
G1 X207.495 Y76.002 E0.02528
G1 X227.468 Y95.975 E0.88733
G1 X228.237 Y96.210 E0.02528
G1 X208.265 Y76.238 E0.88733
G1 X209.034 Y76.473 E0.02528
G1 X229.007 Y96.445 E0.88733
G1 X229.776 Y96.680 E0.02528
G1 X209.804 Y76.708 E0.88733
G1 X210.574 Y76.943 E0.02528
G1 X230.546 Y96.916 E0.88733
G1 X231.316 Y97.151 E0.02528
G1 X211.343 Y77.179 E0.88733
G1 X212.113 Y77.414 E0.02528
G1 X235.080 Y100.382 E1.02040
G1 X235.080 Y99.847 E0.01679
G1 X212.882 Y77.649 E0.98621
G1 X213.652 Y77.885 E0.02528
G1 X235.080 Y99.313 E0.95202
G1 X235.080 Y98.779 E0.01679
G1 X214.422 Y78.120 E0.91783
G1 X215.191 Y78.355 E0.02528
G1 X235.080 Y98.244 E0.88363
G1 X235.080 Y97.710 E0.01679
G1 X215.961 Y78.590 E0.84944
G1 X216.730 Y78.826 E0.02528
G1 X235.080 Y97.176 E0.81525
G1 X235.080 Y96.641 E0.01679
G1 X217.500 Y79.061 E0.78106
G1 X218.270 Y79.296 E0.02528
G1 X235.080 Y96.107 E0.74687
G1 X235.080 Y95.573 E0.01679
G1 X219.039 Y79.532 E0.71268
G1 X219.809 Y79.767 E0.02528
G1 X235.080 Y95.039 E0.67848
G1 X235.080 Y94.504 E0.01679
G1 X220.578 Y80.002 E0.64429
G1 X221.348 Y80.237 E0.02528
G1 X235.080 Y93.970 E0.61010
G1 X235.080 Y93.436 E0.01679
G1 X222.118 Y80.473 E0.57591
G1 X222.887 Y80.708 E0.02528
G1 X235.080 Y92.901 E0.54172
G1 X235.080 Y92.367 E0.01679
G1 X223.657 Y80.943 E0.50753
G1 X224.426 Y81.179 E0.02528
G1 X235.080 Y91.833 E0.47334
G1 X235.080 Y91.298 E0.01679
G1 X225.196 Y81.414 E0.43914
G1 X225.966 Y81.649 E0.02528
G1 X235.080 Y90.764 E0.40495
G1 X235.080 Y90.230 E0.01679
G1 X226.735 Y81.885 E0.37076
G1 X227.505 Y82.120 E0.02528
G1 X235.080 Y89.695 E0.33657
G1 X235.080 Y89.161 E0.01679
G1 X228.274 Y82.355 E0.30238
G1 X229.044 Y82.590 E0.02528
G1 X235.080 Y88.627 E0.26819
G1 X235.080 Y88.092 E0.01679
G1 X229.814 Y82.826 E0.23399
G1 X230.583 Y83.061 E0.02528
G1 X235.080 Y87.558 E0.19980
G1 X235.080 Y87.024 E0.01679
G1 X231.353 Y83.296 E0.16561
G1 X232.122 Y83.532 E0.02528
G1 X235.080 Y86.490 E0.13142
G1 X235.080 Y85.955 E0.01679
G1 X232.892 Y83.767 E0.09723
G1 X233.662 Y84.002 E0.02528
G1 X235.080 Y85.421 E0.06304
G1 X235.080 Y84.887 E0.01679
G1 X234.279 Y84.085 E0.03560
G1 X234.813 Y84.085 E0.01679
G1 X235.250 Y84.522 E0.01940
G1 E-2.40000 F4800.00000
G1 F8640
G1 X234.813 Y84.085 E-0.32592
G1 X234.279 Y84.085 E-0.28200
G1 X235.080 Y84.887 E-0.59808
G1 X235.080 Y85.421 E-0.28200
G1 X235.037 Y85.378 E-0.03201
G1 E-0.08000 F4800.00000
G1 Z0.800 F10800.000
G1 X235.250 Y101.086
G1 Z0.200
G1 E4.00000 F3000.00000
G1 F1200
G1 X231.820 Y97.656 E0.15239
G1 X231.820 Y98.190 E0.01679
G1 X235.080 Y101.450 E0.14485
G1 X235.080 Y101.985 E0.01679
G1 X231.820 Y98.724 E0.14485
G1 X231.820 Y99.259 E0.01679
G1 X235.080 Y102.519 E0.14485
G1 X235.080 Y103.053 E0.01679
G1 X231.820 Y99.793 E0.14485
G1 X231.820 Y100.327 E0.01679
G1 X235.080 Y103.587 E0.14485
G1 X235.080 Y104.122 E0.01679
G1 X231.820 Y100.861 E0.14485
G1 X231.820 Y101.396 E0.01679
G1 X235.080 Y104.656 E0.14485
G1 X235.080 Y105.190 E0.01679
G1 X231.820 Y101.930 E0.14485
G1 X231.820 Y102.464 E0.01679
G1 X235.080 Y105.725 E0.14485
G1 X235.080 Y106.259 E0.01679
G1 X231.820 Y102.999 E0.14485
G1 X231.820 Y103.533 E0.01679
G1 X235.080 Y106.793 E0.14485
G1 X235.080 Y107.328 E0.01679
G1 X231.820 Y104.067 E0.14485
G1 X231.820 Y104.602 E0.01679
G1 X235.080 Y107.862 E0.14485
G1 X235.080 Y108.396 E0.01679
G1 X231.820 Y105.136 E0.14485
G1 X231.820 Y105.670 E0.01679
G1 X235.080 Y108.931 E0.14485
G1 X235.080 Y109.465 E0.01679
G1 X231.820 Y106.205 E0.14485
G1 X231.820 Y106.739 E0.01679
G1 X235.080 Y109.999 E0.14485
G1 X235.080 Y110.533 E0.01679
G1 X231.820 Y107.273 E0.14485
G1 X231.820 Y107.807 E0.01679
G1 X235.080 Y111.068 E0.14485
G1 X235.080 Y111.602 E0.01679
G1 X231.820 Y108.342 E0.14485
G1 X231.820 Y108.876 E0.01679
G1 X235.080 Y112.136 E0.14485
G1 X235.080 Y112.346 E0.00657
G1 X234.755 Y112.346 E0.01021
G1 X231.650 Y109.241 E0.13794
G1 E-2.40000 F4800.00000
G1 F8640
G1 X233.687 Y111.277 E-1.52000
G1 E-0.08000 F4800.00000
G1 Z0.800 F10800.000
G1 X216.179 Y92.701
G1 Z0.200
G1 E4.00000 F3000.00000
G1 F1200
G1 X190.594 Y67.115 E1.13671
G1 X190.594 Y67.650 E0.01679
G1 X215.154 Y92.210 E1.09116
G1 X214.384 Y91.975 E0.02528
G1 X190.594 Y68.184 E1.05697
G1 X190.594 Y68.718 E0.01679
G1 X213.615 Y91.739 E1.02278
G1 X212.845 Y91.504 E0.02528
G1 X190.594 Y69.253 E0.98859
G1 X190.594 Y69.787 E0.01679
G1 X212.076 Y91.269 E0.95439
G1 X211.306 Y91.034 E0.02528
G1 X190.594 Y70.321 E0.92020
G1 X190.594 Y70.856 E0.01679
G1 X210.536 Y90.798 E0.88601
G1 X209.767 Y90.563 E0.02528
G1 X190.594 Y71.390 E0.85182
G1 X190.594 Y71.924 E0.01679
G1 X208.997 Y90.328 E0.81763
G1 X208.228 Y90.092 E0.02528
G1 X190.594 Y72.458 E0.78344
G1 X190.594 Y72.993 E0.01679
G1 X207.458 Y89.857 E0.74924
G1 X206.688 Y89.622 E0.02528
G1 X190.594 Y73.527 E0.71505
G1 X190.594 Y74.061 E0.01679
G1 X205.919 Y89.386 E0.68086
G1 X205.149 Y89.151 E0.02528
G1 X190.333 Y74.335 E0.65824
G1 X189.799 Y74.335 E0.01679
G1 X204.380 Y88.916 E0.64778
G1 X203.610 Y88.681 E0.02528
G1 X189.265 Y74.335 E0.63733
G1 X188.730 Y74.335 E0.01679
G1 X202.840 Y88.445 E0.62688
G1 X202.071 Y88.210 E0.02528
G1 X188.196 Y74.335 E0.61642
G1 X187.662 Y74.335 E0.01679
G1 X201.301 Y87.975 E0.60597
G1 X200.532 Y87.739 E0.02528
G1 X187.128 Y74.335 E0.59552
G1 X186.593 Y74.335 E0.01679
G1 X199.762 Y87.504 E0.58506
G1 X198.992 Y87.269 E0.02528
G1 X186.059 Y74.335 E0.57461
G1 X185.525 Y74.335 E0.01679
G1 X198.223 Y87.034 E0.56416
G1 X197.453 Y86.798 E0.02528
G1 X184.990 Y74.335 E0.55370
G1 X184.456 Y74.335 E0.01679
G1 X196.684 Y86.563 E0.54325
G1 X195.914 Y86.328 E0.02528
G1 X183.922 Y74.335 E0.53280
G1 X183.387 Y74.335 E0.01679
G1 X195.144 Y86.092 E0.52234
G1 X194.375 Y85.857 E0.02528
G1 X182.853 Y74.335 E0.51189
G1 X182.319 Y74.335 E0.01679
G1 X193.605 Y85.622 E0.50143
G1 X192.836 Y85.387 E0.02528
G1 X181.784 Y74.335 E0.49098
G1 X181.250 Y74.335 E0.01679
G1 X192.066 Y85.151 E0.48053
G1 X191.296 Y84.916 E0.02528
G1 X180.716 Y74.335 E0.47007
G1 X180.181 Y74.335 E0.01679
G1 X190.527 Y84.681 E0.45962
G1 X189.757 Y84.445 E0.02528
G1 X179.477 Y74.166 E0.45671
G1 X179.024 Y73.712 F10800.000
G1 F1200
G1 X164.898 Y59.586 E0.62758
G1 X165.307 Y59.461 E0.01344
G1 X178.854 Y73.008 E0.60187
G1 X178.854 Y72.474 E0.01679
G1 X165.716 Y59.336 E0.58369
G1 X166.125 Y59.211 E0.01344
G1 X178.854 Y71.939 E0.56551
G1 X178.854 Y71.405 E0.01679
G1 X166.535 Y59.085 E0.54733
G1 X166.944 Y58.960 E0.01344
G1 X178.854 Y70.871 E0.52915
G1 X178.854 Y70.336 E0.01679
G1 X167.353 Y58.835 E0.51097
G1 X167.762 Y58.710 E0.01344
G1 X178.854 Y69.802 E0.49279
G1 X178.854 Y69.268 E0.01679
G1 X168.171 Y58.585 E0.47461
G1 X168.581 Y58.460 E0.01344
G1 X178.854 Y68.733 E0.45643
G1 X178.854 Y68.199 E0.01679
G1 X168.990 Y58.335 E0.43825
G1 X169.399 Y58.210 E0.01344
G1 X178.854 Y67.665 E0.42007
G1 X178.854 Y67.130 E0.01679
G1 X169.808 Y58.085 E0.40189
G1 X170.217 Y57.960 E0.01344
G1 X178.854 Y66.596 E0.38371
G1 X178.854 Y66.062 E0.01679
G1 X170.627 Y57.834 E0.36553
G1 X171.036 Y57.709 E0.01344
G1 X178.854 Y65.528 E0.34735
G1 X178.854 Y64.993 E0.01679
G1 X171.445 Y57.584 E0.32917
G1 X171.854 Y57.459 E0.01344
G1 X178.854 Y64.459 E0.31099
G1 X178.854 Y63.925 E0.01679
G1 X172.263 Y57.334 E0.29281
G1 X172.673 Y57.209 E0.01344
G1 X178.854 Y63.390 E0.27463
G1 X178.854 Y62.856 E0.01679
G1 X173.082 Y57.084 E0.25645
G1 X173.491 Y56.959 E0.01344
G1 X178.854 Y62.322 E0.23827
G1 X178.854 Y62.096 E0.00710
G1 X179.162 Y62.096 E0.00968
G1 X173.900 Y56.834 E0.23378
G1 X174.309 Y56.708 E0.01344
G1 X179.697 Y62.096 E0.23934
G1 X180.231 Y62.096 E0.01679
G1 X174.719 Y56.583 E0.24490
G1 X175.128 Y56.458 E0.01344
G1 X180.765 Y62.096 E0.25046
G1 X181.299 Y62.096 E0.01679
G1 X175.537 Y56.333 E0.25601
G1 X175.946 Y56.208 E0.01344
G1 X181.834 Y62.096 E0.26157
G1 X182.368 Y62.096 E0.01679
G1 X176.355 Y56.083 E0.26713
G1 X176.765 Y55.958 E0.01344
G1 X182.902 Y62.096 E0.27269
G1 X183.437 Y62.096 E0.01679
G1 X177.174 Y55.833 E0.27825
G1 X177.583 Y55.708 E0.01344
G1 X183.971 Y62.096 E0.28381
G1 X184.505 Y62.096 E0.01679
G1 X177.992 Y55.583 E0.28936
G1 X178.401 Y55.457 E0.01344
G1 X185.040 Y62.096 E0.29492
G1 X185.574 Y62.096 E0.01679
G1 X178.811 Y55.332 E0.30048
G1 X179.220 Y55.207 E0.01344
G1 X186.108 Y62.096 E0.30604
G1 X186.643 Y62.096 E0.01679
G1 X179.629 Y55.082 E0.31160
G1 X180.038 Y54.957 E0.01344
G1 X187.177 Y62.096 E0.31715
G1 X187.711 Y62.096 E0.01679
G1 X180.447 Y54.832 E0.32271
G1 X180.857 Y54.707 E0.01344
G1 X188.245 Y62.096 E0.32827
G1 X188.780 Y62.096 E0.01679
G1 X181.266 Y54.582 E0.33383
G1 X181.675 Y54.457 E0.01344
G1 X189.314 Y62.096 E0.33939
G1 X189.848 Y62.096 E0.01679
G1 X182.084 Y54.331 E0.34495
G1 X182.493 Y54.206 E0.01344
G1 X196.354 Y68.067 E0.61579
G1 X196.354 Y67.533 E0.01679
G1 X182.903 Y54.081 E0.59761
G1 X183.312 Y53.956 E0.01344
G1 X196.354 Y66.998 E0.57943
G1 X196.354 Y66.464 E0.01679
G1 X183.721 Y53.831 E0.56125
G1 X184.130 Y53.706 E0.01344
G1 X196.354 Y65.930 E0.54307
G1 X196.354 Y65.395 E0.01679
G1 X184.539 Y53.581 E0.52489
G1 X184.949 Y53.456 E0.01344
G1 X196.354 Y64.861 E0.50671
G1 X196.354 Y64.327 E0.01679
G1 X185.358 Y53.331 E0.48853
G1 X185.767 Y53.206 E0.01344
G1 X196.387 Y63.825 E0.47180
G1 X196.796 Y63.700 E0.01344
G1 X186.176 Y53.080 E0.47180
G1 X186.585 Y52.955 E0.01344
G1 X197.205 Y63.575 E0.47180
G1 X197.614 Y63.450 E0.01344
G1 X186.995 Y52.830 E0.47180
G1 X187.404 Y52.705 E0.01344
G1 X198.023 Y63.325 E0.47180
G1 X198.433 Y63.199 E0.01344
G1 X187.813 Y52.580 E0.47180
G1 X188.222 Y52.455 E0.01344
G1 X198.842 Y63.074 E0.47180
G1 X199.251 Y62.949 E0.01344
G1 X188.631 Y52.330 E0.47180
G1 X189.041 Y52.205 E0.01344
G1 X199.660 Y62.824 E0.47180
G1 X200.069 Y62.699 E0.01344
G1 X189.450 Y52.080 E0.47180
G1 X189.859 Y51.954 E0.01344
G1 X200.479 Y62.574 E0.47180
G1 X200.888 Y62.449 E0.01344
G1 X190.268 Y51.829 E0.47180
G1 X190.678 Y51.704 E0.01344
G1 X201.297 Y62.324 E0.47180
G1 X201.706 Y62.199 E0.01344
G1 X191.087 Y51.579 E0.47180
G1 X191.496 Y51.454 E0.01344
G1 X202.115 Y62.074 E0.47180
G1 X202.525 Y61.948 E0.01344
G1 X191.905 Y51.329 E0.47180
G1 X192.314 Y51.204 E0.01344
G1 X202.934 Y61.823 E0.47180
