; generated by PrusaSlicer 2.1.0+win64 on 2019-10-28 at 14:47:53 UTC

; 

; external perimeters extrusion width = 0.60mm
; perimeters extrusion width = 0.43mm
; infill extrusion width = 0.45mm
; solid infill extrusion width = 0.70mm
; top infill extrusion width = 0.43mm
; first layer extrusion width = 0.42mm

M73 P0 R216
M201 X9000 Y9000 Z500 E10000 ; sets maximum accelerations, mm/sec^2
M203 X500 Y500 Z12 E120 ; sets maximum feedrates, mm/sec
M204 P2000 R1500 T2000 ; sets acceleration (P, T) and retract acceleration (R), mm/sec^2
M205 X10.00 Y10.00 Z0.20 E2.50 ; sets the jerk limits, mm/sec
M205 S0 T0 ; sets the minimum extruding and travel feed rate, mm/sec
M107
M862.3 P "MK2SMM" ; printer model check
M862.1 P0.4 ; nozzle diameter check
M115 U3.2.3 ; tell printer latest fw version
M204 S2000 T1500 ; MK2 firmware only supports the old M204 format
; Start G-Code sequence START
T2
M104 S255 ; set extruder temp
M140 S100 ; set bed temp
M190 S100 ; wait for bed temp
M109 S255 ; wait for extruder temp
G21 ; set units to millimeters
G90 ; use absolute coordinates
M83 ; use relative distances for extrusion
G28 W
G80
G92 E0.0
M203 E100 ; set max feedrate
M92 E140 ; E-steps per filament milimeter

G1 Z0.250 F7200.000
G1 X50.0 E80.0 F1000.0
M73 P0 R216
G1 X160.0 E20.0 F1000.0
G1 Z0.200 F7200.000
G1 X220.0 E13 F1000.0
G1 X240.0 E0 F1000.0

G92 E0.0
G21 ; set units to millimeters
G90 ; use absolute coordinates
M83 ; use relative distances for extrusion
T2
M900 K200 ; Filament gcode
;BEFORE_LAYER_CHANGE
G92 E0.0
;0.2


G1 Z0.200 F10800.000
;AFTER_LAYER_CHANGE
;0.2
G1 E-4.00000 F4800.00000
G1 Z0.800 F10800.000
G1 X29.986 Y35.320
G1 Z0.200
G1 E4.00000 F3000.00000
M204 S1000
G1 F1200
G1 X30.763 Y35.077 E0.02552
G1 X104.300 Y27.156 E2.31902
G1 X156.450 Y27.151 E1.63515
G1 X156.943 Y27.208 E0.01555
G1 X157.413 Y27.376 E0.01567
G1 X218.908 Y57.906 E2.15267
G1 X219.460 Y58.298 E0.02123
G1 X219.866 Y58.840 E0.02123
G1 X220.100 Y59.570 E0.02405
G1 X235.103 Y171.253 E3.53316
G1 X235.100 Y173.825 E0.08064
G1 X234.929 Y174.423 E0.01953
G1 X234.597 Y174.950 E0.01953
G1 X233.978 Y175.451 E0.02496
G1 X233.225 Y175.698 E0.02484
G1 X64.613 Y197.964 E5.33263
G1 X12.373 Y197.974 E1.63793
G1 X11.630 Y197.836 E0.02372
G1 X10.975 Y197.451 E0.02383
G1 X10.654 Y197.111 E0.01464
G1 X10.411 Y196.709 E0.01475
G1 X10.260 Y196.267 E0.01464
G1 X10.207 Y195.799 E0.01475
G1 X10.221 Y81.538 E3.58258
G1 X10.374 Y80.945 E0.01919
G1 X28.997 Y36.407 E1.51363
G1 X29.352 Y35.830 E0.02123
G1 X29.939 Y35.358 E0.02364
G1 E-2.40000 F4800.00000
G1 F8640
G1 X30.763 Y35.077 E-0.45919
G1 X32.761 Y34.862 E-1.06081
G1 E-0.08000 F4800.00000
G1 Z0.800 F10800.000
G1 X182.095 Y116.466
G1 Z0.200
G1 E4.00000 F3000.00000
G1 F1200
G1 X193.769 Y116.466 E0.36603
G1 X193.769 Y128.140 E0.36603
G1 X182.095 Y128.140 E0.36603
G1 X182.095 Y116.526 E0.36415
G1 X182.472 Y116.843 F10800.000
G1 F1200
G1 X193.392 Y116.843 E0.34239
G1 X193.392 Y127.763 E0.34239
G1 X182.472 Y127.763 E0.34239
G1 X182.472 Y116.903 E0.34051
G1 X182.368 Y116.457 F10800.000
G1 E-2.40000 F4800.00000
G1 F8640
G1 X185.352 Y116.887 E-1.52000
G1 E-0.08000 F4800.00000
G1 Z0.800 F10800.000
G1 X194.845 Y67.277
G1 Z0.200
G1 E4.00000 F3000.00000
G1 F1200
G1 X194.845 Y95.895 E0.89728
G1 X217.231 Y169.116 E2.40072
M73 P0 R215
G1 X229.689 Y169.116 E0.39060
G1 X232.345 Y171.773 E0.11778
G1 X232.345 Y172.942 E0.03668
G1 X203.519 Y172.942 E0.90381
G1 X203.519 Y171.555 E0.04349
G1 X192.103 Y134.216 E1.22424
G1 X183.760 Y134.216 E0.26158
G1 X172.345 Y171.555 E1.22424
G1 X172.345 Y172.942 E0.04349
G1 X143.519 Y172.942 E0.90381
G1 X143.519 Y171.773 E0.03668
G1 X146.175 Y169.116 E0.11778
G1 X158.633 Y169.116 E0.39060
G1 X181.019 Y95.895 E2.40072
G1 X181.019 Y67.277 E0.89728
G1 X161.175 Y67.277 E0.62219
G1 X158.519 Y64.621 E0.11778
G1 X158.519 Y60.451 E0.13074
G1 X217.345 Y60.451 E1.84444
G1 X217.345 Y64.621 E0.13074
G1 X214.689 Y67.277 E0.11778
G1 X194.905 Y67.277 E0.62031
G1 X195.222 Y67.654 F10800.000
G1 F1200
G1 X195.222 Y95.838 E0.88369
G1 X217.510 Y168.739 E2.39020
G1 X229.845 Y168.739 E0.38675
G1 X232.722 Y171.616 E0.12757
G1 X232.722 Y173.319 E0.05340
G1 X203.142 Y173.319 E0.92746
G1 X203.142 Y171.612 E0.05355
G1 X191.824 Y134.593 E1.21372
G1 X184.039 Y134.593 E0.24408
G1 X172.722 Y171.612 E1.21372
G1 X172.722 Y173.319 E0.05355
G1 X143.142 Y173.319 E0.92746
G1 X143.142 Y171.616 E0.05340
G1 X146.019 Y168.739 E0.12757
G1 X158.354 Y168.739 E0.38675
G1 X180.642 Y95.838 E2.39020
G1 X180.642 Y67.654 E0.88369
G1 X161.019 Y67.654 E0.61527
G1 X158.142 Y64.777 E0.12757
G1 X158.142 Y60.074 E0.14746
G1 X217.722 Y60.074 E1.86809
G1 X217.722 Y64.777 E0.14746
G1 X214.845 Y67.654 E0.12757
G1 X195.282 Y67.654 E0.61338
G1 X194.822 Y67.671 F10800.000
G1 E-2.40000 F4800.00000
G1 F8640
G1 X195.276 Y70.534 E-1.52000
G1 E-0.08000 F4800.00000
G1 Z0.800 F10800.000
G1 X194.732 Y81.039
G1 Z0.200
G1 E4.00000 F3000.00000
G1 F1200
G1 X181.302 Y67.609 E0.59666
G1 X181.302 Y68.143 E0.01679
G1 X194.562 Y81.403 E0.58913
G1 X194.562 Y81.938 E0.01679
G1 X181.302 Y68.677 E0.58913
G1 X181.302 Y69.212 E0.01679
G1 X194.562 Y82.472 E0.58913
G1 X194.562 Y83.006 E0.01679
G1 X181.302 Y69.746 E0.58913
G1 X181.302 Y70.280 E0.01679
G1 X194.562 Y83.541 E0.58913
G1 X194.562 Y84.075 E0.01679
G1 X181.302 Y70.815 E0.58913
G1 X181.302 Y71.349 E0.01679
G1 X194.562 Y84.609 E0.58913
G1 X194.562 Y85.144 E0.01679
G1 X181.302 Y71.883 E0.58913
G1 X181.302 Y72.418 E0.01679
G1 X194.562 Y85.678 E0.58913
G1 X194.562 Y86.212 E0.01679
G1 X181.302 Y72.952 E0.58913
G1 X181.302 Y73.486 E0.01679
G1 X194.562 Y86.746 E0.58913
G1 X194.562 Y87.281 E0.01679
G1 X181.302 Y74.020 E0.58913
G1 X181.302 Y74.555 E0.01679
G1 X194.562 Y87.815 E0.58913
G1 X194.562 Y88.349 E0.01679
G1 X181.302 Y75.089 E0.58913
M73 P0 R214
G1 X181.302 Y75.623 E0.01679
G1 X194.562 Y88.884 E0.58913
G1 X194.562 Y89.418 E0.01679
G1 X181.302 Y76.158 E0.58913
G1 X181.302 Y76.692 E0.01679
G1 X194.562 Y89.952 E0.58913
G1 X194.562 Y90.487 E0.01679
G1 X181.302 Y77.226 E0.58913
G1 X181.302 Y77.761 E0.01679
G1 X194.562 Y91.021 E0.58913
G1 X194.562 Y91.555 E0.01679
G1 X181.302 Y78.295 E0.58913
G1 X181.302 Y78.829 E0.01679
G1 X194.562 Y92.090 E0.58913
G1 X194.562 Y92.624 E0.01679
G1 X181.302 Y79.364 E0.58913
G1 X181.302 Y79.898 E0.01679
G1 X194.562 Y93.158 E0.58913
G1 X194.562 Y93.692 E0.01679
G1 X181.302 Y80.432 E0.58913
G1 X181.302 Y80.966 E0.01679
G1 X194.562 Y94.227 E0.58913
G1 X194.562 Y94.761 E0.01679
G1 X181.302 Y81.501 E0.58913
G1 X181.302 Y82.035 E0.01679
G1 X194.562 Y95.295 E0.58913
G1 X194.562 Y95.830 E0.01679
G1 X181.302 Y82.569 E0.58913
G1 X181.302 Y83.104 E0.01679
G1 X194.750 Y96.552 E0.59748
G1 X194.985 Y97.322 E0.02528
G1 X181.302 Y83.638 E0.60793
G1 X181.302 Y84.172 E0.01679
G1 X195.220 Y98.091 E0.61839
G1 X195.456 Y98.861 E0.02528
G1 X181.302 Y84.707 E0.62884
G1 X181.302 Y85.241 E0.01679
G1 X195.691 Y99.630 E0.63929
G1 X195.926 Y100.400 E0.02528
G1 X181.302 Y85.775 E0.64975
G1 X181.302 Y86.310 E0.01679
G1 X196.162 Y101.170 E0.66020
G1 X196.397 Y101.939 E0.02528
G1 X181.302 Y86.844 E0.67065
G1 X181.302 Y87.378 E0.01679
G1 X196.632 Y102.709 E0.68111
G1 X196.867 Y103.478 E0.02528
G1 X181.302 Y87.913 E0.69156
G1 X181.302 Y88.447 E0.01679
G1 X197.103 Y104.248 E0.70201
G1 X197.338 Y105.018 E0.02528
G1 X181.302 Y88.981 E0.71247
G1 X181.302 Y89.515 E0.01679
G1 X197.573 Y105.787 E0.72292
G1 X197.809 Y106.557 E0.02528
G1 X181.302 Y90.050 E0.73337
G1 X181.302 Y90.584 E0.01679
G1 X198.044 Y107.326 E0.74383
G1 X198.279 Y108.096 E0.02528
G1 X181.302 Y91.118 E0.75428
G1 X181.302 Y91.653 E0.01679
G1 X198.514 Y108.866 E0.76474
G1 X198.750 Y109.635 E0.02528
G1 X181.302 Y92.187 E0.77519
G1 X181.302 Y92.721 E0.01679
G1 X198.985 Y110.405 E0.78564
G1 X199.220 Y111.174 E0.02528
G1 X181.302 Y93.256 E0.79610
G1 X181.302 Y93.790 E0.01679
G1 X199.456 Y111.944 E0.80655
G1 X199.691 Y112.714 E0.02528
G1 X181.302 Y94.324 E0.81700
G1 X181.302 Y94.859 E0.01679
G1 X199.926 Y113.483 E0.82746
G1 X200.162 Y114.253 E0.02528
G1 X181.302 Y95.393 E0.83791
G1 X181.302 Y95.927 E0.01679
G1 X200.397 Y115.022 E0.84836
G1 X200.632 Y115.792 E0.02528
G1 X181.179 Y96.339 E0.86427
G1 X181.054 Y96.748 E0.01344
G1 X200.867 Y116.562 E0.88028
G1 X201.103 Y117.331 E0.02528
G1 X180.929 Y97.157 E0.89630
G1 X180.803 Y97.566 E0.01344
G1 X201.338 Y118.101 E0.91231
G1 X201.573 Y118.870 E0.02528
G1 X180.678 Y97.975 E0.92832
G1 X180.553 Y98.385 E0.01344
G1 X201.809 Y119.640 E0.94433
G1 X202.044 Y120.410 E0.02528
G1 X180.428 Y98.794 E0.96034
G1 X180.303 Y99.203 E0.01344
G1 X202.279 Y121.179 E0.97635
G1 X202.514 Y121.949 E0.02528
G1 X180.178 Y99.612 E0.99236
G1 X180.053 Y100.021 E0.01344
G1 X202.750 Y122.718 E1.00838
G1 X202.985 Y123.488 E0.02528
G1 X179.928 Y100.431 E1.02439
M73 P1 R213
G1 X179.803 Y100.840 E0.01344
G1 X203.220 Y124.258 E1.04040
G1 X203.456 Y125.027 E0.02528
G1 X179.677 Y101.249 E1.05641
G1 X179.552 Y101.658 E0.01344
G1 X203.691 Y125.797 E1.07242
G1 X203.926 Y126.566 E0.02528
G1 X194.052 Y116.692 E0.43871
G1 X194.052 Y117.226 E0.01679
G1 X204.161 Y127.336 E0.44916
G1 X204.397 Y128.106 E0.02528
G1 X194.052 Y117.760 E0.45962
G1 X194.052 Y118.295 E0.01679
G1 X204.632 Y128.875 E0.47007
G1 X204.867 Y129.645 E0.02528
G1 X194.052 Y118.829 E0.48052
G1 X194.052 Y119.363 E0.01679
G1 X205.103 Y130.414 E0.49098
G1 X205.338 Y131.184 E0.02528
G1 X194.052 Y119.898 E0.50143
G1 X194.052 Y120.432 E0.01679
G1 X205.573 Y131.954 E0.51188
G1 X205.808 Y132.723 E0.02528
G1 X194.052 Y120.966 E0.52234
G1 X194.052 Y121.501 E0.01679
G1 X206.044 Y133.493 E0.53279
G1 X206.279 Y134.262 E0.02528
G1 X194.052 Y122.035 E0.54324
G1 X194.052 Y122.569 E0.01679
G1 X206.514 Y135.032 E0.55370
G1 X206.750 Y135.802 E0.02528
G1 X194.052 Y123.103 E0.56415
G1 X194.052 Y123.638 E0.01679
G1 X206.985 Y136.571 E0.57460
G1 X207.220 Y137.341 E0.02528
G1 X194.052 Y124.172 E0.58506
G1 X194.052 Y124.706 E0.01679
G1 X207.456 Y138.110 E0.59551
G1 X207.691 Y138.880 E0.02528
G1 X194.052 Y125.241 E0.60596
G1 X194.052 Y125.775 E0.01679
G1 X207.926 Y139.650 E0.61642
G1 X208.161 Y140.419 E0.02528
G1 X194.052 Y126.309 E0.62687
G1 X194.052 Y126.844 E0.01679
G1 X208.397 Y141.189 E0.63732
G1 X208.632 Y141.958 E0.02528
G1 X194.052 Y127.378 E0.64778
G1 X194.052 Y127.912 E0.01679
G1 X208.867 Y142.728 E0.65823
G1 X209.103 Y143.498 E0.02528
G1 X194.028 Y128.423 E0.66974
G1 X193.494 Y128.423 E0.01679
G1 X209.338 Y144.267 E0.70393
G1 X209.573 Y145.037 E0.02528
G1 X192.959 Y128.423 E0.73812
G1 X192.425 Y128.423 E0.01679
G1 X209.808 Y145.806 E0.77231
G1 X210.044 Y146.576 E0.02528
G1 X191.891 Y128.423 E0.80650
G1 X191.356 Y128.423 E0.01679
G1 X210.279 Y147.346 E0.84069
G1 X210.514 Y148.115 E0.02528
G1 X190.822 Y128.423 E0.87489
G1 X190.288 Y128.423 E0.01679
G1 X210.750 Y148.885 E0.90908
G1 X210.985 Y149.654 E0.02528
G1 X189.753 Y128.423 E0.94327
G1 X189.219 Y128.423 E0.01679
G1 X211.220 Y150.424 E0.97746
G1 X211.455 Y151.193 E0.02528
G1 X188.685 Y128.423 E1.01165
G1 X188.150 Y128.423 E0.01679
G1 X211.691 Y151.963 E1.04584
G1 X211.926 Y152.733 E0.02528
G1 X187.616 Y128.423 E1.08004
G1 X187.082 Y128.423 E0.01679
G1 X212.161 Y153.502 E1.11423
G1 X212.397 Y154.272 E0.02528
G1 X186.548 Y128.423 E1.14842
G1 X186.013 Y128.423 E0.01679
G1 X191.524 Y133.933 E0.24481
G1 X190.989 Y133.933 E0.01679
G1 X185.479 Y128.423 E0.24481
G1 X184.945 Y128.423 E0.01679
G1 X190.455 Y133.933 E0.24481
G1 X189.921 Y133.933 E0.01679
G1 X184.410 Y128.423 E0.24481
G1 X183.876 Y128.423 E0.01679
G1 X189.386 Y133.933 E0.24481
G1 X188.852 Y133.933 E0.01679
G1 X183.342 Y128.423 E0.24481
G1 X182.807 Y128.423 E0.01679
G1 X188.318 Y133.933 E0.24481
G1 X187.783 Y133.933 E0.01679
G1 X182.273 Y128.423 E0.24481
G1 X181.812 Y128.423 E0.01449
G1 X181.812 Y127.962 E0.01449
G1 X173.923 Y120.072 E0.35050
G1 X174.048 Y119.663 E0.01344
G1 X181.812 Y127.427 E0.34494
G1 X181.812 Y126.893 E0.01679
G1 X174.173 Y119.254 E0.33938
G1 X174.298 Y118.845 E0.01344
G1 X181.812 Y126.359 E0.33383
G1 X181.812 Y125.824 E0.01679
G1 X174.423 Y118.436 E0.32827
G1 X174.548 Y118.026 E0.01344
G1 X181.812 Y125.290 E0.32271
G1 X181.812 Y124.756 E0.01679
G1 X174.673 Y117.617 E0.31715
G1 X174.798 Y117.208 E0.01344
G1 X181.812 Y124.221 E0.31159
G1 X181.812 Y123.687 E0.01679
G1 X174.923 Y116.799 E0.30604
G1 X175.049 Y116.390 E0.01344
G1 X181.812 Y123.153 E0.30048
G1 X181.812 Y122.619 E0.01679
G1 X175.174 Y115.980 E0.29492
G1 X175.299 Y115.571 E0.01344
G1 X181.812 Y122.084 E0.28936
G1 X181.812 Y121.550 E0.01679
G1 X175.424 Y115.162 E0.28380
G1 X175.549 Y114.753 E0.01344
G1 X181.812 Y121.016 E0.27824
G1 X181.812 Y120.481 E0.01679
G1 X175.674 Y114.344 E0.27269
G1 X175.799 Y113.934 E0.01344
G1 X181.812 Y119.947 E0.26713
G1 X181.812 Y119.413 E0.01679
G1 X175.924 Y113.525 E0.26157
G1 X176.049 Y113.116 E0.01344
G1 X181.812 Y118.878 E0.25601
M73 P1 R212
G1 X181.812 Y118.344 E0.01679
G1 X176.175 Y112.707 E0.25045
G1 X176.300 Y112.298 E0.01344
G1 X181.812 Y117.810 E0.24490
G1 X181.812 Y117.275 E0.01679
G1 X176.425 Y111.888 E0.23934
G1 X176.550 Y111.479 E0.01344
G1 X181.812 Y116.741 E0.23378
G1 X181.812 Y116.207 E0.01679
G1 X176.675 Y111.070 E0.22822
G1 X176.800 Y110.661 E0.01344
G1 X182.322 Y116.183 E0.24535
G1 X182.857 Y116.183 E0.01679
G1 X176.925 Y110.252 E0.26353
G1 X177.050 Y109.842 E0.01344
G1 X183.391 Y116.183 E0.28171
G1 X183.925 Y116.183 E0.01679
G1 X177.175 Y109.433 E0.29989
G1 X177.300 Y109.024 E0.01344
G1 X184.460 Y116.183 E0.31807
G1 X184.994 Y116.183 E0.01679
G1 X177.426 Y108.615 E0.33625
G1 X177.551 Y108.206 E0.01344
G1 X185.528 Y116.183 E0.35443
G1 X186.063 Y116.183 E0.01679
G1 X177.676 Y107.796 E0.37261
G1 X177.801 Y107.387 E0.01344
G1 X186.597 Y116.183 E0.39079
G1 X187.131 Y116.183 E0.01679
G1 X177.926 Y106.978 E0.40897
G1 X178.051 Y106.569 E0.01344
G1 X187.666 Y116.183 E0.42715
G1 X188.200 Y116.183 E0.01679
G1 X178.176 Y106.160 E0.44533
G1 X178.301 Y105.750 E0.01344
G1 X188.734 Y116.183 E0.46351
G1 X189.268 Y116.183 E0.01679
G1 X178.426 Y105.341 E0.48169
G1 X178.552 Y104.932 E0.01344
G1 X189.803 Y116.183 E0.49987
G1 X190.337 Y116.183 E0.01679
G1 X178.677 Y104.523 E0.51805
G1 X178.802 Y104.113 E0.01344
G1 X190.871 Y116.183 E0.53623
G1 X191.406 Y116.183 E0.01679
G1 X178.927 Y103.704 E0.55441
G1 X179.052 Y103.295 E0.01344
G1 X191.940 Y116.183 E0.57259
G1 X192.474 Y116.183 E0.01679
G1 X179.177 Y102.886 E0.59077
G1 X179.302 Y102.477 E0.01344
G1 X193.009 Y116.183 E0.60895
G1 X193.543 Y116.183 E0.01679
G1 X179.291 Y101.932 E0.63317
G1 E-2.40000 F4800.00000
G1 F8640
G1 X181.328 Y103.968 E-1.52000
G1 E-0.08000 F4800.00000
G1 Z0.800 F10800.000
G1 X187.419 Y134.103
G1 Z0.200
G1 E4.00000 F3000.00000
G1 F1200
G1 X173.798 Y120.482 E0.60516
G1 X173.672 Y120.891 E0.01344
G1 X186.715 Y133.933 E0.57944
G1 X186.180 Y133.933 E0.01679
G1 X173.547 Y121.300 E0.56126
G1 X173.422 Y121.709 E0.01344
G1 X185.646 Y133.933 E0.54308
G1 X185.112 Y133.933 E0.01679
G1 X173.297 Y122.118 E0.52490
G1 X173.172 Y122.528 E0.01344
G1 X184.578 Y133.933 E0.50672
G1 X184.043 Y133.933 E0.01679
G1 X173.047 Y122.937 E0.48854
G1 X172.922 Y123.346 E0.01344
G1 X183.541 Y133.965 E0.47180
G1 X183.416 Y134.375 E0.01344
G1 X172.797 Y123.755 E0.47180
G1 X172.672 Y124.164 E0.01344
G1 X183.291 Y134.784 E0.47180
G1 X183.166 Y135.193 E0.01344
G1 X172.546 Y124.574 E0.47180
G1 X172.421 Y124.983 E0.01344
G1 X183.041 Y135.602 E0.47180
G1 X182.916 Y136.011 E0.01344
G1 X172.296 Y125.392 E0.47180
G1 X172.171 Y125.801 E0.01344
G1 X182.791 Y136.421 E0.47180
G1 X182.665 Y136.830 E0.01344
G1 X172.046 Y126.210 E0.47180
G1 X171.921 Y126.620 E0.01344
G1 X182.540 Y137.239 E0.47180
G1 X182.415 Y137.648 E0.01344
G1 X171.796 Y127.029 E0.47180
G1 X171.671 Y127.438 E0.01344
G1 X182.290 Y138.057 E0.47180
G1 X182.165 Y138.467 E0.01344
G1 X171.546 Y127.847 E0.47180
G1 X171.421 Y128.256 E0.01344
G1 X182.040 Y138.876 E0.47180
G1 X181.915 Y139.285 E0.01344
G1 X171.295 Y128.666 E0.47180
G1 X171.170 Y129.075 E0.01344
G1 X181.790 Y139.694 E0.47180
G1 X181.665 Y140.104 E0.01344
G1 X171.045 Y129.484 E0.47180
G1 X170.920 Y129.893 E0.01344
G1 X181.540 Y140.513 E0.47180
G1 X181.414 Y140.922 E0.01344
G1 X170.795 Y130.302 E0.47180
G1 X170.670 Y130.712 E0.01344
G1 X181.289 Y141.331 E0.47180
