; generated by PrusaSlicer 2.1.0+win64 on 2019-10-28 at 14:43:24 UTC

; 

; external perimeters extrusion width = 0.60mm
; perimeters extrusion width = 0.43mm
; infill extrusion width = 0.45mm
; solid infill extrusion width = 0.70mm
; top infill extrusion width = 0.43mm
; first layer extrusion width = 0.42mm

M73 P0 R239
M201 X9000 Y9000 Z500 E10000 ; sets maximum accelerations, mm/sec^2
M203 X500 Y500 Z12 E120 ; sets maximum feedrates, mm/sec
M204 P2000 R1500 T2000 ; sets acceleration (P, T) and retract acceleration (R), mm/sec^2
M205 X10.00 Y10.00 Z0.20 E2.50 ; sets the jerk limits, mm/sec
M205 S0 T0 ; sets the minimum extruding and travel feed rate, mm/sec
M107
M862.3 P "MK2SMM" ; printer model check
M862.1 P0.4 ; nozzle diameter check
M115 U3.2.3 ; tell printer latest fw version
M204 S2000 T1500 ; MK2 firmware only supports the old M204 format
; Start G-Code sequence START
T2
M104 S255 ; set extruder temp
M140 S100 ; set bed temp
M190 S100 ; wait for bed temp
M109 S255 ; wait for extruder temp
G21 ; set units to millimeters
G90 ; use absolute coordinates
M83 ; use relative distances for extrusion
G28 W
G80
G92 E0.0
M203 E100 ; set max feedrate
M92 E140 ; E-steps per filament milimeter

G1 Z0.250 F7200.000
G1 X50.0 E80.0 F1000.0
M73 P0 R239
G1 X160.0 E20.0 F1000.0
G1 Z0.200 F7200.000
G1 X220.0 E13 F1000.0
G1 X240.0 E0 F1000.0

G92 E0.0
G21 ; set units to millimeters
G90 ; use absolute coordinates
M83 ; use relative distances for extrusion
T2
M900 K200 ; Filament gcode
;BEFORE_LAYER_CHANGE
G92 E0.0
;0.2


G1 Z0.200 F10800.000
;AFTER_LAYER_CHANGE
;0.2
G1 E-4.00000 F4800.00000
G1 Z0.800 F10800.000
G1 X28.979 Y15.846
G1 Z0.200
G1 E4.00000 F3000.00000
M204 S1000
G1 F1200
G1 X29.648 Y15.219 E0.02878
G1 X30.520 Y14.920 E0.02889
G1 X104.056 Y6.998 E2.31902
G1 X156.211 Y6.993 E1.63526
G1 X156.703 Y7.050 E0.01555
G1 X157.174 Y7.218 E0.01567
G1 X218.672 Y37.750 E2.15278
G1 X219.262 Y38.182 E0.02293
G1 X219.678 Y38.787 E0.02304
G1 X219.834 Y39.258 E0.01554
G1 X249.141 Y179.003 E4.47693
G1 X249.172 Y190.403 E0.35742
G1 X248.798 Y205.084 E0.46049
G1 X248.689 Y205.709 E0.01987
G1 X248.408 Y206.273 E0.01976
G1 X248.059 Y206.665 E0.01646
G1 X247.627 Y206.963 E0.01646
G1 X247.136 Y207.149 E0.01646
G1 X246.615 Y207.213 E0.01646
G1 X18.806 Y207.213 E7.14277
G1 X18.155 Y207.113 E0.02066
G1 X17.563 Y206.823 E0.02066
G1 X17.006 Y206.265 E0.02473
G1 X16.684 Y205.545 E0.02473
G1 X9.970 Y175.743 E0.95784
G1 X9.971 Y61.497 E3.58210
G1 X10.135 Y60.788 E0.02281
G1 X28.955 Y15.902 E1.52608
G1 E-2.40000 F4800.00000
G1 F8640
G1 X29.648 Y15.219 E-0.51347
G1 X30.520 Y14.920 E-0.48629
G1 X31.500 Y14.815 E-0.52025
G1 E-0.08000 F4800.00000
G1 Z0.800 F10800.000
G1 X181.855 Y96.308
G1 Z0.200
G1 E4.00000 F3000.00000
G1 F1200
G1 X193.529 Y96.308 E0.36603
G1 X193.529 Y107.983 E0.36603
G1 X181.855 Y107.983 E0.36603
G1 X181.855 Y96.368 E0.36415
G1 X182.232 Y96.686 F10800.000
G1 F1200
G1 X193.152 Y96.686 E0.34239
G1 X193.152 Y107.606 E0.34239
G1 X182.232 Y107.606 E0.34239
G1 X182.232 Y96.746 E0.34051
G1 X182.129 Y96.299 F10800.000
G1 E-2.40000 F4800.00000
G1 F8640
G1 X185.112 Y96.730 E-1.52000
G1 E-0.08000 F4800.00000
G1 Z0.800 F10800.000
G1 X194.605 Y47.120
G1 Z0.200
G1 E4.00000 F3000.00000
G1 F1200
G1 X194.605 Y75.737 E0.89728
M73 P0 R238
G1 X216.991 Y148.959 E2.40072
G1 X229.449 Y148.959 E0.39060
G1 X232.105 Y151.615 E0.11778
G1 X232.105 Y152.785 E0.03668
G1 X203.279 Y152.785 E0.90381
G1 X203.279 Y151.398 E0.04349
G1 X191.863 Y114.058 E1.22424
G1 X183.521 Y114.058 E0.26158
G1 X172.105 Y151.398 E1.22424
G1 X172.105 Y152.785 E0.04349
G1 X143.279 Y152.785 E0.90381
G1 X143.279 Y151.615 E0.03668
G1 X145.935 Y148.959 E0.11778
G1 X158.393 Y148.959 E0.39060
G1 X180.779 Y75.737 E2.40072
G1 X180.779 Y47.120 E0.89728
G1 X160.935 Y47.120 E0.62219
G1 X158.279 Y44.464 E0.11778
G1 X158.279 Y40.294 E0.13074
G1 X217.105 Y40.294 E1.84444
G1 X217.105 Y44.464 E0.13074
G1 X214.449 Y47.120 E0.11778
G1 X194.665 Y47.120 E0.62031
G1 X194.982 Y47.497 F10800.000
G1 F1200
G1 X194.982 Y75.681 E0.88369
G1 X217.270 Y148.582 E2.39020
G1 X229.605 Y148.582 E0.38675
G1 X232.482 Y151.459 E0.12757
G1 X232.482 Y153.162 E0.05340
G1 X202.902 Y153.162 E0.92746
G1 X202.902 Y151.454 E0.05355
G1 X191.584 Y114.436 E1.21372
G1 X183.800 Y114.436 E0.24408
G1 X172.482 Y151.454 E1.21372
G1 X172.482 Y153.162 E0.05355
G1 X142.902 Y153.162 E0.92746
G1 X142.902 Y151.459 E0.05340
G1 X145.779 Y148.582 E0.12757
G1 X158.114 Y148.582 E0.38675
G1 X180.402 Y75.681 E2.39020
G1 X180.402 Y47.497 E0.88369
G1 X160.779 Y47.497 E0.61527
G1 X157.902 Y44.620 E0.12757
G1 X157.902 Y39.917 E0.14746
G1 X217.482 Y39.917 E1.86809
G1 X217.482 Y44.620 E0.14746
G1 X214.605 Y47.497 E0.12757
G1 X195.042 Y47.497 E0.61338
G1 X194.583 Y47.514 F10800.000
G1 E-2.40000 F4800.00000
G1 F8640
G1 X195.036 Y50.377 E-1.52000
G1 E-0.08000 F4800.00000
G1 Z0.800 F10800.000
G1 X194.492 Y60.881
G1 Z0.200
G1 E4.00000 F3000.00000
G1 F1200
G1 X181.062 Y47.451 E0.59666
G1 X181.062 Y47.986 E0.01679
G1 X194.322 Y61.246 E0.58913
G1 X194.322 Y61.780 E0.01679
G1 X181.062 Y48.520 E0.58913
G1 X181.062 Y49.054 E0.01679
G1 X194.322 Y62.315 E0.58913
G1 X194.322 Y62.849 E0.01679
G1 X181.062 Y49.589 E0.58913
G1 X181.062 Y50.123 E0.01679
G1 X194.322 Y63.383 E0.58913
G1 X194.322 Y63.917 E0.01679
G1 X181.062 Y50.657 E0.58913
G1 X181.062 Y51.192 E0.01679
G1 X194.322 Y64.452 E0.58913
G1 X194.322 Y64.986 E0.01679
G1 X181.062 Y51.726 E0.58913
G1 X181.062 Y52.260 E0.01679
G1 X194.322 Y65.520 E0.58913
G1 X194.322 Y66.055 E0.01679
G1 X181.062 Y52.794 E0.58913
M73 P0 R237
G1 X181.062 Y53.329 E0.01679
G1 X194.322 Y66.589 E0.58913
G1 X194.322 Y67.123 E0.01679
G1 X181.062 Y53.863 E0.58913
G1 X181.062 Y54.397 E0.01679
G1 X194.322 Y67.658 E0.58913
G1 X194.322 Y68.192 E0.01679
G1 X181.062 Y54.932 E0.58913
G1 X181.062 Y55.466 E0.01679
G1 X194.322 Y68.726 E0.58913
G1 X194.322 Y69.261 E0.01679
G1 X181.062 Y56.000 E0.58913
G1 X181.062 Y56.535 E0.01679
G1 X194.322 Y69.795 E0.58913
G1 X194.322 Y70.329 E0.01679
G1 X181.062 Y57.069 E0.58913
G1 X181.062 Y57.603 E0.01679
G1 X194.322 Y70.864 E0.58913
G1 X194.322 Y71.398 E0.01679
G1 X181.062 Y58.138 E0.58913
G1 X181.062 Y58.672 E0.01679
G1 X194.322 Y71.932 E0.58913
G1 X194.322 Y72.466 E0.01679
G1 X181.062 Y59.206 E0.58913
G1 X181.062 Y59.740 E0.01679
G1 X194.322 Y73.001 E0.58913
G1 X194.322 Y73.535 E0.01679
G1 X181.062 Y60.275 E0.58913
G1 X181.062 Y60.809 E0.01679
G1 X194.322 Y74.069 E0.58913
G1 X194.322 Y74.604 E0.01679
G1 X181.062 Y61.343 E0.58913
G1 X181.062 Y61.878 E0.01679
G1 X194.322 Y75.138 E0.58913
G1 X194.322 Y75.672 E0.01679
G1 X181.062 Y62.412 E0.58913
G1 X181.062 Y62.946 E0.01679
G1 X194.510 Y76.395 E0.59748
G1 X194.746 Y77.164 E0.02528
G1 X181.062 Y63.481 E0.60793
G1 X181.062 Y64.015 E0.01679
G1 X194.981 Y77.934 E0.61839
G1 X195.216 Y78.703 E0.02528
G1 X181.062 Y64.549 E0.62884
G1 X181.062 Y65.084 E0.01679
G1 X195.452 Y79.473 E0.63929
G1 X195.687 Y80.243 E0.02528
G1 X181.062 Y65.618 E0.64975
G1 X181.062 Y66.152 E0.01679
G1 X195.922 Y81.012 E0.66020
G1 X196.157 Y81.782 E0.02528
G1 X181.062 Y66.686 E0.67065
G1 X181.062 Y67.221 E0.01679
G1 X196.393 Y82.551 E0.68111
G1 X196.628 Y83.321 E0.02528
G1 X181.062 Y67.755 E0.69156
G1 X181.062 Y68.289 E0.01679
G1 X196.863 Y84.091 E0.70201
G1 X197.099 Y84.860 E0.02528
G1 X181.062 Y68.824 E0.71247
G1 X181.062 Y69.358 E0.01679
G1 X197.334 Y85.630 E0.72292
G1 X197.569 Y86.399 E0.02528
G1 X181.062 Y69.892 E0.73337
G1 X181.062 Y70.427 E0.01679
G1 X197.804 Y87.169 E0.74383
G1 X198.040 Y87.939 E0.02528
G1 X181.062 Y70.961 E0.75428
G1 X181.062 Y71.495 E0.01679
G1 X198.275 Y88.708 E0.76474
G1 X198.510 Y89.478 E0.02528
G1 X181.062 Y72.030 E0.77519
G1 X181.062 Y72.564 E0.01679
G1 X198.746 Y90.247 E0.78564
G1 X198.981 Y91.017 E0.02528
G1 X181.062 Y73.098 E0.79610
G1 X181.062 Y73.632 E0.01679
G1 X199.216 Y91.787 E0.80655
G1 X199.451 Y92.556 E0.02528
G1 X181.062 Y74.167 E0.81700
G1 X181.062 Y74.701 E0.01679
G1 X199.687 Y93.326 E0.82746
G1 X199.922 Y94.095 E0.02528
G1 X181.062 Y75.235 E0.83791
G1 X181.062 Y75.770 E0.01679
G1 X200.157 Y94.865 E0.84836
G1 X200.393 Y95.635 E0.02528
G1 X180.939 Y76.181 E0.86427
G1 X180.814 Y76.590 E0.01344
G1 X200.628 Y96.404 E0.88028
G1 X200.863 Y97.174 E0.02528
G1 X180.689 Y77.000 E0.89630
G1 X180.564 Y77.409 E0.01344
G1 X201.098 Y97.943 E0.91231
G1 X201.334 Y98.713 E0.02528
G1 X180.439 Y77.818 E0.92832
G1 X180.314 Y78.227 E0.01344
G1 X201.569 Y99.483 E0.94433
G1 X201.804 Y100.252 E0.02528
G1 X180.189 Y78.636 E0.96034
G1 X180.064 Y79.046 E0.01344
G1 X202.040 Y101.022 E0.97635
G1 X202.275 Y101.791 E0.02528
G1 X179.938 Y79.455 E0.99236
M73 P1 R235
G1 X179.813 Y79.864 E0.01344
G1 X202.510 Y102.561 E1.00838
G1 X202.745 Y103.331 E0.02528
G1 X179.688 Y80.273 E1.02439
G1 X179.563 Y80.682 E0.01344
G1 X202.981 Y104.100 E1.04040
G1 X203.216 Y104.870 E0.02528
G1 X179.438 Y81.092 E1.05641
G1 X179.313 Y81.501 E0.01344
G1 X203.451 Y105.639 E1.07242
G1 X203.687 Y106.409 E0.02528
G1 X193.812 Y96.534 E0.43871
G1 X193.812 Y97.069 E0.01679
G1 X203.922 Y107.179 E0.44916
G1 X204.157 Y107.948 E0.02528
G1 X193.812 Y97.603 E0.45962
G1 X193.812 Y98.137 E0.01679
G1 X204.393 Y108.718 E0.47007
G1 X204.628 Y109.487 E0.02528
G1 X193.812 Y98.672 E0.48052
G1 X193.812 Y99.206 E0.01679
G1 X204.863 Y110.257 E0.49098
G1 X205.098 Y111.027 E0.02528
G1 X193.812 Y99.740 E0.50143
G1 X193.812 Y100.274 E0.01679
G1 X205.334 Y111.796 E0.51188
G1 X205.569 Y112.566 E0.02528
G1 X193.812 Y100.809 E0.52234
G1 X193.812 Y101.343 E0.01679
G1 X205.804 Y113.335 E0.53279
G1 X206.040 Y114.105 E0.02528
G1 X193.812 Y101.877 E0.54324
G1 X193.812 Y102.412 E0.01679
G1 X206.275 Y114.875 E0.55370
G1 X206.510 Y115.644 E0.02528
G1 X193.812 Y102.946 E0.56415
G1 X193.812 Y103.480 E0.01679
G1 X206.745 Y116.414 E0.57460
G1 X206.981 Y117.183 E0.02528
G1 X193.812 Y104.015 E0.58506
G1 X193.812 Y104.549 E0.01679
G1 X207.216 Y117.953 E0.59551
G1 X207.451 Y118.723 E0.02528
G1 X193.812 Y105.083 E0.60596
G1 X193.812 Y105.618 E0.01679
G1 X207.687 Y119.492 E0.61642
G1 X207.922 Y120.262 E0.02528
G1 X193.812 Y106.152 E0.62687
G1 X193.812 Y106.686 E0.01679
G1 X208.157 Y121.031 E0.63732
G1 X208.392 Y121.801 E0.02528
G1 X193.812 Y107.221 E0.64778
G1 X193.812 Y107.755 E0.01679
G1 X208.628 Y122.570 E0.65823
G1 X208.863 Y123.340 E0.02528
G1 X193.788 Y108.265 E0.66974
G1 X193.254 Y108.265 E0.01679
G1 X209.098 Y124.110 E0.70393
G1 X209.334 Y124.879 E0.02528
G1 X192.720 Y108.265 E0.73812
G1 X192.185 Y108.265 E0.01679
G1 X209.569 Y125.649 E0.77231
G1 X209.804 Y126.418 E0.02528
G1 X191.651 Y108.265 E0.80650
G1 X191.117 Y108.265 E0.01679
G1 X210.039 Y127.188 E0.84069
G1 X210.275 Y127.958 E0.02528
G1 X190.583 Y108.265 E0.87489
G1 X190.048 Y108.265 E0.01679
G1 X210.510 Y128.727 E0.90908
G1 X210.745 Y129.497 E0.02528
G1 X189.514 Y108.265 E0.94327
G1 X188.980 Y108.265 E0.01679
G1 X210.981 Y130.266 E0.97746
G1 X211.216 Y131.036 E0.02528
G1 X188.445 Y108.265 E1.01165
G1 X187.911 Y108.265 E0.01679
G1 X211.451 Y131.806 E1.04584
G1 X211.687 Y132.575 E0.02528
G1 X187.377 Y108.265 E1.08004
G1 X186.842 Y108.265 E0.01679
G1 X211.922 Y133.345 E1.11423
G1 X212.157 Y134.114 E0.02528
G1 X186.308 Y108.265 E1.14842
G1 X185.774 Y108.265 E0.01679
G1 X191.284 Y113.776 E0.24481
G1 X190.750 Y113.776 E0.01679
G1 X185.239 Y108.265 E0.24481
G1 X184.705 Y108.265 E0.01679
G1 X190.215 Y113.776 E0.24481
G1 X189.681 Y113.776 E0.01679
G1 X184.171 Y108.265 E0.24481
G1 X183.637 Y108.265 E0.01679
G1 X189.147 Y113.776 E0.24481
G1 X188.612 Y113.776 E0.01679
G1 X183.102 Y108.265 E0.24481
G1 X182.568 Y108.265 E0.01679
G1 X188.078 Y113.776 E0.24481
G1 X187.544 Y113.776 E0.01679
G1 X182.034 Y108.265 E0.24481
G1 X181.572 Y108.265 E0.01449
G1 X181.572 Y107.804 E0.01449
G1 X173.683 Y99.915 E0.35050
G1 X173.808 Y99.506 E0.01344
G1 X181.572 Y107.270 E0.34494
G1 X181.572 Y106.736 E0.01679
G1 X173.933 Y99.097 E0.33938
G1 X174.058 Y98.687 E0.01344
G1 X181.572 Y106.201 E0.33383
G1 X181.572 Y105.667 E0.01679
G1 X174.184 Y98.278 E0.32827
G1 X174.309 Y97.869 E0.01344
G1 X181.572 Y105.133 E0.32271
G1 X181.572 Y104.598 E0.01679
G1 X174.434 Y97.460 E0.31715
G1 X174.559 Y97.051 E0.01344
G1 X181.572 Y104.064 E0.31159
G1 X181.572 Y103.530 E0.01679
G1 X174.684 Y96.641 E0.30604
G1 X174.809 Y96.232 E0.01344
G1 X181.572 Y102.995 E0.30048
G1 X181.572 Y102.461 E0.01679
G1 X174.934 Y95.823 E0.29492
M73 P1 R234
G1 X175.059 Y95.414 E0.01344
G1 X181.572 Y101.927 E0.28936
G1 X181.572 Y101.392 E0.01679
G1 X175.184 Y95.005 E0.28380
G1 X175.309 Y94.595 E0.01344
G1 X181.572 Y100.858 E0.27824
G1 X181.572 Y100.324 E0.01679
G1 X175.435 Y94.186 E0.27269
G1 X175.560 Y93.777 E0.01344
G1 X181.572 Y99.790 E0.26713
G1 X181.572 Y99.255 E0.01679
G1 X175.685 Y93.368 E0.26157
G1 X175.810 Y92.959 E0.01344
G1 X181.572 Y98.721 E0.25601
G1 X181.572 Y98.187 E0.01679
G1 X175.935 Y92.549 E0.25045
G1 X176.060 Y92.140 E0.01344
G1 X181.572 Y97.652 E0.24490
G1 X181.572 Y97.118 E0.01679
G1 X176.185 Y91.731 E0.23934
G1 X176.310 Y91.322 E0.01344
G1 X181.572 Y96.584 E0.23378
G1 X181.572 Y96.049 E0.01679
G1 X176.435 Y90.913 E0.22822
G1 X176.561 Y90.503 E0.01344
G1 X182.083 Y96.026 E0.24535
G1 X182.617 Y96.026 E0.01679
G1 X176.686 Y90.094 E0.26353
G1 X176.811 Y89.685 E0.01344
G1 X183.152 Y96.026 E0.28171
G1 X183.686 Y96.026 E0.01679
G1 X176.936 Y89.276 E0.29989
G1 X177.061 Y88.867 E0.01344
G1 X184.220 Y96.026 E0.31807
G1 X184.754 Y96.026 E0.01679
G1 X177.186 Y88.457 E0.33625
G1 X177.311 Y88.048 E0.01344
G1 X185.289 Y96.026 E0.35443
G1 X185.823 Y96.026 E0.01679
G1 X177.436 Y87.639 E0.37261
G1 X177.561 Y87.230 E0.01344
G1 X186.357 Y96.026 E0.39079
G1 X186.892 Y96.026 E0.01679
G1 X177.686 Y86.820 E0.40897
G1 X177.812 Y86.411 E0.01344
G1 X187.426 Y96.026 E0.42715
G1 X187.960 Y96.026 E0.01679
G1 X177.937 Y86.002 E0.44533
G1 X178.062 Y85.593 E0.01344
G1 X188.495 Y96.026 E0.46351
G1 X189.029 Y96.026 E0.01679
G1 X178.187 Y85.184 E0.48169
G1 X178.312 Y84.774 E0.01344
G1 X189.563 Y96.026 E0.49987
G1 X190.098 Y96.026 E0.01679
G1 X178.437 Y84.365 E0.51805
G1 X178.562 Y83.956 E0.01344
G1 X190.632 Y96.026 E0.53623
G1 X191.166 Y96.026 E0.01679
G1 X178.687 Y83.547 E0.55441
G1 X178.812 Y83.138 E0.01344
G1 X191.700 Y96.026 E0.57259
G1 X192.235 Y96.026 E0.01679
G1 X178.938 Y82.728 E0.59077
G1 X179.063 Y82.319 E0.01344
G1 X192.769 Y96.026 E0.60895
G1 X193.303 Y96.026 E0.01679
G1 X179.052 Y81.774 E0.63317
G1 E-2.40000 F4800.00000
G1 F8640
G1 X181.088 Y83.811 E-1.52000
G1 E-0.08000 F4800.00000
G1 Z0.800 F10800.000
G1 X187.179 Y113.945
G1 Z0.200
G1 E4.00000 F3000.00000
G1 F1200
G1 X173.558 Y100.324 E0.60516
G1 X173.433 Y100.733 E0.01344
G1 X186.475 Y113.776 E0.57944
G1 X185.941 Y113.776 E0.01679
G1 X173.308 Y101.143 E0.56126
G1 X173.183 Y101.552 E0.01344
G1 X185.407 Y113.776 E0.54308
G1 X184.872 Y113.776 E0.01679
G1 X173.058 Y101.961 E0.52490
G1 X172.932 Y102.370 E0.01344
G1 X184.338 Y113.776 E0.50672
G1 X183.804 Y113.776 E0.01679
G1 X172.807 Y102.779 E0.48854
G1 X172.682 Y103.189 E0.01344
G1 X183.302 Y113.808 E0.47180
G1 X183.177 Y114.217 E0.01344
G1 X172.557 Y103.598 E0.47180
G1 X172.432 Y104.007 E0.01344
G1 X183.052 Y114.626 E0.47180
G1 X182.926 Y115.036 E0.01344
G1 X172.307 Y104.416 E0.47180
G1 X172.182 Y104.825 E0.01344
G1 X182.801 Y115.445 E0.47180
G1 X182.676 Y115.854 E0.01344
G1 X172.057 Y105.235 E0.47180
G1 X171.932 Y105.644 E0.01344
G1 X182.551 Y116.263 E0.47180
G1 X182.426 Y116.672 E0.01344
G1 X171.807 Y106.053 E0.47180
G1 X171.681 Y106.462 E0.01344
G1 X182.301 Y117.082 E0.47180
G1 X182.176 Y117.491 E0.01344
G1 X171.556 Y106.871 E0.47180
G1 X171.431 Y107.281 E0.01344
G1 X182.051 Y117.900 E0.47180
G1 X181.926 Y118.309 E0.01344
G1 X171.306 Y107.690 E0.47180
G1 X171.181 Y108.099 E0.01344
G1 X181.800 Y118.718 E0.47180
G1 X181.675 Y119.128 E0.01344
G1 X171.056 Y108.508 E0.47180
G1 X170.931 Y108.917 E0.01344
G1 X181.550 Y119.537 E0.47180
G1 X181.425 Y119.946 E0.01344
G1 X170.806 Y109.327 E0.47180
G1 X170.681 Y109.736 E0.01344
G1 X181.300 Y120.355 E0.47180
G1 X181.175 Y120.764 E0.01344
G1 X170.555 Y110.145 E0.47180
G1 X170.430 Y110.554 E0.01344
G1 X181.050 Y121.174 E0.47180
G1 X180.925 Y121.583 E0.01344
G1 X170.305 Y110.963 E0.47180
G1 X170.180 Y111.373 E0.01344
