; generated by Slic3r Prusa Edition 1.41.2+win64 on 2019-10-25 at 21:01:56

; 

; external perimeters extrusion width = 0.45mm
; perimeters extrusion width = 0.45mm
; infill extrusion width = 0.45mm
; solid infill extrusion width = 0.45mm
; top infill extrusion width = 0.40mm
; first layer extrusion width = 0.42mm

M201 X9000 Y9000 Z500 E10000 ; sets maximum accelerations, mm/sec^2
M203 X500 Y500 Z12 E120 ; sets maximum feedrates, mm/sec
M204 P2000 R1500 T2000 ; sets acceleration (P, T) and retract acceleration (R), mm/sec^2
M205 X10.00 Y10.00 Z0.20 E2.50 ; sets the jerk limits, mm/sec
M205 S0 T0 ; sets the minimum extruding and travel feed rate, mm/sec
M107
M115 U3.1.0 ; tell printer latest fw version
M204 S2000 T1500 ; MK2 firmware only supports the old M204 format
; Start G-Code sequence START
T2
M104 S255 ; set extruder temp
M140 S100 ; set bed temp
M190 S100 ; wait for bed temp
M109 S255 ; wait for extruder temp
G21 ; set units to millimeters
G90 ; use absolute coordinates
M83 ; use relative distances for extrusion
G28 W
G80
G92 E0.0
M203 E100 ; set max feedrate
M92 E140 ; E-steps per filament milimeter

G1 Z0.250 F7200.000
G1 X50.0 E80.0  F1000.0
G1 X160.0 E20.0  F1000.0
G1 Z0.200 F7200.000
G1 X220.0 E13 F1000.0
G1 X240.0 E0 F1000.0

G92 E0.0
M900 K200; Filament gcode
G21 ; set units to millimeters
G90 ; use absolute coordinates
M83 ; use relative distances for extrusion
T2
M900 K200; Filament gcode
;BEFORE_LAYER_CHANGE
G92 E0.0
;0.2


G1 Z0.200 F10800.000
;AFTER_LAYER_CHANGE
;0.2
G1 E-4.00000 F4800.00000
G1 Z0.800 F10800.000
G1 X244.176 Y10.918
G1 Z0.200
G1 E4.00000 F3000.00000
M204 S1000
G1 F1200
G1 X244.740 Y11.695 E0.03010
G1 X244.980 Y12.624 E0.03010
G1 X248.857 Y111.088 E3.08964
G1 X248.858 Y196.189 E2.66828
G1 X248.788 Y196.757 E0.01795
G1 X248.594 Y197.296 E0.01795
G1 X248.285 Y197.778 E0.01795
G1 X247.877 Y198.179 E0.01795
G1 X247.133 Y198.585 E0.02655
G1 X246.294 Y198.727 E0.02668
G1 X6.039 Y198.244 E7.53305
G1 X5.467 Y198.178 E0.01808
G1 X4.923 Y197.985 E0.01808
G1 X4.437 Y197.675 E0.01808
G1 X4.029 Y197.262 E0.01820
G1 X3.627 Y196.526 E0.02631
G1 X3.483 Y195.695 E0.02643
G1 X3.483 Y110.667 E2.66600
G1 X3.550 Y110.094 E0.01808
G1 X3.744 Y109.551 E0.01808
G1 X4.054 Y109.065 E0.01808
G1 X4.464 Y108.661 E0.01808
G1 X127.318 Y25.662 E4.64867
G1 X127.774 Y25.417 E0.01623
G1 X128.410 Y25.246 E0.02066
G1 X240.082 Y10.245 E3.53283
G1 X242.423 Y10.223 E0.07342
G1 X243.366 Y10.404 E0.03010
G1 X244.126 Y10.886 E0.02821
G1 X243.922 Y11.197 F10800.000
G1 F1200
G1 X244.402 Y11.862 E0.02574
G1 X244.604 Y12.658 E0.02574
G1 X248.480 Y111.100 E3.08898
G1 X248.481 Y196.183 E2.66770
G1 X248.422 Y196.668 E0.01532
G1 X248.256 Y197.128 E0.01532
G1 X247.993 Y197.539 E0.01532
G1 X247.641 Y197.885 E0.01544
G1 X247.005 Y198.230 E0.02270
G1 X246.291 Y198.350 E0.02270
G1 X6.040 Y197.867 E7.53292
G1 X5.551 Y197.810 E0.01544
G1 X5.087 Y197.645 E0.01544
G1 X4.672 Y197.381 E0.01544
G1 X4.324 Y197.027 E0.01555
G1 X3.981 Y196.398 E0.02247
G1 X3.860 Y195.691 E0.02247
G1 X3.860 Y110.672 E2.66573
G1 X3.917 Y110.182 E0.01544
G1 X4.083 Y109.715 E0.01555
G1 X4.348 Y109.300 E0.01544
G1 X4.700 Y108.955 E0.01544
G1 X127.918 Y25.766 E4.66150
G1 X128.460 Y25.619 E0.01760
G1 X240.132 Y10.619 E3.53283
G1 X242.423 Y10.600 E0.07185
G1 X243.229 Y10.755 E0.02574
G1 X243.871 Y11.164 E0.02386
; PURGING FINISHED
G1 E-2.40000 F4800.00000
G1 F8640
G1 X244.402 Y11.862 E-0.46294
G1 X244.604 Y12.658 E-0.43336
G1 X244.651 Y13.839 E-0.62370
G1 E-0.08000 F4800.00000
G1 Z0.800 F10800.000
G1 X138.374 Y151.418
G1 Z0.200
G1 E4.00000 F3000.00000
G1 F1200
G1 X138.795 Y151.723 E0.01631
G1 X139.013 Y151.940 E0.00964
G1 X139.323 Y152.367 E0.01652
G1 X139.543 Y152.862 E0.01699
G1 X139.655 Y153.392 E0.01699
G1 X139.655 Y153.934 E0.01699
G1 X139.542 Y154.464 E0.01699
G1 X139.321 Y154.958 E0.01698
G1 X139.015 Y155.379 E0.01631
G1 X138.798 Y155.597 E0.00965
G1 X138.371 Y155.906 E0.01652
G1 X137.876 Y156.125 E0.01699
G1 X137.346 Y156.237 E0.01697
G1 X136.811 Y156.237 E0.01679
G1 X136.281 Y156.125 E0.01697
G1 X135.786 Y155.906 E0.01699
G1 X135.348 Y155.588 E0.01699
G1 X134.995 Y155.197 E0.01652
G1 X134.827 Y154.938 E0.00965
G1 X134.616 Y154.463 E0.01631
G1 X134.503 Y153.934 E0.01698
G1 X134.502 Y153.392 E0.01699
G1 X134.615 Y152.862 E0.01699
G1 X134.835 Y152.367 E0.01699
G1 X135.153 Y151.928 E0.01699
G1 X135.556 Y151.566 E0.01699
G1 X136.025 Y151.295 E0.01699
G1 X136.526 Y151.132 E0.01652
G1 X136.830 Y151.085 E0.00964
G1 X137.350 Y151.085 E0.01630
G1 X137.879 Y151.198 E0.01698
G1 X138.319 Y151.394 E0.01510
G1 X138.166 Y151.738 F10800.000
G1 F1200
G1 X138.550 Y152.011 E0.01478
G1 X138.726 Y152.186 E0.00778
G1 X138.994 Y152.556 E0.01433
G1 X139.182 Y152.979 E0.01450
G1 X139.278 Y153.431 E0.01450
G1 X139.278 Y153.894 E0.01450
G1 X139.181 Y154.346 E0.01450
G1 X138.993 Y154.768 E0.01450
G1 X138.727 Y155.133 E0.01415
G1 X138.552 Y155.309 E0.00778
G1 X138.182 Y155.577 E0.01433
G1 X137.759 Y155.765 E0.01450
G1 X137.307 Y155.860 E0.01449
G1 X136.850 Y155.860 E0.01432
G1 X136.398 Y155.765 E0.01449
G1 X135.975 Y155.577 E0.01450
G1 X135.601 Y155.306 E0.01450
G1 X135.295 Y154.966 E0.01433
G1 X135.160 Y154.758 E0.00778
G1 X134.976 Y154.346 E0.01415
G1 X134.880 Y153.894 E0.01450
G1 X134.880 Y153.431 E0.01450
G1 X134.975 Y152.979 E0.01450
G1 X135.163 Y152.556 E0.01450
G1 X135.435 Y152.182 E0.01450
G1 X135.779 Y151.873 E0.01450
G1 X136.179 Y151.641 E0.01450
G1 X136.614 Y151.500 E0.01434
G1 X136.859 Y151.462 E0.00778
G1 X137.310 Y151.462 E0.01415
G1 X137.762 Y151.558 E0.01450
G1 X138.111 Y151.714 E0.01197
G1 X138.511 Y151.536 F10800.000
G1 E-2.40000 F4800.00000
G1 F8640
G1 X138.550 Y152.011 E-0.27983
G1 X138.726 Y152.186 E-0.13092
G1 X138.994 Y152.556 E-0.24128
G1 X139.182 Y152.979 E-0.24407
G1 X139.278 Y153.431 E-0.24408
G1 X139.278 Y153.894 E-0.24406
G1 X139.224 Y154.145 E-0.13575
G1 E-0.08000 F4800.00000
G1 Z0.800 F10800.000
G1 X222.752 Y153.392
G1 Z0.200
G1 E4.00000 F3000.00000
G1 F1200
G1 X222.865 Y152.862 E0.01699
G1 X223.085 Y152.367 E0.01699
G1 X223.403 Y151.928 E0.01699
G1 X223.806 Y151.566 E0.01699
G1 X224.275 Y151.295 E0.01699
G1 X224.776 Y151.132 E0.01652
G1 X225.080 Y151.085 E0.00964
G1 X225.600 Y151.085 E0.01630
G1 X226.130 Y151.198 E0.01698
G1 X226.624 Y151.418 E0.01698
G1 X227.045 Y151.723 E0.01631
G1 X227.263 Y151.940 E0.00965
G1 X227.573 Y152.367 E0.01652
G1 X227.793 Y152.862 E0.01699
G1 X227.905 Y153.392 E0.01699
G1 X227.905 Y153.934 E0.01699
G1 X227.792 Y154.464 E0.01699
G1 X227.571 Y154.958 E0.01698
G1 X227.265 Y155.379 E0.01631
G1 X227.048 Y155.597 E0.00965
G1 X226.621 Y155.906 E0.01652
G1 X226.126 Y156.125 E0.01699
G1 X225.596 Y156.237 E0.01697
G1 X225.061 Y156.237 E0.01679
G1 X224.531 Y156.125 E0.01697
G1 X224.036 Y155.906 E0.01699
G1 X223.597 Y155.588 E0.01699
G1 X223.245 Y155.197 E0.01652
G1 X223.077 Y154.938 E0.00965
G1 X222.866 Y154.463 E0.01631
G1 X222.753 Y153.934 E0.01698
G1 X222.752 Y153.452 E0.01510
G1 X223.130 Y153.452 F10800.000
G1 F1200
G1 X223.225 Y152.979 E0.01513
G1 X223.413 Y152.556 E0.01450
G1 X223.685 Y152.182 E0.01450
G1 X224.029 Y151.873 E0.01450
G1 X224.429 Y151.641 E0.01450
G1 X224.864 Y151.500 E0.01433
G1 X225.109 Y151.462 E0.00778
G1 X225.560 Y151.462 E0.01415
G1 X226.012 Y151.558 E0.01450
G1 X226.435 Y151.746 E0.01450
G1 X226.800 Y152.011 E0.01415
G1 X226.976 Y152.186 E0.00778
G1 X227.244 Y152.556 E0.01433
G1 X227.432 Y152.979 E0.01450
G1 X227.528 Y153.431 E0.01450
G1 X227.528 Y153.894 E0.01450
G1 X227.431 Y154.346 E0.01450
G1 X227.243 Y154.768 E0.01450
G1 X226.977 Y155.133 E0.01415
G1 X226.802 Y155.309 E0.00778
G1 X226.432 Y155.577 E0.01433
G1 X226.009 Y155.765 E0.01450
G1 X225.557 Y155.860 E0.01450
G1 X225.100 Y155.860 E0.01432
G1 X224.648 Y155.765 E0.01449
G1 X224.225 Y155.577 E0.01450
G1 X223.851 Y155.306 E0.01450
G1 X223.545 Y154.966 E0.01433
G1 X223.410 Y154.758 E0.00778
G1 X223.226 Y154.346 E0.01415
G1 X223.130 Y153.894 E0.01450
G1 X223.130 Y153.512 E0.01198
G1 X222.804 Y153.219 F10800.000
G1 E-2.40000 F4800.00000
G1 F8640
G1 X223.225 Y152.979 E-0.28570
G1 X223.413 Y152.556 E-0.24407
G1 X223.685 Y152.182 E-0.24407
G1 X224.029 Y151.873 E-0.24408
G1 X224.429 Y151.641 E-0.24408
G1 X224.864 Y151.500 E-0.24130
G1 X224.895 Y151.495 E-0.01671
G1 E-0.08000 F4800.00000
G1 Z0.800 F10800.000
G1 X232.699 Y142.918
G1 Z0.200
G1 E4.00000 F3000.00000
G1 F1200
G1 X232.699 Y164.404 E0.67369
G1 X245.706 Y167.946 E0.42267
G1 X245.706 Y195.393 E0.86058
G1 X231.373 Y191.490 E0.46575
G1 X231.373 Y167.455 E0.75359
G1 X196.920 Y158.074 E1.11957
G1 X128.188 Y158.074 E2.15507
G1 X128.188 Y149.248 E0.27673
G1 X196.920 Y149.248 E2.15507
G1 X231.373 Y139.867 E1.11957
G1 X231.373 Y115.832 E0.75359
G1 X245.706 Y111.929 E0.46575
G1 X245.706 Y139.376 E0.86058
G1 X232.757 Y142.902 E0.42078
G1 X233.076 Y143.206 F10800.000
G1 F1200
G1 X233.076 Y164.116 E0.65562
G1 X246.083 Y167.658 E0.42267
G1 X246.083 Y195.886 E0.88508
G1 X230.996 Y191.778 E0.49026
G1 X230.996 Y167.743 E0.75359
G1 X196.870 Y158.451 E1.10896
G1 X127.810 Y158.451 E2.16531
G1 X127.810 Y148.871 E0.30037
G1 X196.870 Y148.871 E2.16531
G1 X230.996 Y139.579 E1.10896
G1 X230.996 Y115.544 E0.75359
G1 X246.083 Y111.436 E0.49026
G1 X246.083 Y139.664 E0.88508
G1 X233.134 Y143.190 E0.42078
G1 X232.707 Y143.360 F10800.000
G1 E-2.40000 F4800.00000
G1 F8640
G1 X233.126 Y146.070 E-1.52000
G1 E-0.08000 F4800.00000
G1 Z0.800 F10800.000
G1 X226.279 Y151.140
G1 Z0.200
G1 E4.00000 F3000.00000
G1 F1200
G1 X218.739 Y143.600 E0.33450
G1 X218.319 Y143.714 E0.01363
G1 X225.407 Y150.802 E0.31442
G1 X225.058 Y150.802 E0.01095
G1 X224.898 Y150.827 E0.00508
G1 X217.900 Y143.829 E0.31045
G1 X217.481 Y143.943 E0.01363
G1 X224.471 Y150.934 E0.31013
G1 X224.159 Y151.035 E0.01031
G1 X224.083 Y151.079 E0.00274
G1 X217.061 Y144.057 E0.31151
G1 X216.642 Y144.171 E0.01363
G1 X223.745 Y151.274 E0.31511
G1 X223.638 Y151.336 E0.00387
G1 X223.446 Y151.509 E0.00811
G1 X216.223 Y144.285 E0.32046
G1 X215.803 Y144.399 E0.01363
G1 X223.171 Y151.767 E0.32684
G1 X222.946 Y152.076 E0.01198
G1 X215.384 Y144.514 E0.33549
G1 X214.965 Y144.628 E0.01363
G1 X222.753 Y152.416 E0.34552
G1 X222.591 Y152.788 E0.01271
G1 X214.545 Y144.742 E0.35694
G1 X214.126 Y144.856 E0.01363
G1 X222.498 Y153.228 E0.37140
G1 X222.470 Y153.362 E0.00430
G1 X222.470 Y153.734 E0.01164
G1 X213.707 Y144.970 E0.38876
G1 X213.287 Y145.085 E0.01363
G1 X222.803 Y154.600 E0.42214
G1 E-2.40000 F4800.00000
G1 F8640
G1 X220.767 Y152.564 E-1.52000
G1 E-0.08000 F4800.00000
G1 Z0.800 F10800.000
G1 X245.593 Y168.854
G1 Z0.200
G1 E4.00000 F3000.00000
G1 F1200
G1 X244.706 Y167.967 E0.03935
G1 X243.972 Y167.767 E0.02384
G1 X245.423 Y169.217 E0.06434
G1 X245.423 Y169.751 E0.01674
G1 X243.239 Y167.567 E0.09687
G1 X242.506 Y167.368 E0.02384
G1 X245.423 Y170.284 E0.12939
G1 X245.423 Y170.818 E0.01674
G1 X241.773 Y167.168 E0.16191
G1 X241.040 Y166.968 E0.02384
G1 X245.423 Y171.351 E0.19444
G1 X245.423 Y171.885 E0.01674
G1 X240.307 Y166.769 E0.22696
G1 X239.574 Y166.569 E0.02384
G1 X245.423 Y172.418 E0.25949
G1 X245.423 Y172.952 E0.01674
G1 X238.840 Y166.370 E0.29201
G1 X238.107 Y166.170 E0.02384
G1 X245.423 Y173.486 E0.32454
G1 X245.423 Y174.019 E0.01674
G1 X237.374 Y165.970 E0.35706
G1 X236.641 Y165.771 E0.02384
G1 X245.423 Y174.553 E0.38958
G1 X245.423 Y175.086 E0.01674
G1 X235.908 Y165.571 E0.42211
G1 X235.175 Y165.371 E0.02384
G1 X245.423 Y175.620 E0.45463
G1 X245.423 Y176.153 E0.01674
G1 X234.442 Y165.172 E0.48716
G1 X233.708 Y164.972 E0.02384
G1 X245.423 Y176.687 E0.51968
G1 X245.423 Y177.220 E0.01674
G1 X232.975 Y164.772 E0.55220
G1 X232.416 Y164.620 E0.01818
G1 X232.416 Y164.213 E0.01276
G1 X224.640 Y156.438 E0.34495
G1 X225.031 Y156.520 E0.01254
G1 X225.256 Y156.520 E0.00706
G1 X232.416 Y163.680 E0.31762
G1 X232.416 Y163.146 E0.01674
G1 X225.761 Y156.492 E0.29522
G1 X226.202 Y156.399 E0.01412
G1 X232.416 Y162.613 E0.27568
G1 X232.416 Y162.079 E0.01674
G1 X226.573 Y156.236 E0.25920
G1 X226.763 Y156.152 E0.00652
G1 X226.914 Y156.043 E0.00583
G1 X232.416 Y161.546 E0.24411
G1 X232.416 Y161.012 E0.01674
G1 X227.223 Y155.819 E0.23039
G1 X227.489 Y155.552 E0.01183
G1 X232.416 Y160.479 E0.21857
G1 X232.416 Y159.945 E0.01674
G1 X227.714 Y155.243 E0.20862
G1 X227.817 Y155.100 E0.00553
G1 X227.906 Y154.901 E0.00683
G1 X232.416 Y159.412 E0.20009
G1 X232.416 Y158.878 E0.01674
G1 X228.067 Y154.529 E0.19295
G1 X228.161 Y154.089 E0.01410
G1 X232.416 Y158.345 E0.18879
G1 X232.416 Y157.811 E0.01674
G1 X228.188 Y153.583 E0.18759
G1 X228.188 Y153.362 E0.00691
G1 X228.104 Y152.965 E0.01274
G1 X232.416 Y157.278 E0.19131
G1 X232.416 Y156.744 E0.01674
G1 X219.158 Y143.486 E0.58816
G1 X219.577 Y143.372 E0.01363
G1 X232.416 Y156.211 E0.56956
G1 X232.416 Y155.677 E0.01674
G1 X219.997 Y143.258 E0.55096
G1 X220.416 Y143.143 E0.01363
G1 X232.416 Y155.144 E0.53235
G1 X232.416 Y154.610 E0.01674
G1 X220.835 Y143.029 E0.51375
G1 X221.255 Y142.915 E0.01363
G1 X232.416 Y154.077 E0.49515
G1 X232.416 Y153.543 E0.01674
G1 X221.674 Y142.801 E0.47655
G1 X222.093 Y142.687 E0.01363
G1 X232.416 Y153.010 E0.45794
G1 X232.416 Y152.476 E0.01674
G1 X222.513 Y142.573 E0.43934
G1 X222.932 Y142.458 E0.01363
G1 X232.416 Y151.942 E0.42074
G1 X232.416 Y151.409 E0.01674
G1 X223.351 Y142.344 E0.40213
G1 X223.771 Y142.230 E0.01363
G1 X232.416 Y150.875 E0.38353
G1 X232.416 Y150.342 E0.01674
G1 X224.190 Y142.116 E0.36493
G1 X224.609 Y142.002 E0.01363
G1 X232.416 Y149.808 E0.34633
G1 X232.416 Y149.275 E0.01674
G1 X225.029 Y141.887 E0.32772
G1 X225.448 Y141.773 E0.01363
G1 X232.416 Y148.741 E0.30912
G1 X232.416 Y148.208 E0.01674
G1 X225.867 Y141.659 E0.29052
G1 X226.287 Y141.545 E0.01363
G1 X232.416 Y147.674 E0.27192
G1 X232.416 Y147.141 E0.01674
G1 X226.706 Y141.431 E0.25331
G1 X227.125 Y141.317 E0.01363
G1 X232.416 Y146.607 E0.23471
G1 X232.416 Y146.074 E0.01674
G1 X227.545 Y141.202 E0.21611
G1 X227.964 Y141.088 E0.01363
G1 X232.416 Y145.540 E0.19751
G1 X232.416 Y145.007 E0.01674
G1 X228.383 Y140.974 E0.17890
G1 X228.803 Y140.860 E0.01363
G1 X232.416 Y144.473 E0.16030
G1 X232.416 Y143.940 E0.01674
G1 X229.222 Y140.746 E0.14170
G1 X229.641 Y140.631 E0.01363
G1 X232.416 Y143.406 E0.12310
G1 X232.416 Y142.873 E0.01674
G1 X230.061 Y140.517 E0.10449
G1 X230.480 Y140.403 E0.01363
G1 X232.701 Y142.624 E0.09853
G1 X233.120 Y142.510 E0.01363
G1 X230.899 Y140.289 E0.09853
G1 X231.319 Y140.175 E0.01363
G1 X233.540 Y142.396 E0.09853
G1 X233.959 Y142.282 E0.01363
G1 X231.656 Y139.978 E0.10218
G1 X231.656 Y139.445 E0.01674
G1 X234.378 Y142.167 E0.12078
G1 X234.798 Y142.053 E0.01363
G1 X231.656 Y138.911 E0.13938
G1 X231.656 Y138.378 E0.01674
G1 X235.217 Y141.939 E0.15799
G1 X235.636 Y141.825 E0.01363
G1 X231.656 Y137.844 E0.17659
G1 X231.656 Y137.311 E0.01674
G1 X236.056 Y141.711 E0.19519
G1 X236.475 Y141.597 E0.01363
G1 X231.656 Y136.777 E0.21379
G1 X231.656 Y136.244 E0.01674
G1 X236.895 Y141.482 E0.23240
G1 X237.314 Y141.368 E0.01363
G1 X231.656 Y135.710 E0.25100
G1 X231.656 Y135.177 E0.01674
G1 X237.733 Y141.254 E0.26960
G1 X238.153 Y141.140 E0.01363
G1 X231.656 Y134.643 E0.28821
G1 X231.656 Y134.110 E0.01674
G1 X238.572 Y141.026 E0.30681
G1 X238.991 Y140.911 E0.01363
G1 X231.656 Y133.576 E0.32541
G1 X231.656 Y133.043 E0.01674
G1 X239.411 Y140.797 E0.34401
G1 X239.830 Y140.683 E0.01363
G1 X231.656 Y132.509 E0.36262
G1 X231.656 Y131.976 E0.01674
G1 X240.249 Y140.569 E0.38122
G1 X240.669 Y140.455 E0.01363
G1 X231.656 Y131.442 E0.39982
G1 X231.656 Y130.909 E0.01674
G1 X241.088 Y140.341 E0.41842
G1 X241.507 Y140.226 E0.01363
G1 X231.656 Y130.375 E0.43703
G1 X231.656 Y129.842 E0.01674
G1 X241.927 Y140.112 E0.45563
G1 X242.346 Y139.998 E0.01363
G1 X231.656 Y129.308 E0.47423
G1 X231.656 Y128.774 E0.01674
G1 X242.765 Y139.884 E0.49283
G1 X243.185 Y139.770 E0.01363
G1 X231.656 Y128.241 E0.51144
G1 X231.656 Y127.707 E0.01674
G1 X243.604 Y139.655 E0.53004
G1 X244.023 Y139.541 E0.01363
G1 X231.656 Y127.174 E0.54864
G1 X231.656 Y126.640 E0.01674
G1 X244.443 Y139.427 E0.56724
G1 X244.862 Y139.313 E0.01363
G1 X231.656 Y126.107 E0.58585
G1 X231.656 Y125.573 E0.01674
G1 X245.281 Y139.199 E0.60445
G1 X245.423 Y139.160 E0.00461
G1 X245.423 Y138.807 E0.01108
