; generated by PrusaSlicer 2.1.0+win64 on 2019-10-26 at 17:17:52 UTC

; 

; external perimeters extrusion width = 0.60mm
; perimeters extrusion width = 0.43mm
; infill extrusion width = 0.45mm
; solid infill extrusion width = 0.70mm
; top infill extrusion width = 0.43mm
; first layer extrusion width = 0.42mm

M73 P0 R135
M201 X9000 Y9000 Z500 E10000 ; sets maximum accelerations, mm/sec^2
M203 X500 Y500 Z12 E120 ; sets maximum feedrates, mm/sec
M204 P2000 R1500 T2000 ; sets acceleration (P, T) and retract acceleration (R), mm/sec^2
M205 X10.00 Y10.00 Z0.20 E2.50 ; sets the jerk limits, mm/sec
M205 S0 T0 ; sets the minimum extruding and travel feed rate, mm/sec
M107
M862.3 P "MK2SMM" ; printer model check
M862.1 P0.4 ; nozzle diameter check
M115 U3.2.3 ; tell printer latest fw version
M204 S2000 T1500 ; MK2 firmware only supports the old M204 format
; Start G-Code sequence START
T2
M104 S255 ; set extruder temp
M140 S100 ; set bed temp
M190 S100 ; wait for bed temp
M109 S255 ; wait for extruder temp
G21 ; set units to millimeters
G90 ; use absolute coordinates
M83 ; use relative distances for extrusion
G28 W
G80
G92 E0.0
M203 E100 ; set max feedrate
M92 E140 ; E-steps per filament milimeter

G1 Z0.250 F7200.000
G1 X50.0 E80.0 F1000.0
M73 P0 R135
G1 X160.0 E20.0 F1000.0
G1 Z0.200 F7200.000
G1 X220.0 E13 F1000.0
G1 X240.0 E0 F1000.0

G92 E0.0
G21 ; set units to millimeters
G90 ; use absolute coordinates
M83 ; use relative distances for extrusion
T2
M900 K200 ; Filament gcode
;BEFORE_LAYER_CHANGE
G92 E0.0
;0.2


G1 Z0.200 F10800.000
;AFTER_LAYER_CHANGE
;0.2
G1 E-4.00000 F4800.00000
G1 Z0.800 F10800.000
G1 X244.763 Y23.110
G1 Z0.200
G1 E4.00000 F3000.00000
M204 S1000
G1 F1200
G1 X244.965 Y23.906 E0.02574
G1 X248.841 Y122.348 E3.08898
G1 X248.842 Y207.431 E2.66770
G1 X248.782 Y207.916 E0.01532
G1 X248.617 Y208.376 E0.01532
G1 X248.353 Y208.787 E0.01532
G1 X248.002 Y209.132 E0.01544
G1 X247.366 Y209.478 E0.02270
G1 X246.652 Y209.597 E0.02270
G1 X6.401 Y209.115 E7.53292
G1 X5.912 Y209.058 E0.01544
G1 X5.444 Y208.891 E0.01555
G1 X5.030 Y208.626 E0.01544
G1 X4.685 Y208.275 E0.01544
G1 X4.342 Y207.645 E0.02247
G1 X4.220 Y206.939 E0.02247
G1 X4.220 Y121.919 E2.66573
G1 X4.277 Y121.430 E0.01544
G1 X4.444 Y120.963 E0.01555
G1 X4.709 Y120.548 E0.01544
G1 X5.060 Y120.203 E0.01544
G1 X128.279 Y37.013 E4.66150
G1 X128.821 Y36.867 E0.01760
G1 X240.492 Y21.866 E3.53283
G1 X242.784 Y21.847 E0.07185
G1 X243.590 Y22.003 E0.02574
G1 X244.282 Y22.444 E0.02574
G1 X244.728 Y23.061 E0.02386
G1 E-2.40000 F4800.00000
G1 F8640
G1 X244.965 Y23.906 E-0.46294
G1 X245.043 Y25.907 E-1.05706
G1 E-0.08000 F4800.00000
G1 Z0.800 F10800.000
G1 X22.481 Y149.752
G1 Z0.200
G1 E4.00000 F3000.00000
G1 F1200
G1 X55.935 Y158.861 E1.08712
G1 X125.295 Y158.861 E2.17471
G1 X125.364 Y158.890 E0.00235
G1 X125.638 Y159.164 E0.01215
G1 X125.667 Y159.233 E0.00235
G1 X125.667 Y169.620 E0.32569
G1 X125.638 Y169.690 E0.00235
G1 X125.364 Y169.963 E0.01215
G1 X125.295 Y169.992 E0.00235
G1 X55.935 Y169.992 E2.17471
M73 P0 R134
G1 X22.481 Y179.102 E1.08712
G1 X22.481 Y202.863 E0.74502
G1 X22.461 Y202.922 E0.00195
G1 X22.269 Y203.174 E0.00995
G1 X22.217 Y203.208 E0.00195
G1 X6.335 Y207.533 E0.51610
G1 X6.248 Y207.516 E0.00276
G1 X5.882 Y207.236 E0.01445
G1 X5.843 Y207.157 E0.00276
G1 X5.843 Y178.104 E0.91093
G1 X5.863 Y178.045 E0.00195
G1 X6.056 Y177.793 E0.00995
G1 X6.107 Y177.759 E0.00195
G1 X18.850 Y174.289 E0.41409
G1 X18.850 Y154.564 E0.61845
G1 X6.107 Y151.094 E0.41409
G1 X6.056 Y151.060 E0.00195
G1 X5.863 Y150.808 E0.00995
G1 X5.843 Y150.749 E0.00195
G1 X5.843 Y121.696 E0.91093
G1 X5.882 Y121.617 E0.00276
G1 X6.248 Y121.337 E0.01445
G1 X6.335 Y121.320 E0.00276
G1 X22.217 Y125.645 E0.51610
G1 X22.269 Y125.679 E0.00195
G1 X22.461 Y125.932 E0.00995
G1 X22.481 Y125.990 E0.00195
G1 X22.481 Y149.692 E0.74313
G1 X22.104 Y150.040 F10800.000
G1 F1200
G1 X55.885 Y159.238 E1.09774
G1 X125.179 Y159.238 E2.17267
G1 X125.290 Y159.348 E0.00490
G1 X125.290 Y169.505 E0.31844
G1 X125.179 Y169.615 E0.00490
G1 X55.885 Y169.615 E2.17267
G1 X22.104 Y178.813 E1.09774
G1 X22.104 Y202.768 E0.75108
G1 X22.027 Y202.869 E0.00400
G1 X6.368 Y207.133 E0.50883
G1 X6.220 Y207.020 E0.00585
G1 X6.220 Y178.199 E0.90366
G1 X6.298 Y178.098 E0.00400
G1 X19.227 Y174.577 E0.42015
G1 X19.227 Y154.276 E0.63652
G1 X6.298 Y150.755 E0.42015
G1 X6.220 Y150.654 E0.00400
G1 X6.220 Y121.833 E0.90366
G1 X6.368 Y121.720 E0.00585
G1 X22.027 Y125.984 E0.50883
G1 X22.104 Y126.085 E0.00400
G1 X22.104 Y149.980 E0.74920
G1 E-2.40000 F4800.00000
G1 F8640
G1 X24.882 Y150.741 E-1.52000
G1 E-0.08000 F4800.00000
G1 Z0.800 F10800.000
G1 X204.619 Y65.718
G1 Z0.200
G1 E4.00000 F3000.00000
G1 F1200
G1 X204.619 Y72.354 E0.20809
G1 X240.978 Y83.470 E1.19210
G1 X242.974 Y83.470 E0.06257
G1 X243.043 Y83.499 E0.00235
G1 X243.317 Y83.773 E0.01215
G1 X243.345 Y83.842 E0.00235
G1 X243.345 Y114.230 E0.95278
G1 X243.317 Y114.299 E0.00235
G1 X243.043 Y114.573 E0.01215
G1 X242.974 Y114.601 E0.00235
G1 X240.700 Y114.601 E0.07127
G1 X240.473 Y114.520 E0.00757
G1 X237.324 Y111.380 E0.13945
G1 X237.221 Y111.161 E0.00757
G1 X237.214 Y99.188 E0.37542
G1 X164.973 Y77.101 E2.36857
G1 X137.680 Y77.101 E0.85574
G1 X137.680 Y96.115 E0.59616
G1 X137.599 Y96.343 E0.00757
G1 X134.459 Y99.492 E0.13945
G1 X134.240 Y99.595 E0.00757
G1 X128.921 Y99.601 E0.16678
G1 X128.852 Y99.573 E0.00235
G1 X128.578 Y99.299 E0.01215
G1 X128.549 Y99.230 E0.00235
G1 X128.549 Y38.842 E1.89340
G1 X128.578 Y38.773 E0.00235
G1 X128.852 Y38.499 E0.01215
G1 X128.921 Y38.470 E0.00235
G1 X134.240 Y38.477 E0.16678
G1 X134.459 Y38.580 E0.00757
G1 X137.571 Y41.692 E0.13800
G1 X137.674 Y41.910 E0.00757
G1 X137.680 Y60.970 E0.59761
G1 X164.973 Y60.970 E0.85574
G1 X237.214 Y38.884 E2.36857
G1 X237.221 Y26.910 E0.37542
G1 X237.324 Y26.692 E0.00757
G1 X240.473 Y23.552 E0.13945
G1 X240.700 Y23.470 E0.00757
G1 X242.974 Y23.470 E0.07127
G1 X243.043 Y23.499 E0.00235
G1 X243.317 Y23.773 E0.01215
G1 X243.345 Y23.842 E0.00235
G1 X243.345 Y54.230 E0.95278
G1 X243.317 Y54.299 E0.00235
G1 X243.043 Y54.573 E0.01215
G1 X242.974 Y54.601 E0.00235
G1 X240.978 Y54.601 E0.06257
G1 X204.676 Y65.700 E1.19021
G1 X204.242 Y65.439 F10800.000
G1 F1200
G1 X204.242 Y72.633 E0.22559
G1 X240.922 Y83.847 E1.20261
M73 P1 R133
G1 X242.858 Y83.847 E0.06071
G1 X242.968 Y83.958 E0.00490
G1 X242.968 Y114.114 E0.94553
G1 X242.858 Y114.224 E0.00490
G1 X240.742 Y114.224 E0.06633
G1 X240.673 Y114.196 E0.00235
G1 X237.620 Y111.143 E0.13538
G1 X237.591 Y111.073 E0.00235
G1 X237.591 Y98.909 E0.38141
G1 X165.029 Y76.724 E2.37909
G1 X137.303 Y76.724 E0.86933
G1 X137.303 Y96.073 E0.60667
G1 X137.275 Y96.143 E0.00235
G1 X134.222 Y99.196 E0.13538
G1 X134.152 Y99.224 E0.00235
G1 X129.037 Y99.224 E0.16040
G1 X128.926 Y99.114 E0.00490
G1 X128.926 Y38.958 E1.88616
G1 X129.037 Y38.847 E0.00490
G1 X134.152 Y38.847 E0.16040
G1 X134.222 Y38.876 E0.00235
G1 X137.275 Y41.929 E0.13538
G1 X137.303 Y41.998 E0.00235
G1 X137.303 Y61.347 E0.60667
G1 X165.029 Y61.347 E0.86933
G1 X237.591 Y39.163 E2.37909
G1 X237.591 Y26.998 E0.38141
G1 X237.620 Y26.929 E0.00235
G1 X240.673 Y23.876 E0.13538
G1 X240.742 Y23.847 E0.00235
G1 X242.858 Y23.847 E0.06633
G1 X242.968 Y23.958 E0.00490
G1 X242.968 Y54.114 E0.94553
G1 X242.858 Y54.224 E0.00490
G1 X240.922 Y54.224 E0.06071
G1 X204.299 Y65.421 E1.20073
G1 E-2.40000 F4800.00000
G1 F8640
G1 X204.276 Y68.301 E-1.52000
G1 E-0.08000 F4800.00000
G1 Z0.800 F10800.000
G1 X234.212 Y155.046
G1 Z0.200
G1 E4.00000 F3000.00000
G1 F1200
G1 X234.212 Y174.771 E0.61845
G1 X246.955 Y178.241 E0.41409
G1 X247.006 Y178.275 E0.00195
G1 X247.199 Y178.528 E0.00995
G1 X247.219 Y178.586 E0.00195
G1 X247.219 Y207.639 E0.91093
G1 X247.180 Y207.718 E0.00276
G1 X246.813 Y207.998 E0.01445
G1 X246.727 Y208.015 E0.00276
G1 X230.845 Y203.690 E0.51611
G1 X230.793 Y203.656 E0.00195
G1 X230.601 Y203.404 E0.00995
G1 X230.581 Y203.345 E0.00195
G1 X230.581 Y179.584 E0.74501
G1 X197.127 Y170.474 E1.08712
G1 X127.767 Y170.474 E2.17471
G1 X127.698 Y170.446 E0.00235
G1 X127.424 Y170.172 E0.01215
G1 X127.395 Y170.102 E0.00235
G1 X127.395 Y159.715 E0.32569
G1 X127.424 Y159.646 E0.00235
G1 X127.698 Y159.372 E0.01215
G1 X127.767 Y159.343 E0.00235
G1 X197.127 Y159.343 E2.17471
G1 X230.581 Y150.234 E1.08712
G1 X230.581 Y126.473 E0.74502
G1 X230.601 Y126.414 E0.00195
G1 X230.793 Y126.162 E0.00995
G1 X230.845 Y126.127 E0.00195
G1 X246.727 Y121.802 E0.51610
G1 X246.813 Y121.819 E0.00276
G1 X247.180 Y122.099 E0.01445
G1 X247.219 Y122.178 E0.00276
G1 X247.219 Y151.231 E0.91093
G1 X247.199 Y151.290 E0.00195
G1 X247.006 Y151.542 E0.00995
G1 X246.955 Y151.577 E0.00195
G1 X234.270 Y155.031 E0.41221
G1 X233.835 Y154.758 F10800.000
G1 F1200
G1 X233.835 Y175.059 E0.63652
G1 X246.764 Y178.580 E0.42015
G1 X246.842 Y178.681 E0.00400
G1 X246.842 Y207.502 E0.90366
G1 X246.694 Y207.615 E0.00585
G1 X231.035 Y203.351 E0.50883
G1 X230.958 Y203.250 E0.00400
G1 X230.958 Y179.296 E0.75108
G1 X197.177 Y170.097 E1.09774
G1 X127.883 Y170.097 E2.17267
G1 X127.772 Y169.987 E0.00490
G1 X127.772 Y159.831 E0.31844
G1 X127.883 Y159.720 E0.00490
G1 X197.177 Y159.720 E2.17267
G1 X230.958 Y150.522 E1.09774
M73 P2 R132
G1 X230.958 Y126.567 E0.75108
G1 X231.035 Y126.466 E0.00400
G1 X246.694 Y122.202 E0.50883
G1 X246.842 Y122.316 E0.00585
G1 X246.842 Y151.136 E0.90366
G1 X246.764 Y151.238 E0.00400
G1 X233.893 Y154.742 E0.41827
G1 X233.436 Y154.454 F10800.000
G1 F1200
G1 X233.436 Y175.364 E0.65562
G1 X246.443 Y178.905 E0.42267
G1 X246.443 Y207.134 E0.88508
G1 X231.356 Y203.026 E0.49026
G1 X231.356 Y178.991 E0.75359
G1 X197.230 Y169.699 E1.10896
G1 X128.171 Y169.699 E2.16531
G1 X128.171 Y160.119 E0.30037
G1 X197.230 Y160.119 E2.16531
G1 X231.356 Y150.826 E1.10896
G1 X231.356 Y126.792 E0.75359
G1 X246.443 Y122.684 E0.49026
G1 X246.443 Y150.912 E0.88508
G1 X233.494 Y154.438 E0.42078
G1 X233.067 Y154.607 F10800.000
G1 X233.059 Y154.166
G1 F1200
G1 X233.059 Y175.652 E0.67369
G1 X246.066 Y179.194 E0.42267
G1 X246.066 Y206.640 E0.86058
G1 X231.733 Y202.738 E0.46575
G1 X231.733 Y178.703 E0.75359
G1 X197.281 Y169.322 E1.11957
G1 X128.548 Y169.322 E2.15507
G1 X128.548 Y160.496 E0.27673
G1 X197.281 Y160.496 E2.15507
G1 X231.733 Y151.114 E1.11957
G1 X231.733 Y127.080 E0.75359
G1 X246.066 Y123.177 E0.46575
G1 X246.066 Y150.624 E0.86058
G1 X233.117 Y154.150 E0.42078
G1 E-2.40000 F4800.00000
G1 F8640
G1 X233.109 Y157.030 E-1.52000
G1 E-0.08000 F4800.00000
G1 Z0.800 F10800.000
G1 X226.795 Y162.994
G1 Z0.200
G1 E4.00000 F3000.00000
G1 F1200
G1 X227.160 Y163.259 E0.01415
G1 X227.336 Y163.434 E0.00778
G1 X227.605 Y163.804 E0.01433
G1 X227.792 Y164.227 E0.01450
G1 X227.888 Y164.679 E0.01450
G1 X227.888 Y165.141 E0.01450
G1 X227.791 Y165.594 E0.01450
G1 X227.603 Y166.016 E0.01450
G1 X227.338 Y166.381 E0.01415
G1 X227.163 Y166.557 E0.00778
G1 X226.792 Y166.825 E0.01433
G1 X226.370 Y167.012 E0.01450
G1 X225.917 Y167.108 E0.01450
G1 X225.461 Y167.108 E0.01432
G1 X225.008 Y167.012 E0.01449
G1 X224.586 Y166.825 E0.01450
G1 X224.211 Y166.553 E0.01450
G1 X223.905 Y166.214 E0.01433
G1 X223.770 Y166.006 E0.00778
G1 X223.587 Y165.594 E0.01415
G1 X223.490 Y165.141 E0.01450
G1 X223.490 Y164.679 E0.01450
G1 X223.586 Y164.227 E0.01450
G1 X223.774 Y163.804 E0.01450
G1 X224.045 Y163.430 E0.01450
G1 X224.389 Y163.120 E0.01450
G1 X224.789 Y162.889 E0.01450
G1 X225.224 Y162.748 E0.01433
G1 X225.469 Y162.709 E0.00778
G1 X225.920 Y162.710 E0.01415
G1 X226.373 Y162.806 E0.01450
G1 X226.740 Y162.970 E0.01262
G1 X227.141 Y162.794 F10800.000
G1 X226.985 Y162.666
G1 F1200
G1 X227.405 Y162.971 E0.01631
G1 X227.623 Y163.188 E0.00965
G1 X227.933 Y163.615 E0.01652
G1 X228.153 Y164.110 E0.01699
G1 X228.265 Y164.640 E0.01699
G1 X228.265 Y165.181 E0.01699
G1 X228.152 Y165.711 E0.01699
G1 X227.931 Y166.206 E0.01698
G1 X227.626 Y166.627 E0.01631
G1 X227.408 Y166.844 E0.00965
G1 X226.982 Y167.153 E0.01652
G1 X226.486 Y167.373 E0.01699
G1 X225.957 Y167.485 E0.01697
G1 X225.421 Y167.485 E0.01679
G1 X224.892 Y167.373 E0.01697
G1 X224.397 Y167.153 E0.01699
G1 X223.958 Y166.836 E0.01699
G1 X223.605 Y166.444 E0.01652
G1 X223.438 Y166.186 E0.00965
G1 X223.226 Y165.711 E0.01631
G1 X223.113 Y165.181 E0.01698
G1 X223.113 Y164.640 E0.01699
G1 X223.225 Y164.110 E0.01699
G1 X223.445 Y163.615 E0.01699
G1 X223.764 Y163.176 E0.01699
G1 X224.166 Y162.814 E0.01699
G1 X224.635 Y162.543 E0.01699
G1 X225.136 Y162.380 E0.01652
G1 X225.440 Y162.332 E0.00964
G1 X225.960 Y162.333 E0.01630
G1 X226.490 Y162.445 E0.01698
G1 X226.930 Y162.641 E0.01510
G1 E-2.40000 F4800.00000
G1 F8640
G1 X227.405 Y162.971 E-0.30554
G1 X227.623 Y163.188 E-0.16235
G1 X227.933 Y163.615 E-0.27811
G1 X228.153 Y164.110 E-0.28593
G1 X228.265 Y164.640 E-0.28594
G1 X228.265 Y165.023 E-0.20214
G1 E-0.08000 F4800.00000
G1 Z0.800 F10800.000
G1 X139.638 Y164.679
G1 Z0.200
G1 E4.00000 F3000.00000
G1 F1200
G1 X139.638 Y165.141 E0.01450
G1 X139.541 Y165.594 E0.01450
G1 X139.353 Y166.016 E0.01450
G1 X139.088 Y166.381 E0.01415
G1 X138.913 Y166.557 E0.00778
G1 X138.542 Y166.825 E0.01433
G1 X138.120 Y167.012 E0.01450
G1 X137.667 Y167.108 E0.01449
G1 X137.211 Y167.108 E0.01432
G1 X136.758 Y167.012 E0.01449
G1 X136.336 Y166.825 E0.01450
G1 X135.961 Y166.553 E0.01450
G1 X135.655 Y166.214 E0.01433
G1 X135.520 Y166.006 E0.00778
G1 X135.337 Y165.594 E0.01415
G1 X135.240 Y165.141 E0.01450
G1 X135.240 Y164.679 E0.01450
G1 X135.336 Y164.227 E0.01450
G1 X135.524 Y163.804 E0.01450
G1 X135.795 Y163.430 E0.01450
G1 X136.139 Y163.120 E0.01450
G1 X136.539 Y162.889 E0.01450
G1 X136.974 Y162.748 E0.01434
G1 X137.219 Y162.709 E0.00778
G1 X137.670 Y162.710 E0.01415
G1 X138.123 Y162.806 E0.01450
G1 X138.545 Y162.994 E0.01450
G1 X138.910 Y163.259 E0.01415
G1 X139.086 Y163.434 E0.00778
G1 X139.355 Y163.804 E0.01433
G1 X139.542 Y164.227 E0.01450
G1 X139.626 Y164.620 E0.01262
G1 X140.004 Y164.842 F10800.000
G1 X140.015 Y164.640
G1 F1200
G1 X140.015 Y165.181 E0.01699
G1 X139.902 Y165.711 E0.01699
G1 X139.681 Y166.206 E0.01698
G1 X139.376 Y166.627 E0.01631
G1 X139.158 Y166.844 E0.00965
G1 X138.732 Y167.153 E0.01652
G1 X138.236 Y167.373 E0.01699
G1 X137.707 Y167.485 E0.01697
G1 X137.171 Y167.485 E0.01679
G1 X136.642 Y167.373 E0.01697
G1 X136.147 Y167.153 E0.01699
G1 X135.708 Y166.836 E0.01699
G1 X135.355 Y166.444 E0.01652
G1 X135.188 Y166.186 E0.00965
G1 X134.976 Y165.711 E0.01631
G1 X134.863 Y165.181 E0.01698
G1 X134.863 Y164.640 E0.01699
G1 X134.975 Y164.110 E0.01699
G1 X135.195 Y163.615 E0.01699
G1 X135.514 Y163.176 E0.01699
G1 X135.916 Y162.814 E0.01699
G1 X136.385 Y162.543 E0.01699
G1 X136.886 Y162.380 E0.01652
G1 X137.190 Y162.332 E0.00964
G1 X137.710 Y162.333 E0.01630
G1 X138.240 Y162.445 E0.01698
G1 X138.735 Y162.666 E0.01698
G1 X139.155 Y162.971 E0.01631
G1 X139.373 Y163.188 E0.00964
G1 X139.683 Y163.615 E0.01652
G1 X139.903 Y164.110 E0.01699
G1 X140.003 Y164.581 E0.01511
G1 E-2.40000 F4800.00000
G1 F8640
G1 X140.015 Y165.181 E-0.31695
G1 X139.902 Y165.711 E-0.28594
G1 X139.681 Y166.206 E-0.28574
G1 X139.376 Y166.627 E-0.27457
G1 X139.158 Y166.844 E-0.16240
G1 X138.860 Y167.060 E-0.19439
G1 E-0.08000 F4800.00000
G1 Z0.800 F10800.000
G1 X136.268 Y167.517
G1 Z0.200
G1 E4.00000 F3000.00000
G1 F1200
G1 X137.790 Y169.039 E0.06752
G1 X138.324 Y169.039 E0.01674
G1 X137.029 Y167.744 E0.05744
G1 X137.142 Y167.768 E0.00362
G1 X137.586 Y167.768 E0.01395
G1 X138.857 Y169.039 E0.05638
G1 X139.391 Y169.039 E0.01674
G1 X138.053 Y167.701 E0.05935
G1 X138.324 Y167.644 E0.00869
G1 X138.466 Y167.581 E0.00488
G1 X139.924 Y169.039 E0.06469
G1 X140.458 Y169.039 E0.01674
G1 X138.836 Y167.417 E0.07196
G1 X139.151 Y167.199 E0.01203
G1 X140.991 Y169.039 E0.08164
G1 X141.525 Y169.039 E0.01674
G1 X139.444 Y166.958 E0.09231
G1 X139.591 Y166.811 E0.00653
G1 X139.692 Y166.672 E0.00537
G1 X142.059 Y169.039 E0.10499
G1 X142.592 Y169.039 E0.01674
G1 X139.916 Y166.363 E0.11870
G1 X140.084 Y165.997 E0.01263
G1 X143.126 Y169.039 E0.13493
G1 X143.659 Y169.039 E0.01674
G1 X140.216 Y165.596 E0.15275
G1 X140.298 Y165.144 E0.01439
G1 X144.193 Y169.039 E0.17278
G1 X144.726 Y169.039 E0.01674
G1 X140.298 Y164.611 E0.19643
G1 X140.174 Y164.022 E0.01889
