;FLAVOR:RepRap
;TIME:8810
;Filament used: 4.39627m
;Layer height: 0.1
;Generated with Cura_SteamEngine 2.4.0
M190 S60
M104 S205
M109 S205
G21 ;metric values
G90 ;absolute positioning
M82 ;set extruder to absolute mode
M107 ;start with the fan off
G28 ;Home all axes (max endstops)

M0 Add PROBE
M106 S255 ;	Turn fan on 100% power, cool the probe
M117 Auto leveling...
G29   ; DAQ -- auto level
M500
G1 x0 y0
M0 Remove PROBE

G1 Z75.0 F9000 ;move the platform down 15mm
G92 E0 ;zero the extruded length
G1 F200 E3 ;extrude 3mm of feed stock
G92 E0 ;zero the extruded length again

G1 Z100 F9000
M0 CLEAN ME...

M106 S191 ;	Turn fan on 50% power

G1 F9000
M117 Printing...
;LAYER_COUNT:109
;LAYER:0
M107
G1 F1500 E-6.5
G1 Z21
G0 F3600 X-2.812 Y-35.881 Z1.175
;TYPE:SKIRT
G1 Z0.175
G1 F1500 E0
G1 F1800 X2.626 Y-36.009 E0.1583
G1 X10.021 Y-36.603 E0.37421
G1 X10.727 Y-36.594 E0.39476
G1 X14.029 Y-36.243 E0.4914
G1 X19.48 Y-35.907 E0.65034
G1 X24.92 Y-35.882 E0.80866
G1 X30.368 Y-36.163 E0.96742
G1 X35.017 Y-36.621 E1.10337
G1 X35.825 Y-36.614 E1.12689
G1 X36.639 Y-36.52 E1.15073
G1 X37.18 Y-36.417 E1.16676
G1 X37.603 Y-36.278 E1.17972
G1 X38.33 Y-35.99 E1.20248
G1 X38.963 Y-35.667 E1.22316
G1 X42.631 Y-33.344 E1.34951
G1 X47.374 Y-30.64 E1.5084
G1 X52.253 Y-28.212 E1.66701
G1 X57.228 Y-26.078 E1.82455
G1 X59.97 Y-25.037 E1.90991
G1 X60.469 Y-24.804 E1.92593
G1 X60.93 Y-24.502 E1.94197
G1 X61.342 Y-24.136 E1.95801
G1 X61.697 Y-23.715 E1.97404
G1 X61.988 Y-23.247 E1.99008
G1 X62.207 Y-22.741 E2.00612
G1 X62.351 Y-22.209 E2.02216
G1 X62.421 Y-21.484 E2.04336
G1 X62.426 Y23.195 E3.34363
G1 X62.386 Y23.744 E3.35965
G1 X62.267 Y24.282 E3.37569
G1 X62.072 Y24.797 E3.39172
G1 X61.804 Y25.279 E3.40777
G1 X61.469 Y25.716 E3.42379
G1 X61.074 Y26.101 E3.43984
G1 X60.628 Y26.425 E3.45589
G1 X60.14 Y26.68 E3.47191
G1 X59.62 Y26.863 E3.48795
G1 X59.08 Y26.968 E3.50396
G1 X58.797 Y26.991 E3.51223
G1 X56.475 Y27.095 E3.57987
G1 X51.029 Y27.562 E3.73895
G1 X45.627 Y28.335 E3.89776
G1 X40.317 Y29.404 E4.05539
G1 X37.665 Y30.054 E4.13486
G1 X32.447 Y31.575 E4.29304
G1 X27.318 Y33.388 E4.45135
G1 X20.661 Y36.236 E4.66208
G1 X20.14 Y36.415 E4.67811
G1 X19.598 Y36.517 E4.69416
G1 X19.168 Y36.542 E4.70669
G1 X1.675 Y36.553 E5.21579
G1 X-3.833 Y36.709 E5.37615
G1 X-6.053 Y36.858 E5.4409
G1 X-6.314 Y36.867 E5.4485
G1 X-26.367 Y36.834 E6.0321
G1 X-26.917 Y36.793 E6.04815
G1 X-27.455 Y36.673 E6.06419
G1 X-27.973 Y36.475 E6.08033
G1 X-32.922 Y34.157 E6.23937
G1 X-35.334 Y33.148 E6.31546
G1 X-40.505 Y31.24 E6.47587
G1 X-45.711 Y29.646 E6.63432
G1 X-51.062 Y28.334 E6.79466
G1 X-53.631 Y27.821 E6.8709
G1 X-59.218 Y26.935 E7.03553
G1 X-59.755 Y26.81 E7.05158
G1 X-60.268 Y26.608 E7.06762
G1 X-60.746 Y26.334 E7.08366
G1 X-61.179 Y25.994 E7.09968
G1 X-61.559 Y25.594 E7.11574
G1 X-61.877 Y25.144 E7.13177
G1 X-62.127 Y24.653 E7.14781
G1 X-62.303 Y24.131 E7.16384
G1 X-62.401 Y23.589 E7.17987
G1 X-62.423 Y23.182 E7.19173
G1 X-62.422 Y-21.485 E8.49166
G1 X-62.382 Y-22.035 E8.50771
G1 X-62.263 Y-22.573 E8.52374
G1 X-62.067 Y-23.088 E8.53978
G1 X-61.799 Y-23.569 E8.5558
G1 X-61.465 Y-24.007 E8.57183
G1 X-61.07 Y-24.391 E8.58786
G1 X-60.455 Y-24.814 E8.60959
G1 X-58.842 Y-25.702 E8.66317
G1 X-54.146 Y-28.508 E8.82238
G1 X-49.63 Y-31.567 E8.98112
G1 X-44.035 Y-35.808 E9.18544
G1 X-43.573 Y-36.109 E9.20149
G1 X-42.947 Y-36.383 E9.22137
G1 X-42.013 Y-36.696 E9.25004
G1 X-41.48 Y-36.833 E9.26606
G1 X-41.062 Y-36.884 E9.27831
G1 X-40.455 Y-36.925 E9.29602
G1 X-39.829 Y-36.916 E9.31424
G1 X-32.567 Y-36.205 E9.52659
G1 X-27.129 Y-36.014 E9.68495
G1 X-21.704 Y-36.132 E9.84287
G1 X-15.347 Y-36.64 E10.02846
G1 X-14.705 Y-36.637 E10.04715
G1 X-8.249 Y-36.059 E10.23579
G1 X-2.812 Y-35.881 E10.3941
G0 F3600 X-2.815 Y-35.48
G1 F1800 X2.65 Y-35.61 E10.55319
G1 X10.053 Y-36.204 E10.76933
G1 X10.685 Y-36.196 E10.78773
G1 X13.984 Y-35.845 E10.88428
G1 X19.471 Y-35.508 E11.04426
G1 X24.938 Y-35.481 E11.20337
G1 X30.386 Y-35.763 E11.36213
G1 X35.056 Y-36.223 E11.4987
G1 X35.779 Y-36.217 E11.51974
G1 X36.593 Y-36.123 E11.54359
G1 X37.105 Y-36.023 E11.55877
G1 X37.455 Y-35.906 E11.56951
G1 X38.182 Y-35.618 E11.59227
G1 X38.749 Y-35.33 E11.61078
G1 X42.431 Y-32.998 E11.73762
G1 X47.191 Y-30.284 E11.89708
G1 X52.082 Y-27.851 E12.05606
G1 X57.087 Y-25.704 E12.21455
G1 X57.086 Y-25.704 E12.21458
G1 X59.828 Y-24.663 E12.29994
G1 X60.299 Y-24.441 E12.31509
G1 X60.732 Y-24.15 E12.33028
G1 X61.114 Y-23.796 E12.34543
G1 X61.438 Y-23.388 E12.3606
G1 X61.696 Y-22.935 E12.37577
G1 X61.882 Y-22.448 E12.39094
G1 X61.991 Y-21.938 E12.40612
G1 X62.021 Y-21.484 E12.41936
G1 X62.026 Y23.195 E13.71963
G1 X61.986 Y23.714 E13.73478
G1 X61.867 Y24.222 E13.74997
G1 X61.672 Y24.705 E13.76513
G1 X61.406 Y25.153 E13.78029
G1 X61.074 Y25.555 E13.79546
G1 X60.685 Y25.901 E13.81061
G1 X60.247 Y26.184 E13.82579
G1 X59.771 Y26.396 E13.84095
G1 X59.268 Y26.534 E13.85613
G1 X58.779 Y26.592 E13.87047
G1 X56.445 Y26.697 E13.93846
G1 X50.976 Y27.166 E14.09821
G1 X45.56 Y27.941 E14.25743
G1 X40.211 Y29.017 E14.41622
G1 X37.576 Y29.664 E14.49518
G1 X32.312 Y31.197 E14.65474
G1 X27.176 Y33.014 E14.81329
G1 X20.503 Y35.868 E15.02451
G1 X20.01 Y36.036 E15.03967
G1 X19.496 Y36.126 E15.05485
G1 X19.168 Y36.142 E15.06441
G1 X1.7 Y36.153 E15.57278
G1 X-3.872 Y36.311 E15.735
G1 X-6.08 Y36.459 E15.7994
G1 X-6.314 Y36.467 E15.80622
G1 X-26.367 Y36.434 E16.38981
G1 X-26.886 Y36.393 E16.40496
G1 X-27.393 Y36.273 E16.42013
G1 X-27.803 Y36.113 E16.43294
G1 X-32.758 Y33.792 E16.59218
G1 X-35.191 Y32.774 E16.66893
G1 X-40.386 Y30.857 E16.83008
G1 X-45.604 Y29.26 E16.98889
G1 X-50.959 Y27.947 E17.14936
G1 X-53.564 Y27.427 E17.22666
G1 X-59.156 Y26.54 E17.39144
G1 X-59.663 Y26.419 E17.40661
G1 X-60.145 Y26.222 E17.42176
G1 X-60.592 Y25.954 E17.43693
G1 X-60.992 Y25.62 E17.4521
G1 X-61.337 Y25.23 E17.46725
G1 X-61.618 Y24.791 E17.48242
G1 X-61.829 Y24.314 E17.4976
G1 X-61.964 Y23.811 E17.51276
G1 X-62.023 Y23.182 E17.53114
G1 X-62.022 Y-21.485 E18.83107
G1 X-61.982 Y-22.005 E18.84625
G1 X-61.863 Y-22.512 E18.8614
G1 X-61.668 Y-22.995 E18.87656
G1 X-61.401 Y-23.443 E18.89174
G1 X-61.07 Y-23.845 E18.90689
G1 X-60.68 Y-24.191 E18.92207
G1 X-60.262 Y-24.463 E18.93658
G1 X-58.646 Y-25.353 E18.99027
G1 X-53.943 Y-28.163 E19.14971
G1 X-49.408 Y-31.235 E19.30912
G1 X-43.794 Y-35.49 E19.51413
G1 X-43.356 Y-35.772 E19.52929
G1 X-42.82 Y-36.004 E19.54629
G1 X-41.886 Y-36.317 E19.57495
G1 X-41.381 Y-36.444 E19.59011
G1 X-41.035 Y-36.485 E19.60025
G1 X-40.428 Y-36.526 E19.61795
G1 X-39.868 Y-36.518 E19.63425
G1 X-32.589 Y-35.805 E19.8471
G1 X-27.134 Y-35.614 E20.00596
G1 X-21.681 Y-35.732 E20.16469
G1 X-15.315 Y-36.241 E20.35055
G1 X-14.741 Y-36.238 E20.36725
G1 X-8.281 Y-35.66 E20.55601
G1 X-2.815 Y-35.48 E20.71517
G0 F3600 X-2.819 Y-35.08
G1 F1800 X2.673 Y-35.21 E20.87505
G1 X10.085 Y-35.805 E21.09145
G1 X10.643 Y-35.798 E21.10769
G1 X13.964 Y-35.445 E21.20488
G1 X19.444 Y-35.108 E21.36467
G1 X24.939 Y-35.081 E21.52459
G1 X30.423 Y-35.365 E21.6844
G1 X35.095 Y-35.825 E21.82102
G1 X35.733 Y-35.819 E21.83959
G1 X36.547 Y-35.725 E21.86344
G1 X37.027 Y-35.63 E21.87768
G1 X37.308 Y-35.534 E21.88632
G1 X38.035 Y-35.246 E21.90908
G1 X38.535 Y-34.992 E21.9254
G1 X42.231 Y-32.652 E22.05271
G1 X47 Y-29.932 E22.21249
G1 X51.911 Y-27.489 E22.37212
G1 X56.941 Y-25.331 E22.53141
G1 X56.944 Y-25.33 E22.5315
G1 X59.686 Y-24.289 E22.61686
G1 X60.128 Y-24.078 E22.63111
G1 X60.53 Y-23.799 E22.64535
G1 X60.881 Y-23.457 E22.65961
G1 X61.171 Y-23.064 E22.67383
G1 X61.394 Y-22.628 E22.68808
G1 X61.543 Y-22.162 E22.70232
G1 X61.621 Y-21.484 E22.72218
G1 X61.626 Y23.195 E24.02245
G1 X61.586 Y23.683 E24.0367
G1 X61.467 Y24.157 E24.05093
G1 X61.273 Y24.607 E24.06519
G1 X61.008 Y25.018 E24.07942
G1 X60.68 Y25.381 E24.09366
G1 X60.297 Y25.686 E24.10791
G1 X59.87 Y25.925 E24.12215
G1 X59.409 Y26.091 E24.13641
G1 X58.761 Y26.192 E24.15549
G1 X56.418 Y26.297 E24.22375
G1 X50.937 Y26.767 E24.38385
G1 X45.496 Y27.546 E24.54381
G1 X40.134 Y28.625 E24.70299
G1 X37.46 Y29.281 E24.78311
G1 X32.187 Y30.817 E24.94295
G1 X27.03 Y32.641 E25.10214
G1 X20.346 Y35.5 E25.31371
G1 X19.882 Y35.655 E25.32795
G1 X19.168 Y35.742 E25.34888
G1 X1.689 Y35.753 E25.85757
G1 X-3.885 Y35.911 E26.01985
G1 X-6.107 Y36.06 E26.08466
G1 X-6.313 Y36.067 E26.09066
G1 X-26.366 Y36.034 E26.67426
G1 X-26.854 Y35.993 E26.68851
G1 X-27.328 Y35.874 E26.70273
G1 X-27.634 Y35.751 E26.71233
G1 X-32.611 Y33.42 E26.87227
G1 X-35.053 Y32.398 E26.94931
G1 X-40.241 Y30.484 E27.11024
G1 X-45.501 Y28.874 E27.27033
G1 X-50.872 Y27.557 E27.43128
G1 X-53.501 Y27.032 E27.5093
G1 X-59.093 Y26.145 E27.67407
G1 X-59.569 Y26.029 E27.68833
G1 X-60.019 Y25.837 E27.70257
G1 X-60.432 Y25.575 E27.7168
G1 X-60.797 Y25.249 E27.73105
G1 X-61.105 Y24.868 E27.7453
G1 X-61.346 Y24.442 E27.75955
G1 X-61.514 Y23.982 E27.7738
G1 X-61.606 Y23.501 E27.78805
G1 X-61.623 Y23.182 E27.79735
G1 X-61.622 Y-21.485 E29.09728
G1 X-61.582 Y-21.973 E29.11153
G1 X-61.463 Y-22.448 E29.12578
G1 X-61.269 Y-22.897 E29.14001
G1 X-61.004 Y-23.309 E29.15427
G1 X-60.676 Y-23.672 E29.16851
G1 X-60.293 Y-23.977 E29.18276
G1 X-60.069 Y-24.113 E29.19038
G1 X-58.449 Y-25.005 E29.2442
G1 X-53.718 Y-27.832 E29.4046
G1 X-49.172 Y-30.912 E29.5644
G1 X-43.552 Y-35.171 E29.76962
G1 X-43.139 Y-35.434 E29.78387
G1 X-42.693 Y-35.625 E29.79799
G1 X-41.759 Y-35.938 E29.82666
G1 X-41.284 Y-36.055 E29.84089
G1 X-41.008 Y-36.086 E29.84897
G1 X-40.401 Y-36.127 E29.86668
G1 X-39.907 Y-36.12 E29.88106
G1 X-32.61 Y-35.405 E30.09444
G1 X-27.139 Y-35.214 E30.25375
G1 X-21.657 Y-35.332 E30.41333
G1 X-15.283 Y-35.842 E30.59943
G1 X-14.777 Y-35.84 E30.61415
G1 X-8.295 Y-35.26 E30.80355
G1 X-2.819 Y-35.08 E30.963
G0 F3600 X-2.806 Y-34.68
G1 F1800 X2.68 Y-34.81 E31.1227
G1 X10.117 Y-35.407 E31.33983
G1 X10.6 Y-35.4 E31.35389
G1 X13.917 Y-35.047 E31.45097
G1 X19.436 Y-34.708 E31.61189
G1 X24.94 Y-34.681 E31.77207
G1 X30.482 Y-34.968 E31.93358
G1 X35.134 Y-35.426 E32.06962
G1 X35.687 Y-35.422 E32.08571
G1 X36.501 Y-35.328 E32.10956
G1 X37.161 Y-35.162 E32.12936
G1 X37.888 Y-34.874 E32.15212
G1 X38.321 Y-34.654 E32.16626
G1 X42.015 Y-32.315 E32.2935
G1 X46.817 Y-29.577 E32.45437
G1 X51.753 Y-27.121 E32.61482
G1 X56.794 Y-24.958 E32.77446
G1 X56.802 Y-24.956 E32.7747
G1 X59.544 Y-23.915 E32.86006
G1 X59.954 Y-23.716 E32.87332
G1 X60.323 Y-23.449 E32.88658
G1 X60.64 Y-23.122 E32.89983
G1 X60.895 Y-22.744 E32.9131
G1 X61.08 Y-22.328 E32.92635
G1 X61.19 Y-21.886 E32.93961
G1 X61.221 Y-21.484 E32.95134
G1 X61.226 Y23.195 E34.25162
G1 X61.186 Y23.649 E34.26488
G1 X61.068 Y24.089 E34.27814
G1 X60.874 Y24.501 E34.29139
G1 X60.612 Y24.873 E34.30463
G1 X60.288 Y25.194 E34.31791
G1 X59.914 Y25.454 E34.33116
G1 X59.5 Y25.644 E34.34442
G1 X59.059 Y25.759 E34.35768
G1 X58.743 Y25.792 E34.36693
G1 X56.391 Y25.898 E34.43545
G1 X50.898 Y26.369 E34.5959
G1 X45.432 Y27.151 E34.75659
G1 X40.034 Y28.237 E34.91683
G1 X37.366 Y28.891 E34.99678
G1 X32.068 Y30.435 E35.15738
G1 X26.88 Y32.27 E35.31753
G1 X20.189 Y35.132 E35.52932
G1 X19.756 Y35.274 E35.54258
G1 X19.168 Y35.342 E35.55981
G1 X1.677 Y35.353 E36.06884
G1 X-3.898 Y35.511 E36.23115
G1 X-6.134 Y35.661 E36.29637
G1 X-6.312 Y35.667 E36.30156
G1 X-26.365 Y35.634 E36.88515
G1 X-26.819 Y35.593 E36.89842
G1 X-27.464 Y35.389 E36.91811
G1 X-32.448 Y33.055 E37.07827
G1 X-34.911 Y32.024 E37.15598
G1 X-34.914 Y32.023 E37.15607
G1 X-40.122 Y30.101 E37.31763
G1 X-45.394 Y28.488 E37.47808
G1 X-50.772 Y27.169 E37.63923
G1 X-53.434 Y26.638 E37.71823
G1 X-59.03 Y25.75 E37.88312
G1 X-59.472 Y25.639 E37.89639
G1 X-59.888 Y25.453 E37.90965
G1 X-60.265 Y25.198 E37.92289
G1 X-60.592 Y24.88 E37.93617
G1 X-60.858 Y24.51 E37.94943
G1 X-61.056 Y24.099 E37.96271
G1 X-61.179 Y23.661 E37.97595
G1 X-61.223 Y23.182 E37.98995
G1 X-61.222 Y-21.485 E39.28987
G1 X-61.182 Y-21.939 E39.30314
G1 X-61.064 Y-22.379 E39.31639
G1 X-60.87 Y-22.791 E39.32965
G1 X-60.607 Y-23.164 E39.34293
G1 X-60.284 Y-23.485 E39.35618
G1 X-59.876 Y-23.763 E39.37055
G1 X-58.252 Y-24.657 E39.4245
G1 X-53.503 Y-27.496 E39.58552
G1 X-48.937 Y-30.588 E39.74601
G1 X-43.311 Y-34.852 E39.95145
G1 X-42.925 Y-35.094 E39.96471
G1 X-42.566 Y-35.245 E39.97604
G1 X-41.632 Y-35.558 E40.00471
G1 X-40.981 Y-35.687 E40.02403
G1 X-40.374 Y-35.728 E40.04173
G1 X-39.946 Y-35.722 E40.05419
G1 X-32.631 Y-35.006 E40.26809
G1 X-27.145 Y-34.814 E40.42785
G1 X-21.651 Y-34.932 E40.58777
G1 X-15.251 Y-35.444 E40.77462
G1 X-14.812 Y-35.442 E40.7874
G1 X-8.325 Y-34.862 E40.97694
G1 X-2.806 Y-34.68 E41.13765
G0 F3600 X-2.809 Y-34.28
G1 F1800 X2.703 Y-34.41 E41.29811
G1 X10.149 Y-35.008 E41.5155
G1 X10.558 Y-35.003 E41.52741
G1 X13.896 Y-34.648 E41.6251
G1 X19.427 Y-34.308 E41.78637
G1 X24.959 Y-34.281 E41.94737
G1 X30.499 Y-34.568 E42.10881
G1 X35.173 Y-35.028 E42.24549
G1 X35.641 Y-35.024 E42.25911
G1 X36.455 Y-34.93 E42.28296
G1 X37.013 Y-34.79 E42.2997
G1 X37.74 Y-34.502 E42.32246
G1 X38.107 Y-34.316 E42.33443
G1 X41.815 Y-31.968 E42.46216
G1 X46.619 Y-29.229 E42.6231
G1 X51.582 Y-26.76 E42.78442
G1 X56.653 Y-24.584 E42.94501
G1 X56.66 Y-24.582 E42.94523
G1 X59.402 Y-23.541 E43.03058
G1 X59.778 Y-23.355 E43.04279
G1 X60.112 Y-23.102 E43.05499
G1 X60.391 Y-22.79 E43.06717
G1 X60.607 Y-22.431 E43.07936
G1 X60.75 Y-22.037 E43.09156
G1 X60.821 Y-21.484 E43.10778
G1 X60.826 Y23.195 E44.40806
G1 X60.786 Y23.612 E44.42025
G1 X60.668 Y24.014 E44.43244
G1 X60.476 Y24.386 E44.44463
G1 X60.216 Y24.715 E44.45683
G1 X59.899 Y24.989 E44.46903
G1 X59.536 Y25.198 E44.48122
G1 X59.139 Y25.334 E44.49343
G1 X58.725 Y25.393 E44.5056
G1 X56.364 Y25.499 E44.57438
G1 X50.844 Y25.972 E44.73561
G1 X45.365 Y26.756 E44.89669
G1 X39.951 Y27.846 E45.05741
G1 X37.256 Y28.507 E45.13817
G1 X31.95 Y30.053 E45.29901
G1 X26.738 Y31.896 E45.4599
G1 X20.031 Y34.765 E45.6722
G1 X19.632 Y34.892 E45.68438
G1 X19.167 Y34.942 E45.69799
G1 X1.665 Y34.953 E46.20735
G1 X-3.91 Y35.111 E46.36966
G1 X-6.161 Y35.262 E46.43532
G1 X-6.312 Y35.267 E46.43971
G1 X-26.365 Y35.234 E47.02331
G1 X-26.782 Y35.193 E47.0355
G1 X-27.294 Y35.026 E47.05118
G1 X-32.272 Y32.694 E47.21116
G1 X-34.766 Y31.65 E47.28984
G1 X-34.776 Y31.648 E47.29014
G1 X-39.993 Y29.723 E47.45197
G1 X-45.287 Y28.103 E47.6131
G1 X-50.713 Y26.773 E47.77568
G1 X-53.343 Y26.247 E47.85374
G1 X-58.968 Y25.355 E48.01948
G1 X-59.373 Y25.25 E48.03166
G1 X-59.752 Y25.07 E48.04387
G1 X-60.09 Y24.822 E48.05607
G1 X-60.374 Y24.514 E48.06826
G1 X-60.595 Y24.158 E48.08046
G1 X-60.744 Y23.766 E48.09266
G1 X-60.823 Y23.182 E48.10981
G1 X-60.822 Y-21.485 E49.40974
G1 X-60.782 Y-21.902 E49.42193
G1 X-60.664 Y-22.304 E49.43413
G1 X-60.471 Y-22.676 E49.44632
G1 X-60.212 Y-23.006 E49.45853
G1 X-59.895 Y-23.279 E49.47071
G1 X-59.683 Y-23.412 E49.47799
G1 X-58.056 Y-24.308 E49.53204
G1 X-53.299 Y-27.151 E49.69333
G1 X-48.692 Y-30.271 E49.85525
G1 X-43.069 Y-34.533 E50.06059
G1 X-42.712 Y-34.753 E50.0728
G1 X-42.439 Y-34.866 E50.0814
G1 X-41.505 Y-35.179 E50.11006
G1 X-40.954 Y-35.288 E50.12641
G1 X-40.347 Y-35.329 E50.14412
G1 X-39.985 Y-35.324 E50.15465
G1 X-32.668 Y-34.608 E50.36861
G1 X-27.132 Y-34.414 E50.52982
G1 X-21.628 Y-34.532 E50.69004
G1 X-15.219 Y-35.045 E50.87716
G1 X-14.848 Y-35.043 E50.88795
G1 X-8.356 Y-34.462 E51.07764
G1 X-2.809 Y-34.28 E51.23916
G1 F1500 E44.73916
G1 Z1.175
G0 F3600 X-.234 Y28.495 Z1.175
;TYPE:WALL-INNER
G1 Z0.175
G1 F1500 E51.23916
G1 F1800 X18.565 Y28.495 E51.78626
G1 X18.565 Y31.954 E51.88693
G1 X18.565 Y32.154 E51.89275
G1 X18.365 Y32.154 E51.89652
G1 X-.234 Y32.153 E52.4378
G1 X-.234 Y28.495 E52.54425
G0 F3600 X-.634 Y28.095
;TYPE:WALL-OUTER
G1 F1800 X18.965 Y28.095 E53.11464
G1 X18.965 Y32.354 E53.23858
G1 X18.965 Y32.554 E53.24441
G1 X18.765 Y32.554 E53.24817
G1 X-.634 Y32.553 E53.81274
G1 X-.634 Y28.095 E53.94248
G0 F3600 X-.434 Y28.095
G0 X-0.053 Y28.796
;TYPE:SKIN
G1 F1800 X3.122 Y31.972 E54.07317
G0 X3.192 Y32.042
G0 F3600 X3.688 Y31.972
G1 F1800 X0.39 Y28.674 E54.20891
G0 X0.32 Y28.604
G0 F3600 X0.956 Y28.674
G1 F1800 X4.253 Y31.972 E54.34462
G0 X4.323 Y32.042
G0 F3600 X4.819 Y31.972
G1 F1800 X1.521 Y28.674 E54.48036
G0 X1.451 Y28.604
G0 F3600 X2.087 Y28.674
G1 F1800 X5.385 Y31.972 E54.6161
