;FLAVOR:RepRap
;TIME:1203
;Filament used: 0.618946m
;Layer height: 0.1
;Generated with Cura_SteamEngine 2.4.0
M190 S60
M104 S205
M109 S205
G21 ;metric values
G90 ;absolute positioning
M82 ;set extruder to absolute mode
M107 ;start with the fan off
G28 ;Home all axes (max endstops)

M0 Add PROBE
M106 S255 ;	Turn fan on 100% power, cool the probe
M117 Auto leveling...
G29   ; DAQ -- auto level
M500
G1 x0 y0
M0 Remove PROBE

G1 Z75.0 F9000 ;move the platform down 15mm
G92 E0 ;zero the extruded length
G1 F200 E3 ;extrude 3mm of feed stock
G92 E0 ;zero the extruded length again

G1 Z100 F9000
M0 CLEAN ME...

M106 S191 ;	Turn fan on 50% power

G1 F9000
M117 Printing...
;LAYER_COUNT:99
;LAYER:0
M107
G1 F1500 E-6.5
G1 Z21
G0 F3600 X-9.508 Y5.9 Z1.175
;TYPE:SKIRT
G1 Z0.175
G1 F1500 E0
G1 F1800 X-11.218 Y0.699 E0.15933
G1 X-13.084 Y-4.113 E0.30954
G1 X-13.267 Y-4.742 E0.3286
G1 X-13.336 Y-5.087 E0.33884
G1 X-13.405 Y-5.633 E0.35486
G1 X-13.394 Y-6.184 E0.3709
G1 X-13.336 Y-6.577 E0.38246
G1 X-13.188 Y-7.317 E0.40442
G1 X-13.041 Y-7.848 E0.42045
G1 X-12.819 Y-8.352 E0.43648
G1 X-12.526 Y-8.819 E0.45253
G1 X-12.351 Y-9.041 E0.46075
G1 X-11.898 Y-9.571 E0.48104
G1 X-11.51 Y-9.963 E0.49709
G1 X-10.984 Y-10.348 E0.51607
G1 X-7.137 Y-12.689 E0.64712
G1 X-2.563 Y-15.785 E0.80787
G1 X0.16 Y-17.756 E0.90569
G1 X0.629 Y-18.046 E0.92174
G1 X1.154 Y-18.272 E0.93838
G1 X2.019 Y-18.569 E0.96499
G1 X2.552 Y-18.71 E0.98104
G1 X3.002 Y-18.767 E0.99424
G1 X3.713 Y-18.814 E1.01497
G1 X4.264 Y-18.81 E1.03101
G1 X4.803 Y-18.728 E1.04688
G1 X5.845 Y-18.492 E1.07797
G1 X6.373 Y-18.332 E1.09403
G1 X6.933 Y-18.061 E1.11213
G1 X7.652 Y-17.638 E1.13641
G1 X8.105 Y-17.325 E1.15243
G1 X8.53 Y-16.927 E1.16938
G1 X9.201 Y-16.193 E1.19832
G1 X9.542 Y-15.76 E1.21436
G1 X9.831 Y-15.253 E1.23135
G1 X10.195 Y-14.483 E1.25613
G1 X10.426 Y-13.859 E1.2755
G1 X11.101 Y-11.385 E1.35013
G1 X12.754 Y-6.148 E1.50995
G1 X14.688 Y-1.046 E1.66874
G1 X15.963 Y2.106 E1.76769
G1 X16.176 Y2.834 E1.78977
G1 X16.507 Y4.608 E1.84229
G1 X16.571 Y5.265 E1.8615
G1 X16.585 Y6.606 E1.90053
G1 X16.549 Y7.171 E1.917
G1 X16.365 Y8.49 E1.95576
G1 X16.27 Y8.954 E1.96955
G1 X16.036 Y9.822 E1.99571
G1 X15.884 Y10.271 E2.0095
G1 X15.379 Y11.506 E2.04833
G1 X15.177 Y11.926 E2.0619
G1 X14.737 Y12.711 E2.08809
G1 X14.471 Y13.121 E2.10231
G1 X13.647 Y14.229 E2.1425
G1 X13.268 Y14.665 E2.15931
G1 X12.298 Y15.623 E2.19898
G1 X11.796 Y16.04 E2.21798
G1 X10.374 Y17.028 E2.26837
G1 X9.812 Y17.351 E2.28723
G1 X8.596 Y17.918 E2.32628
G1 X8.057 Y18.121 E2.34304
G1 X6.738 Y18.507 E2.38304
G1 X6.274 Y18.612 E2.39688
G1 X5.397 Y18.753 E2.42274
G1 X4.826 Y18.801 E2.43941
G1 X3.017 Y18.816 E2.49206
G1 X2.359 Y18.764 E2.51127
G1 X1.054 Y18.546 E2.54977
G1 X0.505 Y18.412 E2.56622
G1 X-.775 Y17.996 E2.60539
G1 X-1.306 Y17.777 E2.62211
G1 X-2.516 Y17.169 E2.66152
G1 X-3.151 Y16.767 E2.68339
G1 X-4.903 Y15.397 E2.74811
G1 X-5.453 Y14.87 E2.77028
G1 X-6.336 Y13.835 E2.80988
G1 X-6.667 Y13.384 E2.82616
G1 X-7.362 Y12.273 E2.86429
G1 X-7.662 Y11.685 E2.88351
G1 X-8.34 Y10.011 E2.93607
G1 X-8.479 Y9.602 E2.94864
G1 X-9.508 Y5.9 E3.06046
G0 F3600 X-9.128 Y5.775
G1 F1800 X-10.842 Y0.562 E3.22016
G1 X-12.711 Y-4.258 E3.37061
G1 X-12.875 Y-4.82 E3.38765
G1 X-12.944 Y-5.165 E3.39789
G1 X-13.007 Y-5.683 E3.41308
G1 X-12.99 Y-6.203 E3.42822
G1 X-12.944 Y-6.499 E3.43694
G1 X-12.796 Y-7.239 E3.4589
G1 X-12.655 Y-7.74 E3.47405
G1 X-12.439 Y-8.215 E3.48923
G1 X-12.047 Y-8.781 E3.50927
G1 X-11.594 Y-9.311 E3.52956
G1 X-11.226 Y-9.68 E3.54473
G1 X-10.776 Y-10.006 E3.5609
G1 X-6.931 Y-12.346 E3.69189
G1 X-2.319 Y-15.468 E3.85397
G1 X0.395 Y-17.432 E3.95147
G1 X0.839 Y-17.705 E3.96664
G1 X1.284 Y-17.894 E3.98071
G1 X2.149 Y-18.191 E4.00732
G1 X2.653 Y-18.322 E4.02248
G1 X3.029 Y-18.368 E4.0335
G1 X3.74 Y-18.415 E4.05424
G1 X4.261 Y-18.409 E4.0694
G1 X4.715 Y-18.338 E4.08278
G1 X5.757 Y-18.102 E4.11387
G1 X6.255 Y-17.948 E4.12904
G1 X6.73 Y-17.716 E4.14443
G1 X7.449 Y-17.293 E4.1687
G1 X7.877 Y-16.996 E4.18386
G1 X8.234 Y-16.657 E4.19819
G1 X8.905 Y-15.923 E4.22713
G1 X9.227 Y-15.513 E4.24231
G1 X9.47 Y-15.082 E4.25671
G1 X9.834 Y-14.312 E4.28149
G1 X10.04 Y-13.754 E4.2988
G1 X10.72 Y-11.263 E4.37395
G1 X12.374 Y-6.023 E4.53386
G1 X14.317 Y-.896 E4.69343
G1 X15.592 Y2.256 E4.79238
G1 X15.782 Y2.907 E4.81212
G1 X16.113 Y4.681 E4.86464
G1 X16.171 Y5.27 E4.88186
G1 X16.185 Y6.611 E4.92089
G1 X16.152 Y7.116 E4.93562
G1 X15.968 Y8.435 E4.97438
G1 X15.884 Y8.85 E4.9867
G1 X15.65 Y9.718 E5.01286
G1 X15.514 Y10.12 E5.02521
G1 X15.009 Y11.355 E5.06404
G1 X14.828 Y11.73 E5.07616
G1 X14.388 Y12.515 E5.10235
G1 X14.15 Y12.882 E5.11508
G1 X13.326 Y13.99 E5.15526
G1 X12.987 Y14.38 E5.1703
G1 X12.017 Y15.338 E5.20998
G1 X11.568 Y15.711 E5.22697
G1 X10.146 Y16.699 E5.27736
G1 X9.643 Y16.988 E5.29424
G1 X8.427 Y17.555 E5.33329
G1 X7.945 Y17.737 E5.34828
G1 X6.626 Y18.123 E5.38828
G1 X6.211 Y18.217 E5.40066
G1 X5.334 Y18.358 E5.42651
G1 X4.822 Y18.401 E5.44147
G1 X3.013 Y18.416 E5.49412
G1 X2.425 Y18.37 E5.51128
G1 X1.12 Y18.152 E5.54979
G1 X0.629 Y18.032 E5.5645
G1 X-.651 Y17.616 E5.60366
G1 X-1.127 Y17.42 E5.61865
G1 X-2.337 Y16.812 E5.65806
G1 X-2.904 Y16.452 E5.6776
G1 X-4.656 Y15.082 E5.74233
G1 X-5.149 Y14.611 E5.76217
G1 X-6.032 Y13.576 E5.80176
G1 X-6.327 Y13.172 E5.81632
G1 X-7.022 Y12.061 E5.85446
G1 X-7.291 Y11.534 E5.87168
G1 X-7.969 Y9.86 E5.92424
G1 X-8.094 Y9.495 E5.93547
G1 X-9.128 Y5.775 E6.04784
G0 F3600 X-8.74 Y5.675
G1 F1800 X-10.467 Y0.424 E6.20871
G1 X-12.338 Y-4.403 E6.35937
G1 X-12.483 Y-4.899 E6.37441
G1 X-12.552 Y-5.244 E6.38465
G1 X-12.608 Y-5.73 E6.39889
G1 X-12.552 Y-6.42 E6.41903
G1 X-12.404 Y-7.16 E6.44099
G1 X-12.269 Y-7.631 E6.45525
G1 X-12.059 Y-8.073 E6.4695
G1 X-11.743 Y-8.521 E6.48545
G1 X-11.29 Y-9.051 E6.50574
G1 X-10.942 Y-9.396 E6.52
G1 X-10.569 Y-9.665 E6.53339
G1 X-6.687 Y-12.027 E6.66563
G1 X-2.111 Y-15.125 E6.82645
G1 X0.629 Y-17.108 E6.92489
G1 X1.048 Y-17.362 E6.93915
G1 X1.414 Y-17.515 E6.95069
G1 X2.279 Y-17.812 E6.97731
G1 X2.753 Y-17.933 E6.99155
G1 X3.055 Y-17.968 E7.00039
G1 X3.766 Y-18.015 E7.02113
G1 X4.256 Y-18.008 E7.03539
G1 X4.627 Y-17.948 E7.04633
G1 X5.669 Y-17.712 E7.07742
G1 X6.136 Y-17.565 E7.09167
G1 X6.527 Y-17.372 E7.10436
G1 X7.246 Y-16.949 E7.12864
G1 X7.646 Y-16.667 E7.14288
G1 X7.939 Y-16.387 E7.15468
G1 X8.61 Y-15.653 E7.18362
G1 X8.91 Y-15.266 E7.19787
G1 X9.108 Y-14.911 E7.2097
G1 X9.472 Y-14.141 E7.23448
G1 X9.654 Y-13.649 E7.24975
G1 X10.334 Y-11.156 E7.32496
G1 X11.998 Y-5.886 E7.48579
G1 X13.946 Y-.746 E7.64576
G1 X15.221 Y2.406 E7.74471
G1 X15.389 Y2.981 E7.76215
G1 X15.72 Y4.755 E7.81466
G1 X15.771 Y5.274 E7.82984
G1 X15.785 Y6.615 E7.86887
G1 X15.756 Y7.06 E7.88185
G1 X15.572 Y8.379 E7.92061
G1 X15.498 Y8.746 E7.9315
G1 X15.264 Y9.614 E7.95766
G1 X15.144 Y9.968 E7.96854
G1 X14.639 Y11.203 E8.00737
G1 X14.479 Y11.535 E8.0181
G1 X14.039 Y12.32 E8.04429
G1 X13.829 Y12.643 E8.0555
G1 X13.005 Y13.751 E8.09569
G1 X12.706 Y14.095 E8.10895
G1 X11.736 Y15.053 E8.14863
G1 X11.34 Y15.383 E8.16363
G1 X9.918 Y16.371 E8.21402
G1 X9.474 Y16.626 E8.22892
G1 X8.258 Y17.193 E8.26797
G1 X7.833 Y17.353 E8.28118
G1 X6.514 Y17.739 E8.32118
G1 X6.147 Y17.822 E8.33213
G1 X5.27 Y17.963 E8.35798
G1 X4.819 Y18.001 E8.37115
G1 X3.01 Y18.016 E8.4238
G1 X2.491 Y17.975 E8.43895
G1 X1.186 Y17.757 E8.47746
G1 X0.753 Y17.651 E8.49043
G1 X-.527 Y17.235 E8.5296
G1 X-.947 Y17.063 E8.54281
G1 X-2.157 Y16.455 E8.58222
G1 X-2.658 Y16.137 E8.59949
G1 X-4.41 Y14.767 E8.66422
G1 X-4.844 Y14.351 E8.68171
G1 X-5.727 Y13.316 E8.7213
G1 X-5.988 Y12.96 E8.73415
G1 X-6.683 Y11.849 E8.77229
G1 X-6.921 Y11.384 E8.78749
G1 X-7.599 Y9.71 E8.84005
G1 X-7.708 Y9.387 E8.84997
G1 X-8.74 Y5.675 E8.9621
G0 F3600 X-8.36 Y5.55
G1 F1800 X-10.089 Y0.293 E9.12316
G1 X-11.965 Y-4.547 E9.27422
G1 X-12.091 Y-4.977 E9.28726
G1 X-12.16 Y-5.322 E9.2975
G1 X-12.209 Y-5.775 E9.31076
G1 X-12.16 Y-6.342 E9.32733
G1 X-12.012 Y-7.082 E9.34929
G1 X-11.883 Y-7.519 E9.36255
G1 X-11.681 Y-7.927 E9.3758
G1 X-11.438 Y-8.261 E9.38782
G1 X-10.985 Y-8.791 E9.40811
G1 X-10.66 Y-9.11 E9.42136
G1 X-10.361 Y-9.323 E9.43205
G1 X-6.472 Y-11.69 E9.56454
G1 X-1.881 Y-14.797 E9.72587
G1 X0.864 Y-16.784 E9.82449
G1 X1.255 Y-17.018 E9.83775
G1 X1.544 Y-17.137 E9.84685
G1 X2.409 Y-17.434 E9.87347
G1 X2.851 Y-17.544 E9.88672
G1 X3.082 Y-17.569 E9.89348
G1 X3.793 Y-17.616 E9.91422
G1 X4.248 Y-17.606 E9.92747
G1 X4.538 Y-17.558 E9.93602
G1 X5.58 Y-17.322 E9.96711
G1 X6.014 Y-17.183 E9.98038
G1 X6.324 Y-17.027 E9.99048
G1 X7.043 Y-16.604 E10.01475
G1 X7.414 Y-16.339 E10.02802
G1 X7.644 Y-16.117 E10.03732
G1 X8.315 Y-15.383 E10.06627
G1 X8.592 Y-15.021 E10.07953
G1 X8.747 Y-14.74 E10.08887
G1 X9.111 Y-13.97 E10.11366
G1 X9.268 Y-13.543 E10.1269
G1 X9.951 Y-11.041 E10.20238
G1 X11.613 Y-5.775 E10.36308
G1 X13.589 Y-.56 E10.52538
G1 X14.85 Y2.556 E10.62321
G1 X14.996 Y3.054 E10.63831
G1 X15.327 Y4.828 E10.69083
G1 X15.371 Y5.278 E10.70399
G1 X15.385 Y6.619 E10.74302
G1 X15.36 Y7.005 E10.75428
G1 X15.176 Y8.324 E10.79304
G1 X15.111 Y8.642 E10.80248
G1 X14.877 Y9.51 E10.82864
G1 X14.774 Y9.817 E10.83807
G1 X14.269 Y11.052 E10.8769
G1 X14.13 Y11.339 E10.88618
G1 X13.69 Y12.124 E10.91237
G1 X13.508 Y12.405 E10.92211
G1 X12.684 Y13.513 E10.9623
G1 X12.425 Y13.811 E10.97379
G1 X11.455 Y14.769 E11.01346
G1 X11.112 Y15.054 E11.02644
G1 X9.69 Y16.042 E11.07684
G1 X9.305 Y16.263 E11.08975
G1 X8.089 Y16.83 E11.1288
G1 X7.72 Y16.969 E11.14028
G1 X6.401 Y17.355 E11.18027
G1 X6.084 Y17.427 E11.18973
G1 X5.207 Y17.568 E11.21558
G1 X4.816 Y17.601 E11.227
G1 X3.007 Y17.616 E11.27965
G1 X2.557 Y17.58 E11.29279
G1 X1.252 Y17.362 E11.3313
G1 X0.876 Y17.271 E11.34255
G1 X-.404 Y16.855 E11.38172
G1 X-.767 Y16.705 E11.39315
G1 X-1.977 Y16.097 E11.43256
G1 X-2.412 Y15.822 E11.44754
G1 X-4.164 Y14.452 E11.51227
G1 X-4.54 Y14.091 E11.52744
G1 X-5.423 Y13.056 E11.56703
G1 X-5.649 Y12.748 E11.57815
G1 X-6.344 Y11.637 E11.61629
G1 X-6.55 Y11.234 E11.62946
G1 X-7.228 Y9.56 E11.68202
G1 X-7.323 Y9.28 E11.69063
G1 X-8.36 Y5.55 E11.80329
G0 F3600 X-7.98 Y5.425
G1 F1800 X-9.713 Y0.155 E11.96475
G1 X-11.592 Y-4.692 E12.11603
G1 X-11.698 Y-5.056 E12.12707
G1 X-11.767 Y-5.401 E12.13731
G1 X-11.81 Y-5.817 E12.14948
G1 X-11.767 Y-6.263 E12.16252
G1 X-11.619 Y-7.003 E12.18448
G1 X-11.498 Y-7.405 E12.1967
G1 X-11.304 Y-7.776 E12.20888
G1 X-11.134 Y-8.001 E12.21709
G1 X-10.681 Y-8.531 E12.23738
G1 X-10.38 Y-8.823 E12.24958
G1 X-10.153 Y-8.981 E12.25763
G1 X-6.266 Y-11.346 E12.39005
G1 X-1.652 Y-14.47 E12.55221
G1 X1.098 Y-16.46 E12.651
G1 X1.459 Y-16.672 E12.66318
G1 X1.674 Y-16.759 E12.66993
G1 X2.539 Y-17.056 E12.69655
G1 X3.108 Y-17.17 E12.71344
G1 X3.819 Y-17.217 E12.73418
G1 X4.238 Y-17.205 E12.74638
G1 X4.45 Y-17.168 E12.75264
G1 X5.492 Y-16.932 E12.78373
G1 X5.89 Y-16.801 E12.79593
G1 X6.122 Y-16.682 E12.80351
G1 X6.841 Y-16.259 E12.82779
G1 X7.18 Y-16.013 E12.83998
G1 X7.349 Y-15.847 E12.84687
G1 X8.02 Y-15.113 E12.87582
G1 X8.272 Y-14.779 E12.88799
G1 X8.385 Y-14.569 E12.89493
G1 X8.749 Y-13.799 E12.91972
G1 X8.882 Y-13.438 E12.93092
G1 X9.565 Y-10.934 E13.00645
G1 X11.239 Y-5.631 E13.16829
G1 X13.219 Y-.409 E13.33082
G1 X14.479 Y2.706 E13.42861
G1 X14.603 Y3.127 E13.44138
G1 X14.934 Y4.901 E13.4939
G1 X14.971 Y5.282 E13.50504
G1 X14.985 Y6.623 E13.54407
G1 X14.964 Y6.95 E13.55361
G1 X14.78 Y8.269 E13.59237
G1 X14.725 Y8.538 E13.60036
G1 X14.491 Y9.406 E13.62652
G1 X14.403 Y9.666 E13.63451
G1 X13.898 Y10.901 E13.67334
G1 X13.781 Y11.144 E13.68119
G1 X13.341 Y11.929 E13.70738
G1 X13.187 Y12.166 E13.7156
G1 X12.363 Y13.274 E13.75579
G1 X12.144 Y13.526 E13.7655
G1 X11.174 Y14.484 E13.80518
G1 X10.883 Y14.726 E13.8162
G1 X9.461 Y15.714 E13.86659
G1 X9.136 Y15.901 E13.8775
G1 X7.92 Y16.468 E13.91655
G1 X7.608 Y16.585 E13.92624
G1 X6.289 Y16.971 E13.96624
G1 X6.02 Y17.032 E13.97427
G1 X5.143 Y17.173 E14.00012
G1 X4.812 Y17.201 E14.00979
G1 X3.003 Y17.216 E14.06243
G1 X2.623 Y17.186 E14.07353
G1 X1.318 Y16.968 E14.11203
G1 X1 Y16.89 E14.12156
G1 X-.28 Y16.474 E14.16073
G1 X-.588 Y16.348 E14.17042
G1 X-1.798 Y15.74 E14.20983
G1 X-2.165 Y15.507 E14.22248
G1 X-3.917 Y14.137 E14.2872
G1 X-4.236 Y13.832 E14.30005
G1 X-5.119 Y12.797 E14.33964
G1 X-5.31 Y12.536 E14.34905
G1 X-6.005 Y11.425 E14.38719
G1 X-6.179 Y11.084 E14.39833
G1 X-6.857 Y9.41 E14.45089
G1 X-6.938 Y9.173 E14.45818
G1 X-7.98 Y5.425 E14.5714
G1 F1500 E8.0714
G1 Z1.175
G0 F3600 X-4.576 Y5.64 Z1.175
;TYPE:WALL-INNER
G1 Z0.175
G1 F1500 E14.5714
G1 F1800 X-4.545 Y5.223 E14.58357
G1 X-4.491 Y4.798 E14.59603
G1 X-4.422 Y4.405 E14.60765
G1 X-4.327 Y3.988 E14.62009
G1 X-4.209 Y3.575 E14.63259
G1 X-4.078 Y3.186 E14.64454
G1 X-3.922 Y2.786 E14.65703
G1 X-3.758 Y2.424 E14.6686
G1 X-3.567 Y2.051 E14.6808
G1 X-3.348 Y1.671 E14.69356
G1 X-3.125 Y1.328 E14.70547
G1 X-2.887 Y0.997 E14.71733
G1 X-2.613 Y0.654 E14.73011
G1 X-2.342 Y0.348 E14.742
G1 X-2.043 Y0.042 E14.75445
G1 X-1.728 Y-.25 E14.76695
G1 X-1.425 Y-.504 E14.77846
G1 X-1.078 Y-.766 E14.79111
G1 X-.75 Y-.989 E14.80266
G1 X-.385 Y-1.212 E14.81511
G1 X0.00 Y-1.421 E14.82785
G1 X0.359 Y-1.595 E14.83947
G1 X0.755 Y-1.761 E14.85196
G1 X1.146 Y-1.902 E14.86406
G1 X1.532 Y-2.022 E14.87582
G1 X1.964 Y-2.131 E14.88879
G1 X2.347 Y-2.207 E14.90015
G1 X2.791 Y-2.274 E14.91322
G1 X3.177 Y-2.312 E14.92451
G1 X3.626 Y-2.334 E14.93759
G1 X4.034 Y-2.334 E14.94946
G1 X4.443 Y-2.313 E14.96138
G1 X4.865 Y-2.27 E14.97373
G1 X5.279 Y-2.207 E14.98591
G1 X5.683 Y-2.125 E14.99791
G1 X6.089 Y-2.023 E15.01009
G1 X6.506 Y-1.892 E15.02282
G1 X6.892 Y-1.752 E15.03477
G1 X7.265 Y-1.595 E15.04654
G1 X7.649 Y-1.408 E15.05897
G1 X8.025 Y-1.203 E15.07144
G1 X8.371 Y-.991 E15.08325
G1 X8.717 Y-.755 E15.09543
G1 X9.053 Y-.5 E15.10771
G1 X9.38 Y-.227 E15.12011
G1 X9.679 Y0.051 E15.13199
G1 X9.978 Y0.358 E15.14446
G1 X10.244 Y0.661 E15.15619
G1 X10.501 Y0.983 E15.16818
G1 X10.739 Y1.312 E15.18
G1 X10.973 Y1.671 E15.19247
G1 X11.188 Y2.042 E15.20495
G1 X11.376 Y2.409 E15.21695
G1 X11.561 Y2.822 E15.23012
G1 X11.702 Y3.183 E15.2414
G1 X11.844 Y3.601 E15.25425
G1 X11.95 Y3.977 E15.26562
G1 X12.048 Y4.407 E15.27845
G1 X12.116 Y4.8 E15.29006
G1 X12.167 Y5.207 E15.302
G1 X12.201 Y5.64 E15.31464
G1 X12.212 Y6.07 E15.32716
G1 X12.202 Y6.478 E15.33903
G1 X12.17 Y6.896 E15.35123
G1 X12.118 Y7.311 E15.36341
G1 X12.047 Y7.72 E15.37549
G1 X11.951 Y8.14 E15.38803
G1 X11.839 Y8.538 E15.40006
G1 X11.702 Y8.942 E15.41247
G1 X11.554 Y9.321 E15.42432
G1 X11.382 Y9.703 E15.43651
G1 X11.196 Y10.068 E15.44843
G1 X10.993 Y10.421 E15.46028
G1 X10.765 Y10.775 E15.47253
G1 X10.522 Y11.115 E15.4847
G1 X10.24 Y11.468 E15.49785
G1 X9.957 Y11.789 E15.5103
G1 X9.653 Y12.098 E15.52291
G1 X9.366 Y12.363 E15.53428
G1 X9.039 Y12.637 E15.5467
G1 X8.703 Y12.891 E15.55896
G1 X8.375 Y13.114 E15.5705
G1 X8.012 Y13.336 E15.58288
G1 X7.627 Y13.545 E15.59563
G1 X7.265 Y13.72 E15.60733
G1 X6.871 Y13.885 E15.61977
G1 X6.478 Y14.027 E15.63193
G1 X6.092 Y14.147 E15.64369
G1 X5.66 Y14.256 E15.65666
G1 X5.277 Y14.332 E15.66802
G1 X4.833 Y14.399 E15.68109
G1 X4.447 Y14.437 E15.69238
G1 X3.998 Y14.459 E15.70546
G1 X3.59 Y14.459 E15.71733
G1 X3.181 Y14.438 E15.72925
G1 X2.759 Y14.395 E15.7416
G1 X2.345 Y14.332 E15.75378
G1 X1.941 Y14.25 E15.76578
G1 X1.535 Y14.148 E15.77796
G1 X1.118 Y14.017 E15.79068
G1 X0.732 Y13.877 E15.80263
G1 X0.356 Y13.719 E15.8145
G1 X-0.024 Y13.533 E15.82682
G1 X-.4 Y13.328 E15.83928
G1 X-.749 Y13.114 E15.85119
G1 X-1.093 Y12.879 E15.86332
G1 X-1.434 Y12.62 E15.87578
G1 X-1.753 Y12.353 E15.88789
G1 X-2.068 Y12.06 E15.90041
G1 X-2.352 Y11.767 E15.91228
G1 X-2.618 Y11.465 E15.92399
G1 X-2.891 Y11.122 E15.93675
G1 X-3.132 Y10.784 E15.94883
G1 X-3.356 Y10.439 E15.9608
G1 X-3.575 Y10.059 E15.97357
G1 X-3.764 Y9.688 E15.98569
G1 X-3.932 Y9.315 E15.99759
G1 X-4.084 Y8.924 E16.0098
G1 X-4.214 Y8.535 E16.02174
G1 X-4.331 Y8.122 E16.03423
G1 X-4.423 Y7.715 E16.04637
G1 X-4.493 Y7.308 E16.05839
G1 X-4.548 Y6.875 E16.07109
G1 X-4.576 Y6.478 E16.08268
G1 X-4.587 Y6.053 E16.09505
G1 X-4.576 Y5.64 E16.10707
G0 F3600 X-4.477 Y5.645
G0 X1.611 Y6.071
G0 X1.711 Y6.071
G1 F1800 X1.727 Y6.327 E16.11454
G1 X1.776 Y6.574 E16.12187
G1 X1.851 Y6.814 E16.12918
