; generated by Slic3r Prusa Edition 1.41.2+win64 on 2019-10-24 at 17:54:59

; 

; external perimeters extrusion width = 0.45mm
; perimeters extrusion width = 0.45mm
; infill extrusion width = 0.45mm
; solid infill extrusion width = 0.45mm
; top infill extrusion width = 0.40mm
; first layer extrusion width = 0.42mm

M201 X9000 Y9000 Z500 E10000 ; sets maximum accelerations, mm/sec^2
M203 X500 Y500 Z12 E120 ; sets maximum feedrates, mm/sec
M204 P2000 R1500 T2000 ; sets acceleration (P, T) and retract acceleration (R), mm/sec^2
M205 X10.00 Y10.00 Z0.20 E2.50 ; sets the jerk limits, mm/sec
M205 S0 T0 ; sets the minimum extruding and travel feed rate, mm/sec
M107
M115 U3.1.0 ; tell printer latest fw version
M204 S2000 T1500 ; MK2 firmware only supports the old M204 format
; Start G-Code sequence START
T3
M104 S255 ; set extruder temp
M140 S100 ; set bed temp
M190 S100 ; wait for bed temp
M109 S255 ; wait for extruder temp
G21 ; set units to millimeters
G90 ; use absolute coordinates
M83 ; use relative distances for extrusion
G28 W
G80
G92 E0.0
M203 E100 ; set max feedrate
M92 E140 ; E-steps per filament milimeter

G1 Z0.250 F7200.000
G1 X50.0 E80.0  F1000.0
G1 X160.0 E20.0  F1000.0
G1 Z0.200 F7200.000
G1 X220.0 E13 F1000.0
G1 X240.0 E0 F1000.0

G92 E0.0
M900 K200; Filament gcode
G21 ; set units to millimeters
G90 ; use absolute coordinates
M83 ; use relative distances for extrusion
T3
M900 K200; Filament gcode
;BEFORE_LAYER_CHANGE
G92 E0.0
;0.2


G1 Z0.200 F10800.000
;AFTER_LAYER_CHANGE
;0.2
G1 E-4.00000 F4800.00000
G1 Z0.800 F10800.000
G1 X66.172 Y52.640
G1 Z0.200
G1 E4.00000 F3000.00000
M204 S1000
G1 F1200
G1 X66.898 Y52.533 E0.02300
G1 X179.911 Y52.533 E3.54347
G1 X180.883 Y52.725 E0.03107
G1 X181.710 Y53.272 E0.03107
G1 X182.269 Y54.095 E0.03119
G1 X182.473 Y55.065 E0.03107
G1 X182.473 Y87.114 E1.00488
G1 X182.054 Y126.405 E1.23200
G1 X181.966 Y127.018 E0.01943
G1 X181.731 Y127.596 E0.01956
G1 X181.367 Y128.097 E0.01943
G1 X180.890 Y128.499 E0.01956
G1 X180.224 Y128.808 E0.02300
G1 X179.499 Y128.915 E0.02300
G1 X66.473 Y128.915 E3.54384
G1 X65.847 Y128.834 E0.01980
G1 X65.259 Y128.602 E0.01980
G1 X64.747 Y128.233 E0.01980
G1 X64.339 Y127.750 E0.01980
G1 X64.034 Y127.096 E0.02263
G1 X63.923 Y126.383 E0.02263
G1 X63.923 Y94.350 E1.00438
G1 X64.342 Y55.059 E1.23200
G1 X64.427 Y54.441 E0.01956
G1 X64.661 Y53.859 E0.01968
G1 X65.027 Y53.353 E0.01956
G1 X65.507 Y52.949 E0.01968
G1 X66.118 Y52.666 E0.02112
G1 X66.274 Y53.005 F10800.000
G1 F1200
G1 X66.899 Y52.910 E0.01983
G1 X179.911 Y52.910 E3.54340
G1 X180.741 Y53.075 E0.02653
G1 X181.449 Y53.545 E0.02664
G1 X181.923 Y54.246 E0.02653
G1 X182.096 Y55.074 E0.02653
G1 X182.096 Y87.109 E1.00444
G1 X181.677 Y126.391 E1.23173
G1 X181.602 Y126.918 E0.01669
G1 X181.402 Y127.412 E0.01669
G1 X181.090 Y127.842 E0.01669
G1 X180.679 Y128.186 E0.01680
G1 X180.113 Y128.447 E0.01953
G1 X179.497 Y128.538 E0.01953
G1 X66.478 Y128.538 E3.54363
G1 X65.943 Y128.469 E0.01692
G1 X65.438 Y128.269 E0.01703
G1 X65.000 Y127.954 E0.01692
G1 X64.651 Y127.538 E0.01703
G1 X64.394 Y126.982 E0.01919
G1 X64.300 Y126.374 E0.01930
G1 X64.300 Y94.350 E1.00409
G1 X64.719 Y55.068 E1.23173
G1 X64.792 Y54.537 E0.01680
G1 X64.992 Y54.039 E0.01680
G1 X65.307 Y53.606 E0.01680
G1 X65.718 Y53.261 E0.01680
G1 X66.220 Y53.030 E0.01733
; PURGING FINISHED
G1 E-2.40000 F4800.00000
G1 F8640
G1 X66.899 Y52.910 E-0.36437
G1 X69.089 Y52.910 E-1.15563
G1 E-0.08000 F4800.00000
G1 Z0.800 F10800.000
G1 X67.076 Y122.507
G1 Z0.200
G1 E4.00000 F3000.00000
G1 F1200
G1 X78.490 Y122.497 E0.35787
G1 X79.047 Y122.410 E0.01767
G1 X79.375 Y122.320 E0.01068
G1 X79.888 Y122.111 E0.01737
G1 X80.178 Y121.953 E0.01034
G1 X80.438 Y121.782 E0.00976
G1 X80.876 Y121.412 E0.01798
G1 X81.096 Y121.178 E0.01007
G1 X81.203 Y121.034 E0.00563
G1 X109.452 Y125.763 E0.89806
G1 X67.076 Y125.763 E1.32868
G1 X67.076 Y122.567 E0.10020
G1 E-2.40000 F4800.00000
G1 F8640
G1 X69.956 Y122.549 E-1.52000
G1 E-0.08000 F4800.00000
G1 Z0.800 F10800.000
G1 X67.076 Y114.332
G1 Z0.200
G1 E4.00000 F3000.00000
G1 F1200
G1 X67.076 Y106.507 E0.24536
G1 X78.479 Y106.497 E0.35753
G1 X78.798 Y106.459 E0.01006
G1 X79.367 Y106.324 E0.01834
G1 X79.908 Y106.102 E0.01834
G1 X80.438 Y105.782 E0.01941
G1 X80.885 Y105.405 E0.01833
G1 X81.208 Y105.034 E0.01542
G1 X120.402 Y111.596 E1.24601
G1 X120.402 Y124.385 E0.40102
G1 X82.019 Y117.960 E1.22022
G1 X81.975 Y117.526 E0.01369
G1 X81.823 Y116.923 E0.01950
G1 X81.568 Y116.342 E0.01988
G1 X81.221 Y115.811 E0.01988
G1 X80.792 Y115.345 E0.01988
G1 X80.291 Y114.955 E0.01988
G1 X79.745 Y114.660 E0.01950
G1 X79.426 Y114.535 E0.01071
G1 X78.824 Y114.383 E0.01950
G1 X78.216 Y114.332 E0.01912
G1 X67.136 Y114.332 E0.34741
G1 E-2.40000 F4800.00000
G1 F8640
G1 X67.114 Y111.452 E-1.52000
G1 E-0.08000 F4800.00000
G1 Z0.800 F10800.000
G1 X67.152 Y98.332
G1 Z0.200
G1 E4.00000 F3000.00000
G1 F1200
G1 X67.076 Y98.332 E0.00239
G1 X67.076 Y94.937 E0.10646
G1 X116.467 Y94.937 E1.54861
G1 X120.402 Y95.596 E0.12512
G1 X120.402 Y108.385 E0.40102
G1 X82.019 Y101.960 E1.22022
G1 X81.975 Y101.526 E0.01369
G1 X81.823 Y100.923 E0.01950
G1 X81.568 Y100.342 E0.01988
G1 X81.221 Y99.811 E0.01988
G1 X80.792 Y99.345 E0.01988
G1 X80.301 Y98.963 E0.01950
G1 X80.008 Y98.788 E0.01071
G1 X79.449 Y98.543 E0.01912
G1 X79.122 Y98.446 E0.01071
G1 X78.509 Y98.344 E0.01949
G1 X67.212 Y98.332 E0.35421
G1 X67.232 Y98.709 F10800.000
G1 F1200
G1 X67.232 Y106.130 E0.23266
G1 X78.457 Y106.120 E0.35195
G1 X78.732 Y106.087 E0.00869
G1 X79.251 Y105.964 E0.01673
G1 X79.745 Y105.762 E0.01673
G1 X79.984 Y105.629 E0.00856
G1 X80.212 Y105.479 E0.00856
G1 X80.620 Y105.135 E0.01673
G1 X80.957 Y104.748 E0.01610
G1 X81.043 Y104.624 E0.00472
G1 X120.779 Y111.276 E1.26325
G1 X120.779 Y124.831 E0.42499
G1 X81.648 Y118.280 E1.24400
G1 X81.640 Y117.886 E0.01237
G1 X81.604 Y117.596 E0.00917
G1 X81.465 Y117.046 E0.01778
G1 X81.235 Y116.522 E0.01792
G1 X80.923 Y116.044 E0.01792
G1 X80.536 Y115.623 E0.01792
G1 X80.085 Y115.272 E0.01792
G1 X79.586 Y115.002 E0.01778
G1 X79.311 Y114.895 E0.00924
G1 X78.761 Y114.756 E0.01778
G1 X78.200 Y114.709 E0.01765
G1 X67.232 Y114.709 E0.34392
G1 X67.232 Y122.130 E0.23265
G1 X78.460 Y122.120 E0.35207
G1 X78.968 Y122.041 E0.01610
G1 X79.254 Y121.963 E0.00930
G1 X79.726 Y121.770 E0.01599
G1 X79.983 Y121.630 E0.00918
G1 X80.212 Y121.479 E0.00858
G1 X80.617 Y121.138 E0.01660
G1 X80.806 Y120.936 E0.00869
G1 X81.038 Y120.624 E0.01218
G1 X113.989 Y126.140 E1.04754
G1 X66.699 Y126.140 E1.48274
G1 X66.699 Y94.560 E0.99017
G1 X116.498 Y94.560 E1.56141
G1 X120.779 Y95.276 E0.13611
G1 X120.779 Y108.831 E0.42499
G1 X81.648 Y102.280 E1.24400
G1 X81.640 Y101.886 E0.01237
G1 X81.604 Y101.596 E0.00917
G1 X81.465 Y101.046 E0.01778
G1 X81.235 Y100.522 E0.01792
G1 X80.923 Y100.044 E0.01792
G1 X80.536 Y99.623 E0.01792
G1 X80.088 Y99.275 E0.01778
G1 X79.835 Y99.124 E0.00924
G1 X79.319 Y98.898 E0.01765
G1 X79.037 Y98.814 E0.00924
G1 X78.478 Y98.721 E0.01778
G1 X67.292 Y98.709 E0.35073
G1 X66.832 Y98.708 F10800.000
G1 X66.965 Y98.520
G1 F1200
G1 X66.965 Y106.318 E0.10096
G1 E-2.40000 F4800.00000
G1 F8640
G1 X66.965 Y103.438 E-1.52000
G1 E-0.08000 F4800.00000
G1 Z0.800 F10800.000
G1 X67.955 Y114.219
G1 Z0.200
G1 E4.00000 F3000.00000
G1 F1200
G1 X67.359 Y113.623 E0.02654
G1 X67.359 Y113.088 E0.01687
G1 X68.321 Y114.050 E0.04283
G1 X68.856 Y114.050 E0.01687
G1 X67.359 Y112.552 E0.06669
G1 X67.359 Y112.017 E0.01687
G1 X69.392 Y114.050 E0.09054
G1 X69.927 Y114.050 E0.01687
G1 X67.359 Y111.481 E0.11439
G1 X67.359 Y110.945 E0.01687
G1 X70.463 Y114.050 E0.13824
G1 X70.999 Y114.050 E0.01687
G1 X67.359 Y110.410 E0.16209
G1 X67.359 Y109.874 E0.01687
G1 X71.534 Y114.050 E0.18594
G1 X72.070 Y114.050 E0.01687
G1 X67.359 Y109.339 E0.20979
G1 X67.359 Y108.803 E0.01687
G1 X72.605 Y114.050 E0.23365
G1 X73.141 Y114.050 E0.01687
G1 X67.359 Y108.268 E0.25750
G1 X67.359 Y107.732 E0.01687
G1 X73.676 Y114.050 E0.28135
G1 X74.212 Y114.050 E0.01687
G1 X67.359 Y107.196 E0.30520
G1 X67.359 Y106.789 E0.01281
G1 X67.487 Y106.789 E0.00405
G1 X74.748 Y114.050 E0.32333
G1 X75.283 Y114.050 E0.01687
G1 X68.022 Y106.789 E0.32335
G1 X68.557 Y106.788 E0.01685
G1 X75.819 Y114.050 E0.32337
G1 X76.354 Y114.050 E0.01687
G1 X69.093 Y106.788 E0.32339
G1 X69.628 Y106.787 E0.01685
G1 X76.890 Y114.050 E0.32341
G1 X77.425 Y114.050 E0.01687
G1 X70.163 Y106.787 E0.32344
G1 X70.698 Y106.786 E0.01685
G1 X77.961 Y114.050 E0.32346
G1 X78.521 Y114.074 E0.01765
G1 X71.233 Y106.786 E0.32456
G1 X71.768 Y106.785 E0.01685
G1 X79.158 Y114.176 E0.32912
G1 X79.513 Y114.266 E0.01151
G1 X79.864 Y114.402 E0.01186
G1 X79.988 Y114.470 E0.00445
G1 X72.303 Y106.785 E0.34223
G1 X72.838 Y106.784 E0.01685
G1 X84.071 Y118.017 E0.50022
G1 X84.714 Y118.125 E0.02054
G1 X73.373 Y106.784 E0.50503
G1 X73.909 Y106.784 E0.01685
G1 X85.357 Y118.232 E0.50985
G1 X86.000 Y118.340 E0.02054
G1 X74.444 Y106.783 E0.51467
G1 X74.979 Y106.783 E0.01685
G1 X86.644 Y118.448 E0.51949
G1 X87.287 Y118.555 E0.02054
G1 X75.514 Y106.782 E0.52430
G1 X76.049 Y106.782 E0.01685
G1 X87.930 Y118.663 E0.52912
G1 X88.573 Y118.771 E0.02054
G1 X76.584 Y106.781 E0.53394
G1 X77.119 Y106.781 E0.01685
G1 X89.217 Y118.878 E0.53875
G1 X89.860 Y118.986 E0.02054
G1 X77.654 Y106.780 E0.54357
G1 X78.189 Y106.780 E0.01685
G1 X90.503 Y119.094 E0.54839
G1 X91.147 Y119.201 E0.02054
G1 X78.701 Y106.755 E0.55426
G1 X79.148 Y106.667 E0.01435
G1 X91.790 Y119.309 E0.56301
G1 X92.433 Y119.417 E0.02054
G1 X79.565 Y106.548 E0.57307
G1 X79.945 Y106.393 E0.01293
G1 X93.076 Y119.524 E0.58480
G1 X93.720 Y119.632 E0.02054
G1 X80.289 Y106.202 E0.59809
G1 X80.620 Y105.997 E0.01225
G1 X94.363 Y119.740 E0.61200
G1 X95.006 Y119.847 E0.02054
G1 X80.911 Y105.753 E0.62770
G1 X81.084 Y105.607 E0.00710
G1 X81.185 Y105.491 E0.00487
G1 X95.649 Y119.955 E0.64415
G1 X96.293 Y120.063 E0.02054
G1 X81.620 Y105.390 E0.65343
G1 X82.263 Y105.498 E0.02054
G1 X96.936 Y120.170 E0.65343
G1 X97.579 Y120.278 E0.02054
G1 X82.907 Y105.606 E0.65343
G1 X83.550 Y105.713 E0.02054
G1 X98.222 Y120.386 E0.65343
G1 X98.866 Y120.494 E0.02054
G1 X84.193 Y105.821 E0.65343
G1 X84.836 Y105.929 E0.02054
G1 X99.509 Y120.601 E0.65343
G1 X100.152 Y120.709 E0.02054
G1 X85.480 Y106.036 E0.65343
G1 X86.123 Y106.144 E0.02054
G1 X100.795 Y120.817 E0.65343
G1 X101.439 Y120.924 E0.02054
G1 X86.766 Y106.252 E0.65343
G1 X87.409 Y106.359 E0.02054
G1 X102.082 Y121.032 E0.65343
G1 X102.725 Y121.140 E0.02054
G1 X88.053 Y106.467 E0.65343
G1 X88.696 Y106.575 E0.02054
G1 X103.369 Y121.247 E0.65343
G1 X104.012 Y121.355 E0.02054
G1 X89.339 Y106.682 E0.65343
G1 X89.982 Y106.790 E0.02054
G1 X104.655 Y121.463 E0.65343
G1 X105.298 Y121.570 E0.02054
G1 X90.626 Y106.898 E0.65343
G1 X91.269 Y107.005 E0.02054
G1 X105.942 Y121.678 E0.65343
G1 X106.585 Y121.786 E0.02054
G1 X91.912 Y107.113 E0.65343
G1 X92.556 Y107.221 E0.02054
G1 X107.228 Y121.893 E0.65343
G1 X107.871 Y122.001 E0.02054
G1 X93.199 Y107.328 E0.65343
G1 X93.842 Y107.436 E0.02054
G1 X108.515 Y122.109 E0.65343
G1 X109.158 Y122.216 E0.02054
G1 X94.485 Y107.544 E0.65343
G1 X95.129 Y107.652 E0.02054
G1 X109.801 Y122.324 E0.65343
G1 X110.444 Y122.432 E0.02054
G1 X95.772 Y107.759 E0.65343
G1 X96.415 Y107.867 E0.02054
G1 X111.088 Y122.539 E0.65343
G1 X111.731 Y122.647 E0.02054
G1 X97.058 Y107.975 E0.65343
G1 X97.702 Y108.082 E0.02054
G1 X112.374 Y122.755 E0.65343
G1 X113.017 Y122.863 E0.02054
G1 X98.345 Y108.190 E0.65343
G1 X98.988 Y108.298 E0.02054
G1 X113.661 Y122.970 E0.65343
G1 X114.304 Y123.078 E0.02054
G1 X99.631 Y108.405 E0.65343
G1 X100.275 Y108.513 E0.02054
G1 X114.947 Y123.186 E0.65343
G1 X115.591 Y123.293 E0.02054
G1 X100.918 Y108.621 E0.65343
G1 X101.561 Y108.728 E0.02054
G1 X116.234 Y123.401 E0.65343
G1 X116.877 Y123.509 E0.02054
G1 X102.204 Y108.836 E0.65343
G1 X102.848 Y108.944 E0.02054
G1 X117.520 Y123.616 E0.65343
G1 X118.164 Y123.724 E0.02054
G1 X103.491 Y109.051 E0.65343
G1 X104.134 Y109.159 E0.02054
G1 X118.807 Y123.832 E0.65343
G1 X119.450 Y123.939 E0.02054
G1 X104.778 Y109.267 E0.65343
G1 X105.421 Y109.374 E0.02054
G1 X120.093 Y124.047 E0.65343
G1 X120.119 Y124.051 E0.00083
G1 X120.119 Y123.537 E0.01618
G1 X106.064 Y109.482 E0.62594
G1 X106.707 Y109.590 E0.02054
G1 X120.119 Y123.002 E0.59729
G1 X120.119 Y122.466 E0.01687
G1 X107.351 Y109.697 E0.56864
G1 X107.994 Y109.805 E0.02054
G1 X120.119 Y121.931 E0.54000
G1 X120.119 Y121.395 E0.01687
G1 X108.637 Y109.913 E0.51135
G1 X109.280 Y110.021 E0.02054
G1 X120.119 Y120.860 E0.48270
G1 X120.119 Y120.324 E0.01687
G1 X109.924 Y110.128 E0.45406
G1 X110.567 Y110.236 E0.02054
G1 X120.119 Y119.788 E0.42541
G1 X120.119 Y119.253 E0.01687
G1 X111.210 Y110.344 E0.39676
G1 X111.853 Y110.451 E0.02054
G1 X120.119 Y118.717 E0.36812
G1 X120.119 Y118.182 E0.01687
G1 X112.497 Y110.559 E0.33947
G1 X113.140 Y110.667 E0.02054
G1 X120.119 Y117.646 E0.31082
G1 X120.119 Y117.110 E0.01687
G1 X113.783 Y110.774 E0.28218
G1 X114.426 Y110.882 E0.02054
G1 X120.119 Y116.575 E0.25353
G1 X120.119 Y116.039 E0.01687
G1 X115.070 Y110.990 E0.22488
G1 X115.713 Y111.097 E0.02054
G1 X120.119 Y115.504 E0.19623
G1 X120.119 Y114.968 E0.01687
G1 X116.356 Y111.205 E0.16759
G1 X117.000 Y111.313 E0.02054
G1 X120.119 Y114.433 E0.13894
G1 X120.119 Y113.897 E0.01687
G1 X117.643 Y111.420 E0.11029
G1 X118.286 Y111.528 E0.02054
G1 X120.119 Y113.361 E0.08165
G1 X120.119 Y112.826 E0.01687
G1 X118.929 Y111.636 E0.05300
G1 X119.573 Y111.743 E0.02054
G1 X120.289 Y112.460 E0.03191
G1 E-2.40000 F4800.00000
G1 F8640
G1 X119.573 Y111.743 E-0.53481
G1 X118.929 Y111.636 E-0.34422
G1 X119.788 Y112.494 E-0.64096
G1 E-0.08000 F4800.00000
G1 Z0.800 F10800.000
G1 X120.289 Y96.460
G1 Z0.200
G1 E4.00000 F3000.00000
G1 F1200
G1 X119.573 Y95.743 E0.03191
G1 X118.929 Y95.636 E0.02054
G1 X120.119 Y96.826 E0.05300
G1 X120.119 Y97.361 E0.01687
G1 X118.286 Y95.528 E0.08165
G1 X117.643 Y95.420 E0.02054
G1 X120.119 Y97.897 E0.11029
G1 X120.119 Y98.433 E0.01687
G1 X117.000 Y95.313 E0.13894
G1 X116.371 Y95.220 E0.02001
G1 X120.119 Y98.968 E0.16694
G1 X120.119 Y99.504 E0.01687
G1 X115.835 Y95.220 E0.19079
G1 X115.300 Y95.220 E0.01687
G1 X120.119 Y100.039 E0.21464
G1 X120.119 Y100.575 E0.01687
G1 X114.764 Y95.220 E0.23849
G1 X114.228 Y95.220 E0.01687
G1 X120.119 Y101.110 E0.26234
G1 X120.119 Y101.646 E0.01687
G1 X113.693 Y95.220 E0.28619
G1 X113.157 Y95.220 E0.01687
G1 X120.119 Y102.182 E0.31005
G1 X120.119 Y102.717 E0.01687
G1 X112.622 Y95.220 E0.33390
G1 X112.086 Y95.220 E0.01687
G1 X120.119 Y103.253 E0.35775
G1 X120.119 Y103.788 E0.01687
G1 X111.551 Y95.220 E0.38160
G1 X111.015 Y95.220 E0.01687
G1 X120.119 Y104.324 E0.40545
G1 X120.119 Y104.860 E0.01687
G1 X110.479 Y95.220 E0.42930
G1 X109.944 Y95.220 E0.01687
G1 X120.119 Y105.395 E0.45315
G1 X120.119 Y105.931 E0.01687
G1 X109.408 Y95.220 E0.47700
G1 X108.873 Y95.220 E0.01687
G1 X120.119 Y106.466 E0.50086
G1 X120.119 Y107.002 E0.01687
G1 X108.337 Y95.220 E0.52471
G1 X107.802 Y95.220 E0.01687
G1 X120.119 Y107.537 E0.54856
G1 X120.119 Y108.051 E0.01618
G1 X120.093 Y108.047 E0.00083
G1 X107.266 Y95.220 E0.57125
G1 X106.730 Y95.220 E0.01687
G1 X119.450 Y107.939 E0.56646
G1 X118.807 Y107.832 E0.02054
G1 X106.195 Y95.220 E0.56166
G1 X105.659 Y95.220 E0.01687
G1 X118.164 Y107.724 E0.55687
G1 X117.520 Y107.616 E0.02054
G1 X105.124 Y95.220 E0.55207
G1 X104.588 Y95.220 E0.01687
G1 X116.877 Y107.509 E0.54728
G1 X116.234 Y107.401 E0.02054
G1 X104.052 Y95.220 E0.54248
G1 X103.517 Y95.220 E0.01687
G1 X115.591 Y107.293 E0.53769
G1 X114.947 Y107.186 E0.02054
G1 X102.981 Y95.220 E0.53289
G1 X102.446 Y95.220 E0.01687
G1 X114.304 Y107.078 E0.52809
G1 X113.661 Y106.970 E0.02054
G1 X101.910 Y95.220 E0.52330
G1 X101.375 Y95.220 E0.01687
G1 X113.018 Y106.863 E0.51850
G1 X112.374 Y106.755 E0.02054
G1 X100.839 Y95.220 E0.51371
G1 X100.303 Y95.220 E0.01687
G1 X111.731 Y106.647 E0.50891
G1 X111.088 Y106.539 E0.02054
G1 X99.768 Y95.220 E0.50412
G1 X99.232 Y95.220 E0.01687
G1 X110.445 Y106.432 E0.49932
G1 X109.801 Y106.324 E0.02054
G1 X98.697 Y95.220 E0.49453
G1 X98.161 Y95.220 E0.01687
G1 X109.158 Y106.216 E0.48973
G1 X108.515 Y106.109 E0.02054
G1 X97.626 Y95.220 E0.48494
G1 X97.090 Y95.220 E0.01687
