; generated by Slic3r Prusa Edition 1.38.6-prusa3d-win64 on 2018-02-11 at 07:45:24

; 

; external perimeters extrusion width = 0.60mm
; perimeters extrusion width = 0.43mm
; infill extrusion width = 0.70mm
; solid infill extrusion width = 0.70mm
; top infill extrusion width = 0.43mm
; first layer extrusion width = 0.42mm

M107
M115 U3.1.0 ; tell printer latest fw version
; Start G-Code sequence START
T0
M104 S230 ; set extruder temp
M140 S60 ; set bed temp
M190 S60 ; wait for bed temp
M109 S230 ; wait for extruder temp
G21 ; set units to millimeters
G90 ; use absolute coordinates
M83 ; use relative distances for extrusion
G28 W
G80
G92 E0.0
M203 E100 ; set max feedrate
M92 E140 ; E-steps per filament milimeter

G1 Z0.250 F7200.000
G1 X50.0 E80.0  F1000.0
G1 X160.0 E20.0  F1000.0
G1 Z0.200 F7200.000
G1 X220.0 E13 F1000.0
G1 X240.0 E0 F1000.0
G1 E-4 F1000.0

G92 E0.0
M900 K200; Filament gcode
G21 ; set units to millimeters
G90 ; use absolute coordinates
M83 ; use relative distances for extrusion
;BEFORE_LAYER_CHANGE
;0.2


G1 Z0.200 F7200.000
;AFTER_LAYER_CHANGE
;0.2
G1 E-4.00000 F4800.00000
G1 Z0.800 F7200.000
G1 X40.268 Y40.597 F7200.000
G1 Z0.200 F7200.000
G1 E4.00000 F3000.00000
M204 S1000
G1 F1800
G1 X40.722 Y39.195 E0.04666
G1 X41.118 Y38.437 E0.02711
G1 X41.615 Y37.724 E0.02752
G1 X42.613 Y36.705 E0.04518
G1 X43.476 Y36.096 E0.03345
G1 X44.682 Y35.526 E0.04222
G1 X45.661 Y35.256 E0.03216
G1 X46.964 Y35.123 E0.04149
G1 X203.004 Y35.123 E4.94144
G1 X204.391 Y35.265 E0.04415
G1 X205.679 Y35.667 E0.04274
G1 X206.893 Y36.332 E0.04385
G1 X207.751 Y37.029 E0.03498
G1 X208.626 Y38.046 E0.04249
G1 X209.307 Y39.259 E0.04407
G1 X209.731 Y40.589 E0.04419
G1 X209.876 Y41.926 E0.04261
G1 X209.877 Y168.046 E3.99393
G1 X209.720 Y169.455 E0.04490
G1 X209.487 Y170.283 E0.02727
G1 X209.160 Y171.055 E0.02652
G1 X208.360 Y172.307 E0.04706
G1 X207.382 Y173.300 E0.04414
G1 X206.515 Y173.910 E0.03358
G1 X205.315 Y174.476 E0.04201
G1 X204.325 Y174.747 E0.03250
G1 X203.022 Y174.877 E0.04149
G1 X46.989 Y174.877 E4.94123
G1 X45.597 Y174.732 E0.04431
G1 X44.201 Y174.280 E0.04646
G1 X43.440 Y173.883 E0.02720
G1 X42.732 Y173.391 E0.02731
G1 X41.698 Y172.379 E0.04583
G1 X41.096 Y171.524 E0.03312
G1 X40.529 Y170.328 E0.04190
G1 X40.256 Y169.339 E0.03248
G1 X40.123 Y168.038 E0.04142
G1 X40.123 Y41.985 E3.99183
G1 X40.262 Y40.657 E0.04228
G1 E-2.40000 F4800.00000
G1 F5760
G1 X40.722 Y39.195 E-1.21293
G1 F5760
G1 X40.901 Y38.852 E-0.30707
G1 E-0.08000 F4800.00000
G1 Z0.800 F7200.000
G1 X79.306 Y153.634 F7200.000
G1 Z0.200 F7200.000
G1 E4.00000 F3000.00000
G1 F1800
G1 X79.807 Y153.471 E0.01669
G1 X80.113 Y153.423 E0.00978
G1 X80.631 Y153.424 E0.01641
G1 X81.160 Y153.536 E0.01714
G1 X81.655 Y153.757 E0.01715
G1 X82.093 Y154.075 E0.01715
G1 X82.455 Y154.477 E0.01715
G1 X82.726 Y154.946 E0.01715
G1 X82.889 Y155.447 E0.01666
G1 X82.936 Y155.745 E0.00956
G1 X82.936 Y156.271 E0.01666
G1 X82.823 Y156.800 E0.01715
G1 X82.609 Y157.282 E0.01669
G1 X82.440 Y157.540 E0.00978
G1 X82.093 Y157.925 E0.01641
G1 X81.655 Y158.243 E0.01714
G1 X81.160 Y158.464 E0.01715
G1 X80.631 Y158.576 E0.01715
G1 X80.089 Y158.576 E0.01715
G1 X79.559 Y158.464 E0.01715
G1 X79.078 Y158.249 E0.01669
G1 X78.819 Y158.080 E0.00978
G1 X78.435 Y157.733 E0.01641
G1 X78.117 Y157.295 E0.01714
G1 X77.896 Y156.800 E0.01715
G1 X77.784 Y156.271 E0.01715
G1 X77.784 Y155.729 E0.01715
G1 X77.896 Y155.200 E0.01715
G1 X78.117 Y154.705 E0.01715
G1 X78.435 Y154.267 E0.01715
G1 X78.837 Y153.904 E0.01715
G1 X79.254 Y153.664 E0.01525
G1 X79.443 Y153.990 F7200.000
G1 F1800
G1 X79.895 Y153.839 E0.01511
G1 X80.142 Y153.801 E0.00790
G1 X80.591 Y153.801 E0.01423
G1 X81.043 Y153.897 E0.01464
G1 X81.465 Y154.085 E0.01464
G1 X81.839 Y154.357 E0.01464
G1 X82.149 Y154.700 E0.01464
G1 X82.380 Y155.101 E0.01464
G1 X82.521 Y155.535 E0.01446
G1 X82.559 Y155.774 E0.00768
G1 X82.559 Y156.231 E0.01446
G1 X82.463 Y156.683 E0.01464
G1 X82.277 Y157.101 E0.01447
G1 X82.140 Y157.310 E0.00790
G1 X81.839 Y157.643 E0.01423
G1 X81.465 Y157.915 E0.01464
G1 X81.043 Y158.103 E0.01464
G1 X80.591 Y158.199 E0.01464
G1 X80.129 Y158.199 E0.01464
G1 X79.676 Y158.103 E0.01464
G1 X79.259 Y157.917 E0.01447
G1 X79.050 Y157.780 E0.00790
G1 X78.717 Y157.479 E0.01423
G1 X78.445 Y157.106 E0.01464
G1 X78.257 Y156.683 E0.01464
G1 X78.161 Y156.231 E0.01464
G1 X78.161 Y155.769 E0.01464
G1 X78.257 Y155.317 E0.01464
G1 X78.445 Y154.894 E0.01464
G1 X78.717 Y154.520 E0.01464
G1 X79.060 Y154.211 E0.01464
G1 X79.391 Y154.020 E0.01209
G1 X79.482 Y153.592 F7200.000
G1 E-2.40000 F4800.00000
G1 F5760
G1 X79.895 Y153.839 E-0.42427
G1 F5760
G1 X80.142 Y153.801 E-0.19747
G1 F5760
G1 X80.591 Y153.801 E-0.35576
G1 F5760
G1 X81.043 Y153.897 E-0.36588
G1 F5760
G1 X81.247 Y153.988 E-0.17661
G1 E-0.08000 F4800.00000
G1 Z0.800 F7200.000
G1 X96.337 Y123.413 F7200.000
G1 Z0.200 F7200.000
G1 E4.00000 F3000.00000
G1 F1800
G1 X96.337 Y152.587 E0.92388
G1 X67.507 Y152.587 E0.91299
G1 X63.663 Y148.743 E0.17215
G1 X63.663 Y127.257 E0.68043
G1 X67.507 Y123.413 E0.17215
G1 X96.277 Y123.413 E0.91109
G1 X95.960 Y123.790 F7200.000
G1 F1800
G1 X95.960 Y152.210 E0.90000
G1 X67.663 Y152.210 E0.89610
G1 X64.040 Y148.587 E0.16226
G1 X64.040 Y127.413 E0.67053
G1 X67.663 Y123.790 E0.16226
G1 X95.900 Y123.790 E0.89420
G1 X96.360 Y123.775 F7200.000
G1 E-2.40000 F4800.00000
G1 F5760
G1 X95.904 Y125.710 E-1.52000
G1 E-0.08000 F4800.00000
G1 Z0.800 F7200.000
G1 X82.823 Y120.800 F7200.000
G1 Z0.200 F7200.000
G1 E4.00000 F3000.00000
G1 F1800
G1 X82.609 Y121.282 E0.01669
G1 X82.440 Y121.540 E0.00978
G1 X82.093 Y121.925 E0.01641
G1 X81.655 Y122.243 E0.01714
G1 X81.160 Y122.464 E0.01715
G1 X80.631 Y122.576 E0.01715
G1 X80.089 Y122.576 E0.01715
G1 X79.559 Y122.464 E0.01715
G1 X79.078 Y122.249 E0.01669
G1 X78.819 Y122.080 E0.00978
G1 X78.435 Y121.733 E0.01641
G1 X78.117 Y121.295 E0.01714
G1 X77.896 Y120.800 E0.01715
G1 X77.784 Y120.271 E0.01715
G1 X77.784 Y119.729 E0.01715
G1 X77.896 Y119.200 E0.01715
G1 X78.117 Y118.705 E0.01715
G1 X78.435 Y118.267 E0.01715
G1 X78.837 Y117.904 E0.01715
G1 X79.306 Y117.634 E0.01715
G1 X79.807 Y117.471 E0.01669
G1 X80.113 Y117.423 E0.00978
G1 X80.631 Y117.424 E0.01641
G1 X81.160 Y117.536 E0.01714
G1 X81.655 Y117.757 E0.01715
G1 X82.093 Y118.075 E0.01715
G1 X82.446 Y118.467 E0.01669
G1 X82.613 Y118.726 E0.00978
G1 X82.823 Y119.200 E0.01641
G1 X82.936 Y119.729 E0.01714
G1 X82.936 Y120.271 E0.01715
G1 X82.836 Y120.742 E0.01525
G1 X82.467 Y120.663 F7200.000
G1 F1800
G1 X82.277 Y121.101 E0.01511
G1 X82.140 Y121.310 E0.00790
G1 X81.839 Y121.643 E0.01423
G1 X81.465 Y121.915 E0.01464
G1 X81.043 Y122.103 E0.01464
G1 X80.591 Y122.199 E0.01464
G1 X80.129 Y122.199 E0.01464
G1 X79.677 Y122.103 E0.01464
G1 X79.259 Y121.917 E0.01447
G1 X79.050 Y121.780 E0.00790
G1 X78.717 Y121.479 E0.01423
G1 X78.445 Y121.106 E0.01464
G1 X78.257 Y120.683 E0.01464
G1 X78.161 Y120.231 E0.01464
G1 X78.161 Y119.769 E0.01464
G1 X78.257 Y119.317 E0.01464
G1 X78.445 Y118.894 E0.01464
G1 X78.717 Y118.520 E0.01464
G1 X79.060 Y118.211 E0.01464
G1 X79.460 Y117.980 E0.01464
G1 X79.895 Y117.839 E0.01447
G1 X80.142 Y117.801 E0.00790
G1 X80.591 Y117.801 E0.01423
G1 X81.043 Y117.897 E0.01464
G1 X81.465 Y118.085 E0.01464
G1 X81.839 Y118.357 E0.01464
G1 X82.145 Y118.696 E0.01447
G1 X82.280 Y118.906 E0.00790
G1 X82.463 Y119.317 E0.01423
G1 X82.559 Y119.769 E0.01464
G1 X82.559 Y120.231 E0.01464
G1 X82.479 Y120.605 E0.01209
G1 X82.737 Y120.959 F7200.000
G1 E-2.40000 F4800.00000
G1 F5760
G1 X82.277 Y121.101 E-0.42429
G1 F5760
G1 X82.140 Y121.310 E-0.19747
G1 F5760
G1 X81.839 Y121.643 E-0.35576
G1 F5760
G1 X81.465 Y121.915 E-0.36588
G1 F5760
G1 X81.262 Y122.006 E-0.17660
G1 E-0.08000 F4800.00000
G1 Z0.800 F7200.000
G1 X116.913 Y120.605 F7200.000
G1 Z0.200 F7200.000
G1 E4.00000 F3000.00000
G1 F1800
G1 X116.913 Y167.980 E1.50028
G1 X116.875 Y168.533 E0.01756
G1 X116.832 Y168.787 E0.00814
G1 X116.686 Y169.310 E0.01720
G1 X116.473 Y169.800 E0.01691
G1 X116.196 Y170.256 E0.01691
G1 X115.859 Y170.670 E0.01691
G1 X115.469 Y171.034 E0.01691
G1 X115.032 Y171.342 E0.01691
G1 X114.558 Y171.588 E0.01691
G1 X114.055 Y171.767 E0.01691
G1 X113.533 Y171.875 E0.01691
G1 X112.980 Y171.913 E0.01754
G1 X47.020 Y171.913 E2.08881
G1 X46.467 Y171.875 E0.01755
G1 X45.944 Y171.767 E0.01692
G1 X45.699 Y171.689 E0.00814
G1 X45.200 Y171.473 E0.01720
G1 X44.744 Y171.196 E0.01691
G1 X44.330 Y170.859 E0.01691
G1 X43.966 Y170.469 E0.01691
G1 X43.658 Y170.032 E0.01691
G1 X43.412 Y169.558 E0.01691
G1 X43.234 Y169.055 E0.01691
G1 X43.125 Y168.533 E0.01691
G1 X43.087 Y167.980 E0.01754
G1 X43.087 Y42.020 E3.98888
G1 X43.125 Y41.467 E0.01756
G1 X43.168 Y41.213 E0.00814
G1 X43.314 Y40.690 E0.01720
G1 X43.527 Y40.200 E0.01691
G1 X43.804 Y39.744 E0.01691
G1 X44.141 Y39.330 E0.01691
G1 X44.532 Y38.966 E0.01691
G1 X44.968 Y38.657 E0.01692
G1 X45.192 Y38.531 E0.00814
G1 X45.690 Y38.314 E0.01720
G1 X46.204 Y38.170 E0.01691
G1 X46.733 Y38.098 E0.01691
G1 X113.257 Y38.097 E2.10668
G1 X113.796 Y38.170 E0.01723
G1 X114.311 Y38.314 E0.01691
G1 X114.559 Y38.412 E0.00846
G1 X114.791 Y38.522 E0.00812
G1 X115.264 Y38.810 E0.01754
G1 X115.461 Y38.959 E0.00782
G1 X115.866 Y39.337 E0.01754
G1 X116.028 Y39.523 E0.00782
G1 X116.348 Y39.976 E0.01754
G1 X116.469 Y40.191 E0.00782
G1 X116.686 Y40.690 E0.01723
G1 X116.832 Y41.214 E0.01722
G1 X116.874 Y41.457 E0.00782
G1 X116.913 Y42.020 E0.01786
G1 X116.913 Y120.545 E2.48671
G1 X117.290 Y120.545 F7200.000
G1 F1800
G1 X117.290 Y167.993 E1.50258
G1 X117.250 Y168.578 E0.01857
G1 X117.201 Y168.869 E0.00937
G1 X117.042 Y169.436 E0.01865
G1 X116.809 Y169.973 E0.01854
G1 X116.504 Y170.474 E0.01854
G1 X116.135 Y170.928 E0.01854
G1 X115.707 Y171.327 E0.01854
G1 X115.229 Y171.665 E0.01854
G1 X114.709 Y171.934 E0.01854
G1 X114.157 Y172.130 E0.01854
G1 X113.584 Y172.250 E0.01854
G1 X112.993 Y172.290 E0.01877
G1 X47.007 Y172.290 E2.08962
G1 X46.416 Y172.250 E0.01877
G1 X45.849 Y172.132 E0.01834
G1 X45.567 Y172.043 E0.00937
G1 X45.027 Y171.809 E0.01865
G1 X44.526 Y171.504 E0.01854
G1 X44.072 Y171.135 E0.01854
G1 X43.673 Y170.707 E0.01854
G1 X43.335 Y170.229 E0.01854
G1 X43.066 Y169.709 E0.01854
G1 X42.870 Y169.157 E0.01854
G1 X42.750 Y168.584 E0.01854
G1 X42.710 Y167.993 E0.01877
G1 X42.710 Y42.007 E3.98970
G1 X42.750 Y41.422 E0.01856
G1 X42.799 Y41.131 E0.00937
G1 X42.958 Y40.564 E0.01865
G1 X43.191 Y40.027 E0.01854
G1 X43.496 Y39.526 E0.01854
G1 X43.865 Y39.072 E0.01854
G1 X44.293 Y38.673 E0.01854
G1 X44.766 Y38.338 E0.01834
G1 X45.023 Y38.193 E0.00937
G1 X45.564 Y37.958 E0.01865
G1 X46.127 Y37.800 E0.01854
G1 X46.707 Y37.720 E0.01854
G1 X113.283 Y37.720 E2.10830
G1 X113.873 Y37.800 E0.01886
G1 X114.430 Y37.956 E0.01833
G1 X114.709 Y38.065 E0.00948
G1 X114.970 Y38.190 E0.00916
G1 X115.477 Y38.497 E0.01877
G1 X115.704 Y38.670 E0.00905
G1 X116.138 Y39.075 E0.01877
G1 X116.325 Y39.290 E0.00905
G1 X116.667 Y39.774 E0.01877
G1 X116.807 Y40.023 E0.00905
G1 X117.042 Y40.564 E0.01865
G1 X117.201 Y41.131 E0.01865
G1 X117.249 Y41.412 E0.00905
G1 X117.290 Y42.007 E0.01888
G1 X117.290 Y120.485 E2.48521
G1 X116.944 Y120.745 F7200.000
G1 E-2.40000 F4800.00000
G1 F5760
G1 X117.290 Y122.405 E-1.52000
G1 E-0.08000 F4800.00000
G1 Z0.800 F7200.000
G1 X96.432 Y123.300 F7200.000
G1 Z0.200 F7200.000
G1 E4.00000 F3000.00000
G1 F1800
G1 X43.370 Y70.237 E2.37813
G1 X43.370 Y70.771 E0.01691
G1 X95.729 Y123.130 E2.34661
G1 X95.195 Y123.130 E0.01691
G1 X43.370 Y71.305 E2.32269
G1 X43.370 Y71.838 E0.01691
G1 X94.662 Y123.130 E2.29878
G1 X94.128 Y123.130 E0.01691
G1 X43.370 Y72.372 E2.27486
G1 X43.370 Y72.906 E0.01691
G1 X93.594 Y123.130 E2.25094
G1 X93.061 Y123.130 E0.01691
G1 X43.370 Y73.439 E2.22703
G1 X43.370 Y73.973 E0.01691
G1 X92.527 Y123.130 E2.20311
G1 X91.993 Y123.130 E0.01691
G1 X43.370 Y74.507 E2.17919
G1 X43.370 Y75.040 E0.01691
G1 X91.460 Y123.130 E2.15527
G1 X90.926 Y123.130 E0.01691
G1 X43.370 Y75.574 E2.13136
G1 X43.370 Y76.108 E0.01691
G1 X90.392 Y123.130 E2.10744
G1 X89.859 Y123.130 E0.01691
G1 X43.370 Y76.641 E2.08352
G1 X43.370 Y77.175 E0.01691
G1 X89.325 Y123.130 E2.05960
G1 X88.791 Y123.130 E0.01691
G1 X43.370 Y77.709 E2.03569
G1 X43.370 Y78.242 E0.01691
G1 X88.258 Y123.130 E2.01177
G1 X87.724 Y123.130 E0.01691
G1 X43.370 Y78.776 E1.98785
G1 X43.370 Y79.310 E0.01691
G1 X81.389 Y117.329 E1.70393
G1 X81.248 Y117.266 E0.00489
G1 X80.670 Y117.143 E0.01874
G1 X43.370 Y79.843 E1.67169
G1 X43.370 Y80.377 E0.01691
G1 X80.134 Y117.141 E1.64767
G1 X79.676 Y117.216 E0.01471
G1 X43.370 Y80.911 E1.62714
G1 X43.370 Y81.444 E0.01691
G1 X79.273 Y117.347 E1.60909
G1 X79.191 Y117.374 E0.00274
G1 X78.921 Y117.529 E0.00985
G1 X43.370 Y81.978 E1.59333
G1 X43.370 Y82.512 E0.01691
G1 X78.598 Y117.739 E1.57883
G1 X78.317 Y117.992 E0.01198
G1 X43.370 Y83.045 E1.56625
G1 X43.370 Y83.579 E0.01691
G1 X78.074 Y118.283 E1.55534
G1 X77.855 Y118.597 E0.01215
G1 X43.370 Y84.113 E1.54553
G1 X43.370 Y84.646 E0.01691
G1 X77.690 Y118.967 E1.53817
G1 X77.626 Y119.112 E0.00503
G1 X77.569 Y119.379 E0.00866
G1 X43.370 Y85.180 E1.53273
G1 X43.370 Y85.714 E0.01691
G1 X77.501 Y119.845 E1.52967
G1 X77.501 Y120.300 E0.01445
G1 X77.522 Y120.399 E0.00320
G1 X43.370 Y86.247 E1.53061
G1 X43.370 Y86.781 E0.01691
G1 X77.745 Y121.156 E1.54061
G1 X79.204 Y122.615 F7200.000
G1 F1800
G1 X79.719 Y123.130 E0.02310
G1 X80.253 Y123.130 E0.01691
G1 X79.961 Y122.838 E0.01310
G1 X80.059 Y122.859 E0.00320
G1 X80.515 Y122.859 E0.01445
G1 X80.786 Y123.130 E0.01216
G1 X81.320 Y123.130 E0.01691
G1 X80.981 Y122.791 E0.01521
G1 X81.248 Y122.734 E0.00866
G1 X81.393 Y122.669 E0.00503
G1 X81.854 Y123.130 E0.02065
G1 X82.387 Y123.130 E0.01691
G1 X81.762 Y122.505 E0.02802
G1 X82.077 Y122.286 E0.01215
G1 X82.921 Y123.130 E0.03783
G1 X83.455 Y123.130 E0.01691
G1 X82.367 Y122.043 E0.04873
G1 X82.621 Y121.762 E0.01197
G1 X83.988 Y123.130 E0.06130
G1 X84.522 Y123.130 E0.01691
G1 X82.839 Y121.447 E0.07544
G1 X83.008 Y121.082 E0.01274
G1 X85.056 Y123.130 E0.09180
G1 X85.589 Y123.130 E0.01691
G1 X83.138 Y120.679 E0.10986
G1 X83.219 Y120.300 E0.01226
G1 X83.219 Y120.226 E0.00237
G1 X86.123 Y123.130 E0.13017
G1 X86.657 Y123.130 E0.01691
G1 X83.217 Y119.690 E0.15418
G1 X83.094 Y119.112 E0.01873
G1 X83.031 Y118.971 E0.00490
G1 X87.360 Y123.300 E0.19402
G1 E-2.40000 F4800.00000
G1 F5760
G1 X86.002 Y121.942 E-1.52000
G1 E-0.08000 F4800.00000
G1 Z0.800 F7200.000
G1 X79.355 Y123.300 F7200.000
G1 Z0.200 F7200.000
G1 E4.00000 F3000.00000
G1 F1800
G1 X43.370 Y87.314 E1.61278
G1 X43.370 Y87.848 E0.01691
G1 X78.652 Y123.130 E1.58126
G1 X78.118 Y123.130 E0.01691
G1 X43.370 Y88.382 E1.55734
G1 X43.370 Y88.915 E0.01691
G1 X77.585 Y123.130 E1.53342
G1 X77.051 Y123.130 E0.01691
G1 X43.370 Y89.449 E1.50950
G1 X43.370 Y89.983 E0.01691
G1 X76.517 Y123.130 E1.48559
G1 X75.984 Y123.130 E0.01691
G1 X43.370 Y90.516 E1.46167
G1 X43.370 Y91.050 E0.01691
G1 X75.450 Y123.130 E1.43775
G1 X74.916 Y123.130 E0.01691
G1 X43.370 Y91.584 E1.41383
G1 X43.370 Y92.117 E0.01691
G1 X74.383 Y123.130 E1.38992
G1 X73.849 Y123.130 E0.01691
G1 X43.370 Y92.651 E1.36600
G1 X43.370 Y93.185 E0.01691
G1 X73.315 Y123.130 E1.34208
G1 X72.782 Y123.130 E0.01691
G1 X43.370 Y93.718 E1.31817
G1 X43.370 Y94.252 E0.01691
G1 X72.248 Y123.130 E1.29425
G1 X71.714 Y123.130 E0.01691
G1 X43.370 Y94.786 E1.27033
G1 X43.370 Y95.319 E0.01691
G1 X71.181 Y123.130 E1.24641
G1 X70.647 Y123.130 E0.01691
G1 X43.370 Y95.853 E1.22250
G1 X43.370 Y96.387 E0.01691
G1 X70.113 Y123.130 E1.19858
G1 X69.580 Y123.130 E0.01691
G1 X43.370 Y96.920 E1.17466
G1 X43.370 Y97.454 E0.01691
G1 X69.046 Y123.130 E1.15074
G1 X68.512 Y123.130 E0.01691
G1 X43.370 Y97.988 E1.12683
G1 X43.370 Y98.521 E0.01691
G1 X67.979 Y123.130 E1.10291
G1 X67.445 Y123.130 E0.01691
G1 X43.370 Y99.055 E1.07899
G1 X43.370 Y99.589 E0.01691
G1 X67.151 Y123.369 E1.06579
G1 X66.884 Y123.636 E0.01196
G1 X43.370 Y100.122 E1.05383
G1 X43.370 Y100.656 E0.01691
G1 X66.617 Y123.903 E1.04188
G1 X66.350 Y124.170 E0.01196
G1 X43.370 Y101.190 E1.02992
G1 X43.370 Y101.723 E0.01691
G1 X66.083 Y124.437 E1.01796
G1 X65.816 Y124.703 E0.01196
G1 X43.370 Y102.257 E1.00600
G1 X43.370 Y102.791 E0.01691
G1 X65.550 Y124.970 E0.99404
