; generated by Slic3r Prusa Edition 1.41.2+win64 on 2019-09-27 at 10:24:00

; 

; external perimeters extrusion width = 0.45mm
; perimeters extrusion width = 0.45mm
; infill extrusion width = 0.45mm
; solid infill extrusion width = 0.45mm
; top infill extrusion width = 0.40mm
; first layer extrusion width = 0.42mm

M201 X9000 Y9000 Z500 E10000 ; sets maximum accelerations, mm/sec^2
M203 X500 Y500 Z12 E120 ; sets maximum feedrates, mm/sec
M204 P2000 R1500 T2000 ; sets acceleration (P, T) and retract acceleration (R), mm/sec^2
M205 X10.00 Y10.00 Z0.20 E2.50 ; sets the jerk limits, mm/sec
M205 S0 T0 ; sets the minimum extruding and travel feed rate, mm/sec
M107
M115 U3.1.0 ; tell printer latest fw version
M204 S2000 T1500 ; MK2 firmware only supports the old M204 format
; Start G-Code sequence START
T3
M104 S255 ; set extruder temp
M140 S100 ; set bed temp
M190 S100 ; wait for bed temp
M109 S255 ; wait for extruder temp
G21 ; set units to millimeters
G90 ; use absolute coordinates
M83 ; use relative distances for extrusion
G28 W
G80
G92 E0.0
M203 E100 ; set max feedrate
M92 E140 ; E-steps per filament milimeter

G1 Z0.250 F7200.000
G1 X50.0 E80.0  F1000.0
G1 X160.0 E20.0  F1000.0
G1 Z0.200 F7200.000
G1 X220.0 E13 F1000.0
G1 X240.0 E0 F1000.0

G92 E0.0
M900 K200; Filament gcode
G21 ; set units to millimeters
G90 ; use absolute coordinates
M83 ; use relative distances for extrusion
T3
M900 K200; Filament gcode
;BEFORE_LAYER_CHANGE
G92 E0.0
;0.2


G1 Z0.200 F10800.000
;AFTER_LAYER_CHANGE
;0.2
G1 E-4.00000 F4800.00000
G1 Z0.800 F10800.000
G1 X144.386 Y54.321
G1 Z0.200
G1 E4.00000 F3000.00000
M204 S1000
G1 F1200
G1 X144.804 Y53.584 E0.02655
G1 X145.203 Y53.190 E0.01758
G1 X145.682 Y52.890 E0.01771
G1 X146.210 Y52.704 E0.01758
G1 X146.767 Y52.636 E0.01758
G1 X228.800 Y52.636 E2.57207
G1 X229.768 Y52.827 E0.03095
G1 X230.595 Y53.373 E0.03107
G1 X231.152 Y54.188 E0.03095
G1 X231.361 Y55.156 E0.03107
G1 X232.161 Y149.538 E2.95936
G1 X232.021 Y150.912 E0.04333
G1 X231.728 Y151.951 E0.03385
G1 X231.277 Y152.937 E0.03398
G1 X230.510 Y154.055 E0.04251
G1 X229.398 Y155.121 E0.04831
G1 X228.120 Y155.901 E0.04695
G1 X226.702 Y156.396 E0.04708
G1 X225.204 Y156.581 E0.04733
G1 X149.804 Y156.575 E2.36411
G1 X148.736 Y156.449 E0.03372
G1 X147.703 Y156.163 E0.03360
G1 X146.488 Y155.590 E0.04213
G1 X145.619 Y154.982 E0.03323
G1 X144.560 Y153.907 E0.04733
G1 X143.757 Y152.638 E0.04708
G1 X143.241 Y151.228 E0.04708
G1 X143.033 Y149.693 E0.04856
G1 X144.230 Y55.153 E2.96448
G1 X144.375 Y54.380 E0.02467
G1 X144.741 Y54.448 F10800.000
G1 F1200
G1 X145.099 Y53.819 E0.02271
G1 X145.440 Y53.484 E0.01498
G1 X145.845 Y53.230 E0.01498
G1 X146.296 Y53.071 E0.01498
G1 X146.774 Y53.013 E0.01510
G1 X228.799 Y53.013 E2.57185
G1 X229.626 Y53.177 E0.02642
G1 X230.332 Y53.643 E0.02653
G1 X230.808 Y54.342 E0.02653
G1 X230.984 Y55.170 E0.02653
G1 X231.784 Y149.534 E2.95881
G1 X231.650 Y150.846 E0.04136
G1 X231.373 Y151.824 E0.03187
G1 X230.950 Y152.748 E0.03187
G1 X230.216 Y153.818 E0.04068
G1 X229.166 Y154.823 E0.04559
G1 X227.956 Y155.562 E0.04445
G1 X226.614 Y156.030 E0.04456
G1 X225.196 Y156.203 E0.04479
G1 X149.815 Y156.198 E2.36351
G1 X148.809 Y156.079 E0.03175
G1 X147.837 Y155.811 E0.03164
G1 X146.676 Y155.263 E0.04022
G1 X145.853 Y154.686 E0.03153
G1 X144.856 Y153.673 E0.04456
G1 X144.096 Y152.472 E0.04456
G1 X143.608 Y151.141 E0.04445
G1 X143.410 Y149.690 E0.04593
G1 X144.607 Y55.163 E2.96407
G1 X144.730 Y54.507 E0.02092
; PURGING FINISHED
G1 E-2.40000 F4800.00000
G1 F8640
G1 X145.099 Y53.819 E-0.41236
G1 X145.440 Y53.484 E-0.25219
G1 X145.845 Y53.230 E-0.25219
G1 X146.296 Y53.071 E-0.25219
G1 X146.774 Y53.013 E-0.25410
G1 X146.957 Y53.013 E-0.09697
G1 E-0.08000 F4800.00000
G1 Z0.800 F10800.000
G1 X198.783 Y146.858
G1 Z0.200
G1 E4.00000 F3000.00000
G1 F1200
G1 X199.319 Y146.655 E0.01797
G1 X199.898 Y146.558 E0.01841
G1 X200.439 Y146.572 E0.01695
G1 X200.748 Y146.625 E0.00984
G1 X201.278 Y146.798 E0.01747
G1 X201.778 Y147.076 E0.01792
G1 X202.214 Y147.445 E0.01793
G1 X202.572 Y147.891 E0.01793
G1 X202.837 Y148.398 E0.01793
G1 X203.000 Y148.946 E0.01793
G1 X203.056 Y149.516 E0.01794
G1 X203.000 Y150.085 E0.01794
G1 X202.837 Y150.633 E0.01794
G1 X202.572 Y151.140 E0.01793
G1 X202.214 Y151.586 E0.01793
G1 X201.778 Y151.955 E0.01793
G1 X201.278 Y152.234 E0.01792
G1 X200.735 Y152.411 E0.01792
G1 X200.167 Y152.480 E0.01792
G1 X199.597 Y152.438 E0.01792
G1 X199.046 Y152.288 E0.01792
G1 X198.534 Y152.034 E0.01792
G1 X198.080 Y151.686 E0.01793
G1 X197.701 Y151.258 E0.01793
G1 X197.411 Y150.765 E0.01793
G1 X197.222 Y150.225 E0.01793
G1 X197.139 Y149.659 E0.01794
G1 X197.167 Y149.088 E0.01794
G1 X197.304 Y148.532 E0.01794
G1 X197.544 Y148.013 E0.01793
G1 X197.880 Y147.550 E0.01793
G1 X198.298 Y147.160 E0.01793
G1 X198.733 Y146.890 E0.01604
G1 X198.932 Y147.210 F10800.000
G1 F1200
G1 X199.418 Y147.020 E0.01636
G1 X199.925 Y146.936 E0.01610
G1 X200.402 Y146.949 E0.01497
G1 X200.658 Y146.992 E0.00813
G1 X201.127 Y147.145 E0.01547
G1 X201.562 Y147.388 E0.01563
G1 X201.943 Y147.710 E0.01563
G1 X202.255 Y148.099 E0.01564
G1 X202.486 Y148.541 E0.01564
G1 X202.629 Y149.019 E0.01565
G1 X202.677 Y149.516 E0.01565
G1 X202.629 Y150.013 E0.01565
G1 X202.486 Y150.491 E0.01565
G1 X202.255 Y150.933 E0.01564
G1 X201.943 Y151.322 E0.01564
G1 X201.562 Y151.644 E0.01563
G1 X201.127 Y151.887 E0.01563
G1 X200.653 Y152.041 E0.01563
G1 X200.158 Y152.101 E0.01562
G1 X199.661 Y152.065 E0.01562
G1 X199.180 Y151.934 E0.01563
G1 X198.734 Y151.712 E0.01563
G1 X198.338 Y151.409 E0.01563
G1 X198.008 Y151.036 E0.01564
G1 X197.755 Y150.605 E0.01564
G1 X197.590 Y150.135 E0.01565
G1 X197.518 Y149.641 E0.01565
G1 X197.542 Y149.142 E0.01565
G1 X197.661 Y148.658 E0.01565
G1 X197.871 Y148.205 E0.01564
G1 X198.164 Y147.801 E0.01564
G1 X198.528 Y147.461 E0.01564
G1 X198.881 Y147.242 E0.01302
G1 X198.955 Y146.811 F10800.000
G1 X198.061 Y146.175
G1 F1200
G1 X198.560 Y145.917 E0.01763
G1 X198.808 Y145.821 E0.00833
G1 X199.062 Y145.743 E0.00833
G1 X199.624 Y145.632 E0.01795
G1 X199.879 Y145.610 E0.00802
G1 X200.426 Y145.619 E0.01715
G1 X200.986 Y145.707 E0.01780
G1 X201.509 Y145.868 E0.01714
G1 X201.767 Y145.978 E0.00882
G1 X202.003 Y146.100 E0.00830
G1 X202.472 Y146.409 E0.01764
G1 X202.883 Y146.771 E0.01716
G1 X203.067 Y146.971 E0.00850
G1 X203.398 Y147.419 E0.01746
G1 X203.658 Y147.899 E0.01712
G1 X203.848 Y148.412 E0.01715
G1 X203.971 Y148.976 E0.01811
G1 X203.997 Y149.229 E0.00798
G1 X203.997 Y149.802 E0.01795
G1 X203.970 Y150.056 E0.00801
G1 X203.852 Y150.606 E0.01763
G1 X203.661 Y151.123 E0.01730
G1 X203.395 Y151.618 E0.01763
G1 X203.250 Y151.829 E0.00802
G1 X202.889 Y152.254 E0.01749
G1 X202.693 Y152.441 E0.00850
G1 X202.239 Y152.789 E0.01792
G1 X202.021 Y152.922 E0.00801
G1 X201.512 Y153.162 E0.01764
G1 X200.989 Y153.324 E0.01716
G1 X200.724 Y153.377 E0.00850
G1 X200.169 Y153.427 E0.01746
G1 X199.888 Y153.423 E0.00882
G1 X199.624 Y153.399 E0.00830
G1 X199.062 Y153.289 E0.01795
G1 X198.818 Y153.213 E0.00802
G1 X198.315 Y152.998 E0.01715
G1 X197.829 Y152.704 E0.01780
G1 X197.407 Y152.357 E0.01714
G1 X197.216 Y152.164 E0.00850
G1 X196.861 Y151.716 E0.01792
G1 X196.593 Y151.258 E0.01666
G1 X196.385 Y150.752 E0.01715
G1 X196.245 Y150.202 E0.01780
G1 X196.187 Y149.658 E0.01714
G1 X196.186 Y149.377 E0.00882
G1 X196.204 Y149.113 E0.00830
G1 X196.303 Y148.559 E0.01763
G1 X196.479 Y148.025 E0.01763
G1 X196.584 Y147.792 E0.00801
G1 X196.873 Y147.298 E0.01795
G1 X197.024 Y147.092 E0.00801
G1 X197.411 Y146.670 E0.01795
G1 X197.602 Y146.501 E0.00801
G1 X198.012 Y146.210 E0.01575
G1 X197.794 Y145.903 F10800.000
G1 F1200
G1 X198.405 Y145.573 E0.02178
G1 X198.684 Y145.465 E0.00938
G1 X198.970 Y145.376 E0.00938
G1 X199.571 Y145.258 E0.01921
G1 X199.865 Y145.232 E0.00926
G1 X200.458 Y145.242 E0.01860
G1 X201.072 Y145.339 E0.01947
G1 X201.638 Y145.514 E0.01860
G1 X201.928 Y145.637 E0.00987
G1 X202.193 Y145.774 E0.00937
G1 X202.702 Y146.109 E0.01909
G1 X203.147 Y146.501 E0.01860
G1 X203.358 Y146.730 E0.00976
G1 X203.713 Y147.210 E0.01871
G1 X204.005 Y147.749 E0.01923
G1 X204.210 Y148.306 E0.01860
G1 X204.343 Y148.916 E0.01958
G1 X204.374 Y149.209 E0.00925
G1 X204.374 Y149.822 E0.01921
G1 X204.343 Y150.116 E0.00926
G1 X204.215 Y150.711 E0.01909
G1 X204.006 Y151.279 E0.01897
G1 X203.717 Y151.815 E0.01909
G1 X203.550 Y152.059 E0.00926
G1 X203.163 Y152.513 E0.01872
G1 X202.938 Y152.728 E0.00975
G1 X202.452 Y153.100 E0.01920
G1 X202.200 Y153.254 E0.00926
G1 X201.649 Y153.514 E0.01909
G1 X201.083 Y153.690 E0.01860
G1 X200.777 Y153.751 E0.00976
G1 X200.183 Y153.804 E0.01871
G1 X199.868 Y153.800 E0.00987
G1 X199.571 Y153.773 E0.00937
G1 X198.970 Y153.655 E0.01921
G1 X198.687 Y153.568 E0.00926
G1 X198.142 Y153.334 E0.01860
G1 X197.611 Y153.012 E0.01947
G1 X197.153 Y152.636 E0.01860
G1 X196.934 Y152.415 E0.00975
G1 X196.553 Y151.935 E0.01920
G1 X196.251 Y151.419 E0.01875
G1 X196.026 Y150.870 E0.01860
G1 X195.873 Y150.269 E0.01947
G1 X195.810 Y149.679 E0.01860
G1 X195.809 Y149.364 E0.00987
G1 X195.830 Y149.066 E0.00937
G1 X195.937 Y148.467 E0.01909
G1 X196.127 Y147.888 E0.01909
G1 X196.248 Y147.619 E0.00926
G1 X196.558 Y147.090 E0.01921
G1 X196.733 Y146.853 E0.00926
G1 X197.146 Y146.401 E0.01921
G1 X197.368 Y146.205 E0.00926
G1 X197.745 Y145.937 E0.01449
G1 X198.145 Y146.094 F10800.000
G1 E-2.40000 F4800.00000
G1 F8640
G1 X198.405 Y145.573 E-0.39813
G1 X198.684 Y145.465 E-0.15784
G1 X198.970 Y145.376 E-0.15785
G1 X199.571 Y145.258 E-0.32331
G1 X199.865 Y145.232 E-0.15594
G1 X200.458 Y145.242 E-0.31312
G1 X200.484 Y145.246 E-0.01381
G1 E-0.08000 F4800.00000
G1 Z0.800 F10800.000
G1 X201.864 Y146.155
G1 Z0.200
G1 E4.00000 F3000.00000
G1 F1200
G1 X203.459 Y147.750 E0.07158
G1 X203.774 Y148.605 F10800.000
G1 F1200
G1 X201.254 Y146.086 E0.11309
G1 X200.922 Y145.983 E0.01102
G1 X200.554 Y145.925 E0.01183
G1 X201.057 Y146.429 E0.02259
G1 X200.816 Y146.350 E0.00805
G1 X200.377 Y146.288 E0.01408
G1 X199.983 Y145.894 E0.01767
G1 X199.664 Y145.912 E0.01016
G1 X199.495 Y145.946 E0.00546
G1 X199.832 Y146.283 E0.01512
G1 X199.369 Y146.360 E0.01489
G1 X199.051 Y146.042 E0.01426
G1 X198.677 Y146.176 E0.01263
G1 X198.656 Y146.186 E0.00074
G1 X198.959 Y146.489 E0.01359
G1 X198.657 Y146.604 E0.01024
G1 X198.581 Y146.651 E0.00285
G1 X198.300 Y146.370 E0.01261
G1 X198.208 Y146.417 E0.00328
G1 X197.974 Y146.584 E0.00911
G1 X198.249 Y146.858 E0.01231
G1 X198.125 Y146.935 E0.00460
G1 X197.949 Y147.099 E0.00763
G1 X197.670 Y146.819 E0.01256
G1 X197.406 Y147.095 E0.01211
G1 X197.670 Y147.359 E0.01187
G1 X197.443 Y147.671 E0.01226
G1 X197.158 Y147.387 E0.01276
G1 X197.109 Y147.454 E0.00262
G1 X196.953 Y147.721 E0.00984
G1 X197.236 Y148.005 E0.01273
G1 X197.065 Y148.374 E0.01290
G1 X196.766 Y148.075 E0.01341
G1 X196.628 Y148.476 E0.01347
G1 X196.948 Y148.796 E0.01434
G1 X196.886 Y149.047 E0.00820
G1 X196.875 Y149.263 E0.00688
G1 X196.527 Y148.915 E0.01564
G1 X196.485 Y149.147 E0.00750
G1 X196.468 Y149.386 E0.00760
G1 X196.874 Y149.802 E0.01844
G1 X196.946 Y150.293 E0.01574
G1 X197.011 Y150.478 E0.00624
G1 X196.505 Y149.972 E0.02273
G1 X196.524 Y150.151 E0.00572
G1 X196.654 Y150.661 E0.01669
G1 X198.952 Y152.959 E0.10313
G1 X199.131 Y153.014 E0.00596
G1 X199.649 Y153.116 E0.01674
G1 X199.139 Y152.606 E0.02288
G1 X199.549 Y152.718 E0.01349
G1 X199.810 Y152.737 E0.00829
G1 X200.212 Y153.139 E0.01803
G1 X200.683 Y153.097 E0.01502
G1 X200.705 Y153.093 E0.00070
G1 X200.354 Y152.742 E0.01574
G1 X200.829 Y152.677 E0.01522
G1 X201.135 Y152.983 E0.01371
G1 X201.409 Y152.898 E0.00913
G1 X201.532 Y152.840 E0.00429
G1 X201.236 Y152.545 E0.01325
G1 X201.392 Y152.494 E0.00519
G1 X201.606 Y152.375 E0.00779
G1 X201.897 Y152.666 E0.01306
G1 X202.219 Y152.448 E0.01233
G1 X201.951 Y152.179 E0.01205
G1 X202.243 Y151.932 E0.01215
G1 X202.523 Y152.212 E0.01258
G1 X202.788 Y151.937 E0.01211
G1 X202.514 Y151.664 E0.01226
G1 X202.755 Y151.364 E0.01219
G1 X203.035 Y151.644 E0.01257
G1 X203.153 Y151.471 E0.00665
G1 X203.240 Y151.310 E0.00582
G1 X202.953 Y151.022 E0.01289
G1 X203.100 Y150.740 E0.01011
G1 X203.126 Y150.656 E0.00280
G1 X203.423 Y150.953 E0.01334
G1 X203.568 Y150.559 E0.01334
G1 X203.249 Y150.240 E0.01431
G1 X203.279 Y150.140 E0.00332
G1 X203.315 Y149.766 E0.01191
G1 X203.668 Y150.118 E0.01581
G1 X203.715 Y149.787 E0.01062
G1 X203.715 Y149.626 E0.00513
G1 X203.311 Y149.222 E0.01811
G1 X203.279 Y148.892 E0.01053
G1 X203.177 Y148.548 E0.01139
G1 X203.884 Y149.255 E0.03175
G1 E-2.40000 F4800.00000
G1 F8640
G1 X203.177 Y148.548 E-0.52804
G1 X203.279 Y148.892 E-0.18936
G1 X203.311 Y149.222 E-0.17510
G1 X203.715 Y149.626 E-0.30110
G1 X203.715 Y149.787 E-0.08527
G1 X203.668 Y150.118 E-0.17660
G1 X203.581 Y150.032 E-0.06452
G1 E-0.08000 F4800.00000
G1 Z0.800 F10800.000
G1 X198.325 Y152.871
G1 Z0.200
G1 E4.00000 F3000.00000
G1 F1200
G1 X196.733 Y151.280 E0.07143
G1 E-2.40000 F4800.00000
G1 F8640
G1 X198.325 Y152.871 E-1.18792
G1 E-0.41208 F4800.00000
G1 Z0.800 F10800.000
G1 X153.056 Y149.516
G1 Z0.200
G1 E4.00000 F3000.00000
G1 F1200
G1 X153.000 Y150.085 E0.01794
G1 X152.837 Y150.633 E0.01794
G1 X152.572 Y151.140 E0.01793
G1 X152.214 Y151.586 E0.01793
G1 X151.778 Y151.955 E0.01793
G1 X151.278 Y152.234 E0.01792
G1 X150.735 Y152.411 E0.01792
G1 X150.167 Y152.480 E0.01792
G1 X149.597 Y152.438 E0.01792
G1 X149.046 Y152.288 E0.01792
G1 X148.534 Y152.034 E0.01792
G1 X148.080 Y151.686 E0.01793
G1 X147.701 Y151.258 E0.01793
G1 X147.411 Y150.765 E0.01793
G1 X147.222 Y150.225 E0.01793
G1 X147.139 Y149.659 E0.01794
G1 X147.167 Y149.088 E0.01794
G1 X147.304 Y148.532 E0.01794
G1 X147.544 Y148.013 E0.01793
G1 X147.880 Y147.550 E0.01793
G1 X148.298 Y147.160 E0.01793
G1 X148.783 Y146.858 E0.01793
G1 X149.319 Y146.655 E0.01797
G1 X149.898 Y146.558 E0.01841
G1 X150.439 Y146.572 E0.01695
G1 X150.748 Y146.625 E0.00984
G1 X151.278 Y146.798 E0.01747
G1 X151.778 Y147.076 E0.01792
G1 X152.214 Y147.445 E0.01793
G1 X152.572 Y147.891 E0.01793
G1 X152.837 Y148.398 E0.01793
G1 X153.000 Y148.946 E0.01793
G1 X153.050 Y149.456 E0.01606
G1 X152.674 Y149.492 F10800.000
G1 F1200
G1 X152.629 Y150.013 E0.01637
G1 X152.486 Y150.491 E0.01565
G1 X152.255 Y150.933 E0.01564
G1 X151.943 Y151.322 E0.01564
G1 X151.562 Y151.644 E0.01563
G1 X151.127 Y151.887 E0.01563
G1 X150.653 Y152.041 E0.01563
G1 X150.158 Y152.101 E0.01562
G1 X149.661 Y152.065 E0.01562
G1 X149.180 Y151.934 E0.01563
G1 X148.734 Y151.712 E0.01563
G1 X148.338 Y151.409 E0.01563
G1 X148.008 Y151.036 E0.01564
G1 X147.755 Y150.605 E0.01564
G1 X147.590 Y150.135 E0.01565
G1 X147.518 Y149.641 E0.01565
G1 X147.542 Y149.142 E0.01565
G1 X147.661 Y148.658 E0.01565
G1 X147.871 Y148.205 E0.01564
G1 X148.164 Y147.801 E0.01564
G1 X148.528 Y147.461 E0.01564
G1 X148.952 Y147.198 E0.01563
G1 X149.418 Y147.020 E0.01564
G1 X149.925 Y146.936 E0.01610
G1 X150.402 Y146.949 E0.01497
G1 X150.658 Y146.992 E0.00813
G1 X151.127 Y147.145 E0.01547
G1 X151.562 Y147.388 E0.01563
G1 X151.943 Y147.710 E0.01563
G1 X152.255 Y148.099 E0.01564
G1 X152.486 Y148.541 E0.01564
G1 X152.629 Y149.019 E0.01565
G1 X152.669 Y149.433 E0.01303
G1 X153.022 Y149.690 F10800.000
G1 X153.997 Y149.792
G1 F1200
G1 X153.920 Y150.338 E0.01731
G1 X153.768 Y150.864 E0.01716
G1 X153.666 Y151.115 E0.00850
G1 X153.395 Y151.618 E0.01792
G1 X153.245 Y151.838 E0.00833
G1 X153.080 Y152.046 E0.00833
G1 X152.685 Y152.447 E0.01763
G1 X152.239 Y152.789 E0.01763
G1 X152.021 Y152.922 E0.00801
G1 X151.512 Y153.162 E0.01764
G1 X150.989 Y153.324 E0.01716
G1 X150.724 Y153.377 E0.00850
G1 X150.154 Y153.428 E0.01792
G1 X149.889 Y153.423 E0.00833
G1 X149.624 Y153.399 E0.00833
G1 X149.062 Y153.289 E0.01795
G1 X148.818 Y153.213 E0.00802
G1 X148.315 Y152.998 E0.01715
G1 X147.829 Y152.704 E0.01780
G1 X147.407 Y152.357 E0.01714
G1 X147.209 Y152.157 E0.00882
G1 X147.037 Y151.955 E0.00830
G1 X146.714 Y151.483 E0.01795
G1 X146.593 Y151.258 E0.00802
G1 X146.385 Y150.752 E0.01715
G1 X146.245 Y150.202 E0.01780
G1 X146.187 Y149.658 E0.01714
G1 X146.186 Y149.377 E0.00882
G1 X146.204 Y149.113 E0.00830
G1 X146.303 Y148.559 E0.01763
G1 X146.479 Y148.025 E0.01763
G1 X146.584 Y147.792 E0.00801
G1 X146.873 Y147.298 E0.01795
