; generated by Slic3r Prusa Edition 1.41.2+win64 on 2019-02-03 at 15:11:34

; 

; external perimeters extrusion width = 0.60mm
; perimeters extrusion width = 0.43mm
; infill extrusion width = 0.45mm
; solid infill extrusion width = 0.70mm
; top infill extrusion width = 0.43mm
; first layer extrusion width = 0.42mm

M201 X9000 Y9000 Z500 E10000 ; sets maximum accelerations, mm/sec^2
M203 X500 Y500 Z12 E120 ; sets maximum feedrates, mm/sec
M204 P2000 R1500 T2000 ; sets acceleration (P, T) and retract acceleration (R), mm/sec^2
M205 X10.00 Y10.00 Z0.20 E2.50 ; sets the jerk limits, mm/sec
M205 S0 T0 ; sets the minimum extruding and travel feed rate, mm/sec
M107
M115 U3.1.0 ; tell printer latest fw version
M204 S2000 T1500 ; MK2 firmware only supports the old M204 format
; Start G-Code sequence START
T3
M104 S255 ; set extruder temp
M140 S100 ; set bed temp
M190 S100 ; wait for bed temp
M109 S255 ; wait for extruder temp
G21 ; set units to millimeters
G90 ; use absolute coordinates
M83 ; use relative distances for extrusion
G28 W
G80
G92 E0.0
M203 E100 ; set max feedrate
M92 E140 ; E-steps per filament milimeter

G1 Z0.250 F7200.000
G1 X50.0 E80.0  F1000.0
G1 X160.0 E20.0  F1000.0
G1 Z0.200 F7200.000
G1 X220.0 E13 F1000.0
G1 X240.0 E0 F1000.0

G92 E0.0
M900 K200; Filament gcode
G21 ; set units to millimeters
G90 ; use absolute coordinates
M83 ; use relative distances for extrusion
T3
M900 K200; Filament gcode
;BEFORE_LAYER_CHANGE
G92 E0.0
;0.2


G1 Z0.200 F10800.000
;AFTER_LAYER_CHANGE
;0.2
G1 E-4.00000 F4800.00000
G1 Z0.800 F10800.000
G1 X46.577 Y33.664
G1 Z0.200
G1 E4.00000 F3000.00000
M204 S1000
G1 F1200
G1 X47.575 Y32.957 E0.03836
G1 X48.712 Y32.507 E0.03836
G1 X49.925 Y32.342 E0.03836
G1 X200.006 Y32.342 E4.70569
G1 X200.964 Y32.434 E0.03019
G1 X201.888 Y32.705 E0.03019
G1 X202.744 Y33.145 E0.03019
G1 X203.503 Y33.738 E0.03019
G1 X204.136 Y34.464 E0.03019
G1 X204.621 Y35.296 E0.03019
G1 X204.940 Y36.204 E0.03019
G1 X205.083 Y37.156 E0.03019
G1 X205.090 Y107.493 E2.20538
G1 X205.028 Y108.226 E0.02305
G1 X204.860 Y108.947 E0.02322
G1 X204.591 Y109.632 E0.02305
G1 X204.223 Y110.274 E0.02322
G1 X148.394 Y175.071 E2.68176
G1 X147.603 Y175.889 E0.03568
G1 X146.944 Y176.402 E0.02619
G1 X145.943 Y176.980 E0.03622
G1 X145.130 Y177.298 E0.02741
G1 X143.929 Y177.587 E0.03870
G1 X142.683 Y177.658 E0.03915
G1 X106.685 Y177.654 E1.12868
G1 X105.960 Y177.580 E0.02288
G1 X104.727 Y177.309 E0.03957
G1 X104.066 Y177.042 E0.02235
G1 X102.936 Y176.431 E0.04027
G1 X102.366 Y175.984 E0.02270
G1 X101.498 Y175.130 E0.03821
G1 X46.140 Y110.751 E2.66218
G1 X45.652 Y110.080 E0.02601
G1 X45.278 Y109.334 E0.02619
G1 X45.005 Y108.416 E0.03002
G1 X44.909 Y107.458 E0.03019
G1 X44.910 Y37.399 E2.19665
G1 X44.969 Y36.655 E0.02340
G1 X45.137 Y35.928 E0.02340
G1 X45.407 Y35.238 E0.02322
G1 X45.777 Y34.590 E0.02340
G1 X46.538 Y33.710 E0.03648
G1 X47.734 Y33.255 F10800.000
G1 F1200
G1 X49.473 Y32.719 E0.05705
G1 X200.486 Y32.722 E4.73492
G1 X201.435 Y32.906 E0.03029
G1 X202.343 Y33.297 E0.03101
G1 X203.562 Y34.321 E0.04990
G1 X204.353 Y35.538 E0.04551
G1 X204.713 Y36.921 E0.04481
G1 X204.713 Y107.880 E2.22488
G1 X204.491 Y108.971 E0.03491
G1 X203.996 Y109.990 E0.03552
G1 X203.073 Y111.028 E0.04355
G1 X202.266 Y111.610 E0.03120
G1 X200.527 Y112.146 E0.05704
G1 X49.552 Y112.146 E4.73372
G1 X48.461 Y111.924 E0.03491
G1 X47.442 Y111.429 E0.03552
G1 X46.404 Y110.505 E0.04355
G1 X45.823 Y109.698 E0.03120
G1 X45.287 Y107.959 E0.05704
G1 X45.287 Y36.984 E2.22537
G1 X45.509 Y35.893 E0.03491
G1 X46.004 Y34.874 E0.03552
G1 X46.927 Y33.836 E0.04355
G1 X47.686 Y33.290 E0.02932
G1 X47.904 Y33.596 F10800.000
G1 F1200
G1 X49.501 Y33.096 E0.05246
G1 X200.467 Y33.099 E4.73345
G1 X201.341 Y33.272 E0.02792
G1 X202.166 Y33.631 E0.02823
G1 X203.297 Y34.590 E0.04647
G1 X203.996 Y35.664 E0.04018
G1 X204.336 Y36.946 E0.04157
G1 X204.336 Y107.860 E2.22349
G1 X204.127 Y108.871 E0.03234
G1 X203.670 Y109.800 E0.03247
G1 X202.807 Y110.760 E0.04048
G1 X202.072 Y111.285 E0.02832
G1 X200.499 Y111.769 E0.05159
G1 X49.572 Y111.769 E4.73222
G1 X48.562 Y111.559 E0.03234
G1 X47.632 Y111.102 E0.03247
G1 X46.672 Y110.239 E0.04048
G1 X46.147 Y109.504 E0.02832
G1 X45.664 Y107.931 E0.05159
G1 X45.664 Y37.004 E2.22388
G1 X45.873 Y35.994 E0.03234
G1 X46.330 Y35.064 E0.03247
G1 X47.193 Y34.104 E0.04048
G1 X47.856 Y33.631 E0.02553
G1 X48.073 Y33.939 F10800.000
G1 F1200
G1 X48.121 Y33.905 E0.00184
G1 X49.529 Y33.473 E0.04619
G1 X200.448 Y33.476 E4.73197
G1 X201.246 Y33.637 E0.02550
G1 X201.988 Y33.965 E0.02545
G1 X203.030 Y34.858 E0.04302
G1 X203.663 Y35.842 E0.03669
G1 X203.959 Y36.970 E0.03655
G1 X203.959 Y107.841 E2.22210
G1 X203.763 Y108.768 E0.02973
G1 X203.345 Y109.608 E0.02940
G1 X202.543 Y110.491 E0.03741
G1 X201.879 Y110.959 E0.02547
G1 X200.471 Y111.392 E0.04619
G1 X49.592 Y111.392 E4.73071
G1 X48.664 Y111.196 E0.02973
G1 X47.825 Y110.777 E0.02940
G1 X46.941 Y109.975 E0.03741
G1 X46.473 Y109.311 E0.02547
G1 X46.041 Y107.903 E0.04619
G1 X46.041 Y37.024 E2.22237
G1 X46.237 Y36.096 E0.02973
G1 X46.655 Y35.257 E0.02940
G1 X47.457 Y34.374 E0.03741
G1 X48.024 Y33.973 E0.02175
G1 X48.312 Y34.231 F10800.000
G1 F1200
G1 X49.557 Y33.850 E0.04082
G1 X200.429 Y33.854 E4.73047
G1 X201.148 Y34.002 E0.02304
G1 X201.808 Y34.297 E0.02266
G1 X202.762 Y35.125 E0.03960
G1 X203.306 Y35.969 E0.03149
G1 X203.582 Y36.995 E0.03331
G1 X203.582 Y107.821 E2.22071
G1 X203.415 Y108.622 E0.02564
G1 X203.019 Y109.415 E0.02779
G1 X202.280 Y110.220 E0.03428
G1 X201.688 Y110.633 E0.02264
G1 X200.443 Y111.014 E0.04082
G1 X49.611 Y111.014 E4.72923
G1 X48.810 Y110.847 E0.02564
G1 X48.017 Y110.452 E0.02779
G1 X47.212 Y109.712 E0.03428
G1 X46.799 Y109.120 E0.02264
G1 X46.418 Y107.875 E0.04082
G1 X46.418 Y37.043 E2.22089
G1 X46.585 Y36.242 E0.02564
G1 X46.981 Y35.449 E0.02779
G1 X47.720 Y34.645 E0.03428
G1 X48.263 Y34.265 E0.02075
G1 X48.477 Y34.575 F10800.000
G1 F1200
G1 X49.585 Y34.227 E0.03642
G1 X200.410 Y34.231 E4.72900
G1 X201.013 Y34.355 E0.01933
G1 X201.628 Y34.630 E0.02110
G1 X202.492 Y35.389 E0.03609
G1 X202.972 Y36.146 E0.02809
G1 X203.205 Y37.019 E0.02835
G1 X203.205 Y107.801 E2.21931
G1 X203.052 Y108.518 E0.02299
G1 X202.696 Y109.220 E0.02467
G1 X202.019 Y109.947 E0.03116
G1 X201.498 Y110.306 E0.01983
G1 X200.415 Y110.637 E0.03551
G1 X49.631 Y110.637 E4.72772
G1 X48.914 Y110.484 E0.02299
G1 X48.212 Y110.128 E0.02467
G1 X47.485 Y109.451 E0.03116
G1 X47.126 Y108.930 E0.01983
G1 X46.795 Y107.847 E0.03551
G1 X46.795 Y37.063 E2.21938
G1 X46.948 Y36.346 E0.02299
G1 X47.304 Y35.645 E0.02467
G1 X47.981 Y34.917 E0.03116
G1 X48.427 Y34.609 E0.01699
G1 X48.690 Y34.886 F10800.000
G1 F1200
G1 X49.613 Y34.604 E0.03026
G1 X200.389 Y34.608 E4.72748
G1 X200.914 Y34.719 E0.01682
G1 X201.445 Y34.960 E0.01829
G1 X202.222 Y35.653 E0.03263
G1 X202.616 Y36.273 E0.02306
G1 X202.828 Y37.045 E0.02510
G1 X202.828 Y107.780 E2.21784
G1 X202.689 Y108.412 E0.02029
G1 X202.374 Y109.022 E0.02153
G1 X201.759 Y109.672 E0.02806
G1 X201.310 Y109.978 E0.01705
G1 X200.387 Y110.260 E0.03026
G1 X49.652 Y110.260 E4.72619
G1 X49.020 Y110.121 E0.02029
G1 X48.410 Y109.806 E0.02153
G1 X47.760 Y109.192 E0.02806
G1 X47.454 Y108.742 E0.01705
G1 X47.172 Y107.819 E0.03026
G1 X47.172 Y37.084 E2.21784
G1 X47.311 Y36.452 E0.02029
G1 X47.626 Y35.842 E0.02153
G1 X48.241 Y35.192 E0.02806
G1 X48.640 Y34.920 E0.01516
G1 X48.850 Y35.232 F10800.000
G1 F1200
G1 X49.641 Y34.981 E0.02602
G1 X200.368 Y34.985 E4.72594
G1 X200.811 Y35.083 E0.01424
G1 X201.259 Y35.290 E0.01548
G1 X201.950 Y35.915 E0.02920
G1 X202.262 Y36.404 E0.01818
G1 X202.451 Y37.072 E0.02179
G1 X202.451 Y107.758 E2.21631
G1 X202.327 Y108.303 E0.01751
G1 X202.054 Y108.821 E0.01838
G1 X201.502 Y109.396 E0.02496
G1 X201.124 Y109.650 E0.01429
G1 X200.359 Y109.883 E0.02507
G1 X49.674 Y109.883 E4.72463
G1 X49.129 Y109.760 E0.01751
G1 X48.611 Y109.486 E0.01838
G1 X48.036 Y108.935 E0.02496
G1 X47.783 Y108.556 E0.01429
G1 X47.549 Y107.791 E0.02507
G1 X47.549 Y37.106 E2.21628
G1 X47.673 Y36.561 E0.01751
G1 X47.946 Y36.043 E0.01838
G1 X48.498 Y35.469 E0.02496
G1 X48.800 Y35.266 E0.01142
G1 X49.669 Y35.358 F10800.000
G1 F1200
G1 X200.346 Y35.362 E4.72436
G1 X200.705 Y35.445 E0.01157
G1 X201.071 Y35.618 E0.01268
G1 X201.676 Y36.175 E0.02580
G1 X201.908 Y36.537 E0.01347
G1 X202.074 Y37.100 E0.01841
G1 X202.074 Y107.738 E2.21479
G1 X201.982 Y108.149 E0.01322
G1 X201.733 Y108.620 E0.01670
G1 X201.248 Y109.117 E0.02176
G1 X200.940 Y109.320 E0.01158
G1 X200.331 Y109.506 E0.01997
G1 X49.694 Y109.506 E4.72311
G1 X49.283 Y109.414 E0.01322
G1 X48.812 Y109.166 E0.01670
G1 X48.316 Y108.680 E0.02176
G1 X48.113 Y108.372 E0.01158
G1 X47.926 Y107.763 E0.01997
G1 X47.926 Y37.126 E2.21476
G1 X48.018 Y36.715 E0.01322
G1 X48.267 Y36.244 E0.01670
G1 X48.752 Y35.748 E0.02176
G1 X49.060 Y35.545 E0.01158
G1 X49.612 Y35.376 E0.01809
G1 X49.698 Y35.735 F10800.000
G1 F1200
G1 X200.324 Y35.739 E4.72278
G1 X200.562 Y35.794 E0.00767
G1 X200.882 Y35.945 E0.01109
G1 X201.401 Y36.434 E0.02233
G1 X201.556 Y36.674 E0.00898
G1 X201.697 Y37.130 E0.01495
G1 X201.697 Y107.718 E2.21325
G1 X201.636 Y107.996 E0.00892
G1 X201.414 Y108.418 E0.01496
G1 X200.998 Y108.834 E0.01845
G1 X200.758 Y108.988 E0.00892
G1 X200.302 Y109.129 E0.01496
G1 X49.714 Y109.129 E4.72160
G1 X49.436 Y109.069 E0.00892
G1 X49.014 Y108.846 E0.01496
G1 X48.598 Y108.430 E0.01845
G1 X48.444 Y108.190 E0.00892
G1 X48.303 Y107.735 E0.01496
G1 X48.303 Y37.146 E2.21325
G1 X48.364 Y36.868 E0.00892
G1 X48.586 Y36.446 E0.01496
G1 X49.002 Y36.030 E0.01845
G1 X49.242 Y35.876 E0.00892
G1 X49.640 Y35.753 E0.01308
G1 X48.712 Y37.014 F10800.000
G1 F1200
G1 X48.875 Y36.690 E0.01136
G1 X49.256 Y36.310 E0.01687
G1 X49.385 Y36.225 E0.00484
G1 X49.729 Y36.112 E0.01136
G1 X200.302 Y36.116 E4.72110
G1 X200.419 Y36.144 E0.00377
G1 X200.692 Y36.273 E0.00947
G1 X201.123 Y36.689 E0.01880
G1 X201.207 Y36.817 E0.00479
G1 X201.320 Y37.162 E0.01136
G1 X201.320 Y107.700 E2.21167
G1 X201.288 Y107.851 E0.00484
G1 X201.125 Y108.174 E0.01136
G1 X200.744 Y108.554 E0.01687
G1 X200.615 Y108.639 E0.00484
G1 X200.271 Y108.752 E0.01136
G1 X49.733 Y108.752 E4.72001
G1 X49.582 Y108.720 E0.00484
G1 X49.258 Y108.557 E0.01136
G1 X48.878 Y108.176 E0.01687
G1 X48.793 Y108.047 E0.00484
G1 X48.680 Y107.703 E0.01136
G1 X48.680 Y37.165 E2.21167
G1 X48.700 Y37.072 E0.00296
G1 X49.064 Y37.151 F10800.000
G1 F1200
G1 X49.167 Y36.932 E0.00757
G1 X49.510 Y36.589 E0.01522
G1 X49.764 Y36.489 E0.00856
G1 X200.282 Y36.496 E4.71936
G1 X200.500 Y36.599 E0.00757
G1 X200.843 Y36.942 E0.01522
G1 X200.943 Y37.197 E0.00856
G1 X200.936 Y107.714 E2.21102
G1 X200.833 Y107.932 E0.00757
G1 X200.490 Y108.275 E0.01522
G1 X200.236 Y108.375 E0.00856
G1 X49.718 Y108.369 E4.71936
G1 X49.500 Y108.265 E0.00757
G1 X49.157 Y107.922 E0.01522
G1 X49.057 Y107.668 E0.00856
G1 X49.057 Y37.210 E2.20916
G1 X49.737 Y36.895 F10800.000
G1 F1200
G1 X49.806 Y36.867 E0.00235
G1 X200.194 Y36.867 E4.71529
G1 X200.263 Y36.895 E0.00235
G1 X200.537 Y37.169 E0.01215
G1 X200.566 Y37.238 E0.00235
G1 X200.566 Y107.626 E2.20695
G1 X200.537 Y107.695 E0.00235
G1 X200.263 Y107.969 E0.01215
G1 X200.194 Y107.998 E0.00235
G1 X49.806 Y107.998 E4.71529
G1 X49.737 Y107.969 E0.00235
G1 X49.463 Y107.695 E0.01215
G1 X49.434 Y107.626 E0.00235
G1 X49.434 Y37.238 E2.20695
G1 X49.463 Y37.169 E0.00235
G1 X49.695 Y36.938 E0.01027
G1 X49.922 Y37.244 F10800.000
G1 F1200
G1 X200.078 Y37.244 E4.70804
G1 X200.189 Y37.354 E0.00490
G1 X200.189 Y107.510 E2.19970
G1 X200.078 Y107.621 E0.00490
G1 X49.922 Y107.621 E4.70804
G1 X49.811 Y107.510 E0.00490
G1 X49.811 Y37.354 E2.19970
G1 X49.879 Y37.286 E0.00302
; PURGING FINISHED
G1 X50.587 Y38.019 F10800.000
G1 F1200
G1 X199.413 Y38.019 E4.66633
G1 X199.413 Y106.845 E2.15799
G1 X50.587 Y106.845 E4.66633
G1 X50.587 Y38.079 E2.15610
G1 X50.210 Y37.642 F10800.000
G1 F1200
G1 X199.790 Y37.642 E4.68998
G1 X199.790 Y107.222 E2.18163
G1 X50.210 Y107.222 E4.68998
G1 X50.210 Y37.702 E2.17975
G1 X50.606 Y37.700 F10800.000
G1 E-2.40000 F4800.00000
G1 F8640
G1 X53.090 Y37.701 E-1.52000
G1 E-0.08000 F4800.00000
G1 Z0.800 F10800.000
G1 X50.700 Y105.969
G1 Z0.200
G1 E4.00000 F3000.00000
G1 F1200
G1 X51.294 Y106.562 E0.02634
G1 X51.827 Y106.562 E0.01676
G1 X50.870 Y105.605 E0.04250
G1 X50.870 Y105.071 E0.01676
G1 X52.361 Y106.562 E0.06620
G1 X52.895 Y106.562 E0.01676
G1 X50.870 Y104.537 E0.08990
G1 X50.870 Y104.003 E0.01676
G1 X53.429 Y106.562 E0.11359
G1 X53.963 Y106.562 E0.01676
G1 X50.870 Y103.469 E0.13729
G1 X50.870 Y102.936 E0.01676
G1 X54.497 Y106.562 E0.16099
G1 X55.030 Y106.562 E0.01676
G1 X50.870 Y102.402 E0.18468
G1 X50.870 Y101.868 E0.01676
G1 X55.564 Y106.562 E0.20838
G1 X56.098 Y106.562 E0.01676
G1 X50.870 Y101.334 E0.23208
G1 X50.870 Y100.800 E0.01676
G1 X56.632 Y106.562 E0.25578
G1 X57.166 Y106.562 E0.01676
G1 X50.870 Y100.266 E0.27947
G1 X50.870 Y99.733 E0.01676
G1 X57.700 Y106.562 E0.30317
G1 X58.233 Y106.562 E0.01676
G1 X50.870 Y99.199 E0.32687
G1 X50.870 Y98.665 E0.01676
G1 X58.767 Y106.562 E0.35056
G1 X59.301 Y106.562 E0.01676
G1 X50.870 Y98.131 E0.37426
G1 X50.870 Y97.597 E0.01676
G1 X59.835 Y106.562 E0.39796
G1 X60.369 Y106.562 E0.01676
G1 X50.870 Y97.063 E0.42165
G1 X50.870 Y96.529 E0.01676
G1 X60.903 Y106.562 E0.44535
G1 X61.437 Y106.562 E0.01676
G1 X50.870 Y95.996 E0.46905
G1 X50.870 Y95.462 E0.01676
G1 X61.970 Y106.562 E0.49275
G1 X62.504 Y106.562 E0.01676
G1 X50.870 Y94.928 E0.51644
G1 X50.870 Y94.394 E0.01676
G1 X63.038 Y106.562 E0.54014
G1 X63.572 Y106.562 E0.01676
G1 X50.870 Y93.860 E0.56384
G1 X50.870 Y93.326 E0.01676
G1 X64.106 Y106.562 E0.58753
G1 X64.640 Y106.562 E0.01676
G1 X50.870 Y92.793 E0.61123
G1 X50.870 Y92.259 E0.01676
G1 X65.173 Y106.562 E0.63493
G1 X65.707 Y106.562 E0.01676
G1 X50.870 Y91.725 E0.65862
G1 X50.870 Y91.191 E0.01676
G1 X66.241 Y106.562 E0.68232
G1 X66.775 Y106.562 E0.01676
G1 X50.870 Y90.657 E0.70602
G1 X50.870 Y90.123 E0.01676
G1 X67.309 Y106.562 E0.72972
G1 X67.843 Y106.562 E0.01676
G1 X50.870 Y89.590 E0.75341
G1 X50.870 Y89.056 E0.01676
G1 X68.377 Y106.562 E0.77711
G1 X68.910 Y106.562 E0.01676
G1 X50.870 Y88.522 E0.80081
G1 X50.870 Y87.988 E0.01676
G1 X69.444 Y106.562 E0.82450
G1 X69.978 Y106.562 E0.01676
G1 X50.870 Y87.454 E0.84820
G1 X50.870 Y86.920 E0.01676
G1 X70.512 Y106.562 E0.87190
G1 X71.046 Y106.562 E0.01676
G1 X50.870 Y86.386 E0.89559
G1 X50.870 Y85.853 E0.01676
G1 X71.580 Y106.562 E0.91929
G1 X72.113 Y106.562 E0.01676
G1 X50.870 Y85.319 E0.94299
G1 X50.870 Y84.785 E0.01676
G1 X72.647 Y106.562 E0.96669
G1 X73.181 Y106.562 E0.01676
G1 X50.870 Y84.251 E0.99038
G1 X50.870 Y83.717 E0.01676
G1 X73.715 Y106.562 E1.01408
G1 X74.249 Y106.562 E0.01676
G1 X50.870 Y83.183 E1.03778
G1 X50.870 Y82.650 E0.01676
G1 X74.783 Y106.562 E1.06147
G1 X75.317 Y106.562 E0.01676
G1 X50.870 Y82.116 E1.08517
G1 X50.870 Y81.582 E0.01676
G1 X75.850 Y106.562 E1.10887
G1 X76.384 Y106.562 E0.01676
G1 X50.870 Y81.048 E1.13256
G1 X50.870 Y80.514 E0.01676
G1 X76.918 Y106.562 E1.15626
G1 X77.452 Y106.562 E0.01676
G1 X50.870 Y79.980 E1.17996
G1 X50.870 Y79.446 E0.01676
G1 X77.986 Y106.562 E1.20366
G1 X78.520 Y106.562 E0.01676
G1 X50.870 Y78.913 E1.22735
G1 X50.870 Y78.379 E0.01676
G1 X79.053 Y106.562 E1.25105
G1 X79.587 Y106.562 E0.01676
G1 X50.870 Y77.845 E1.27475
G1 X50.870 Y77.311 E0.01676
G1 X80.121 Y106.562 E1.29844
G1 X80.655 Y106.562 E0.01676
G1 X50.870 Y76.777 E1.32214
G1 X50.870 Y76.243 E0.01676
G1 X81.189 Y106.562 E1.34584
G1 X81.723 Y106.562 E0.01676
G1 X50.870 Y75.710 E1.36953
G1 X50.870 Y75.176 E0.01676
G1 X82.256 Y106.562 E1.39323
G1 X82.790 Y106.562 E0.01676
G1 X50.870 Y74.642 E1.41693
G1 X50.870 Y74.108 E0.01676
G1 X83.324 Y106.562 E1.44063
G1 X83.858 Y106.562 E0.01676
G1 X50.870 Y73.574 E1.46432
G1 X50.870 Y73.040 E0.01676
G1 X84.392 Y106.562 E1.48802
G1 X84.926 Y106.562 E0.01676
G1 X50.870 Y72.506 E1.51172
G1 X50.870 Y71.973 E0.01676
G1 X85.460 Y106.562 E1.53541
G1 X85.993 Y106.562 E0.01676
G1 X50.870 Y71.439 E1.55911
G1 X50.870 Y70.905 E0.01676
G1 X86.527 Y106.562 E1.58281
G1 X87.061 Y106.562 E0.01676
G1 X50.870 Y70.371 E1.60650
G1 X50.870 Y69.837 E0.01676
G1 X87.595 Y106.562 E1.63020
G1 X88.129 Y106.562 E0.01676
