; generated by Slic3r Prusa Edition 1.41.2+win64 on 2019-02-03 at 16:08:26

; 

; external perimeters extrusion width = 0.60mm
; perimeters extrusion width = 0.43mm
; infill extrusion width = 0.45mm
; solid infill extrusion width = 0.70mm
; top infill extrusion width = 0.43mm
; first layer extrusion width = 0.42mm

M201 X9000 Y9000 Z500 E10000 ; sets maximum accelerations, mm/sec^2
M203 X500 Y500 Z12 E120 ; sets maximum feedrates, mm/sec
M204 P2000 R1500 T2000 ; sets acceleration (P, T) and retract acceleration (R), mm/sec^2
M205 X10.00 Y10.00 Z0.20 E2.50 ; sets the jerk limits, mm/sec
M205 S0 T0 ; sets the minimum extruding and travel feed rate, mm/sec
M107
M115 U3.1.0 ; tell printer latest fw version
M204 S2000 T1500 ; MK2 firmware only supports the old M204 format
; Start G-Code sequence START
T0
M104 S215 ; set extruder temp
M140 S60 ; set bed temp
M190 S60 ; wait for bed temp
M109 S215 ; wait for extruder temp
G21 ; set units to millimeters
G90 ; use absolute coordinates
M83 ; use relative distances for extrusion
G28 W
G80
G92 E0.0
M203 E100 ; set max feedrate
M92 E140 ; E-steps per filament milimeter

G1 Z0.250 F7200.000
G1 X50.0 E80.0  F1000.0
G1 X160.0 E20.0  F1000.0
G1 Z0.200 F7200.000
G1 X220.0 E13 F1000.0
G1 X240.0 E0 F1000.0

G92 E0.0
M900 K200; Filament gcode
G21 ; set units to millimeters
G90 ; use absolute coordinates
M83 ; use relative distances for extrusion
;BEFORE_LAYER_CHANGE
G92 E0.0
;0.2


G1 Z0.200 F10800.000
;AFTER_LAYER_CHANGE
;0.2
G1 E-4.00000 F4800.00000
G1 Z0.800 F10800.000
G1 X46.577 Y33.664
G1 Z0.200
G1 E4.00000 F3000.00000
M204 S1000
G1 F1200
G1 X47.575 Y32.957 E0.03836
G1 X48.712 Y32.507 E0.03836
G1 X49.925 Y32.342 E0.03836
G1 X200.006 Y32.342 E4.70569
G1 X200.964 Y32.434 E0.03019
G1 X201.888 Y32.705 E0.03019
G1 X202.744 Y33.145 E0.03019
G1 X203.503 Y33.738 E0.03019
G1 X204.136 Y34.464 E0.03019
G1 X204.621 Y35.296 E0.03019
G1 X204.940 Y36.204 E0.03019
G1 X205.083 Y37.156 E0.03019
G1 X205.090 Y107.493 E2.20538
G1 X205.028 Y108.226 E0.02305
G1 X204.860 Y108.947 E0.02322
G1 X204.591 Y109.632 E0.02305
G1 X204.223 Y110.274 E0.02322
G1 X148.394 Y175.071 E2.68176
G1 X147.603 Y175.889 E0.03568
G1 X146.944 Y176.402 E0.02619
G1 X145.939 Y176.982 E0.03639
G1 X145.124 Y177.300 E0.02741
G1 X143.924 Y177.587 E0.03870
G1 X142.683 Y177.658 E0.03898
G1 X106.685 Y177.654 E1.12868
G1 X105.960 Y177.580 E0.02288
G1 X104.727 Y177.309 E0.03957
G1 X104.061 Y177.039 E0.02253
G1 X102.936 Y176.431 E0.04009
G1 X102.366 Y175.984 E0.02270
G1 X101.498 Y175.130 E0.03821
G1 X46.140 Y110.751 E2.66218
G1 X45.652 Y110.080 E0.02601
G1 X45.278 Y109.334 E0.02619
G1 X45.005 Y108.416 E0.03002
G1 X44.909 Y107.458 E0.03019
G1 X44.910 Y37.399 E2.19665
G1 X44.969 Y36.655 E0.02340
G1 X45.137 Y35.928 E0.02340
G1 X45.407 Y35.238 E0.02322
G1 X45.777 Y34.590 E0.02340
G1 X46.538 Y33.710 E0.03648
G1 X47.734 Y33.255 F10800.000
G1 F1200
G1 X49.473 Y32.719 E0.05705
G1 X200.486 Y32.722 E4.73492
G1 X201.435 Y32.906 E0.03029
G1 X202.343 Y33.297 E0.03101
G1 X203.562 Y34.321 E0.04990
G1 X204.353 Y35.538 E0.04551
G1 X204.713 Y36.921 E0.04481
G1 X204.713 Y107.880 E2.22488
G1 X204.491 Y108.971 E0.03491
G1 X203.996 Y109.990 E0.03552
G1 X203.073 Y111.028 E0.04355
G1 X202.266 Y111.610 E0.03120
G1 X200.527 Y112.146 E0.05704
G1 X49.552 Y112.146 E4.73372
G1 X48.461 Y111.924 E0.03491
G1 X47.442 Y111.429 E0.03552
G1 X46.404 Y110.505 E0.04355
G1 X45.823 Y109.698 E0.03120
G1 X45.287 Y107.959 E0.05704
G1 X45.287 Y36.984 E2.22537
G1 X45.509 Y35.893 E0.03491
G1 X46.004 Y34.874 E0.03552
G1 X46.927 Y33.836 E0.04355
G1 X47.686 Y33.290 E0.02932
G1 X47.904 Y33.596 F10800.000
G1 F1200
G1 X49.501 Y33.096 E0.05246
G1 X200.467 Y33.099 E4.73345
G1 X201.341 Y33.272 E0.02792
G1 X202.166 Y33.631 E0.02823
G1 X203.297 Y34.590 E0.04647
G1 X203.996 Y35.664 E0.04018
G1 X204.336 Y36.946 E0.04157
G1 X204.336 Y107.860 E2.22349
G1 X204.127 Y108.871 E0.03234
G1 X203.670 Y109.800 E0.03247
G1 X202.807 Y110.760 E0.04048
G1 X202.072 Y111.285 E0.02832
G1 X200.499 Y111.769 E0.05159
G1 X49.572 Y111.769 E4.73222
G1 X48.562 Y111.559 E0.03234
G1 X47.632 Y111.102 E0.03247
G1 X46.672 Y110.239 E0.04048
G1 X46.147 Y109.504 E0.02832
G1 X45.664 Y107.931 E0.05159
G1 X45.664 Y37.004 E2.22388
G1 X45.873 Y35.994 E0.03234
G1 X46.330 Y35.064 E0.03247
G1 X47.193 Y34.104 E0.04048
G1 X47.856 Y33.631 E0.02553
G1 X48.073 Y33.939 F10800.000
G1 F1200
G1 X48.121 Y33.905 E0.00184
G1 X49.529 Y33.473 E0.04619
G1 X200.448 Y33.476 E4.73197
G1 X201.246 Y33.637 E0.02550
G1 X201.988 Y33.965 E0.02545
G1 X203.030 Y34.858 E0.04302
G1 X203.663 Y35.842 E0.03669
G1 X203.959 Y36.970 E0.03655
G1 X203.959 Y107.841 E2.22210
G1 X203.763 Y108.768 E0.02973
G1 X203.345 Y109.608 E0.02940
G1 X202.543 Y110.491 E0.03741
G1 X201.879 Y110.959 E0.02547
G1 X200.471 Y111.392 E0.04619
G1 X49.592 Y111.392 E4.73071
G1 X48.664 Y111.196 E0.02973
G1 X47.825 Y110.777 E0.02940
G1 X46.941 Y109.975 E0.03741
G1 X46.473 Y109.311 E0.02547
G1 X46.041 Y107.903 E0.04619
G1 X46.041 Y37.024 E2.22237
G1 X46.237 Y36.096 E0.02973
G1 X46.655 Y35.257 E0.02940
G1 X47.457 Y34.374 E0.03741
G1 X48.024 Y33.973 E0.02175
G1 X48.312 Y34.231 F10800.000
G1 F1200
G1 X49.557 Y33.850 E0.04082
G1 X200.429 Y33.854 E4.73047
G1 X201.148 Y34.002 E0.02304
G1 X201.808 Y34.297 E0.02266
G1 X202.762 Y35.125 E0.03960
G1 X203.306 Y35.969 E0.03149
G1 X203.582 Y36.995 E0.03331
G1 X203.582 Y107.821 E2.22071
G1 X203.415 Y108.622 E0.02564
G1 X203.019 Y109.415 E0.02779
G1 X202.280 Y110.220 E0.03428
G1 X201.688 Y110.633 E0.02264
G1 X200.443 Y111.014 E0.04082
G1 X49.611 Y111.014 E4.72923
G1 X48.810 Y110.847 E0.02564
G1 X48.017 Y110.452 E0.02779
G1 X47.212 Y109.712 E0.03428
G1 X46.799 Y109.120 E0.02264
G1 X46.418 Y107.875 E0.04082
G1 X46.418 Y37.043 E2.22089
G1 X46.585 Y36.242 E0.02564
G1 X46.981 Y35.449 E0.02779
G1 X47.720 Y34.645 E0.03428
G1 X48.263 Y34.265 E0.02075
G1 X48.477 Y34.575 F10800.000
G1 F1200
G1 X49.585 Y34.227 E0.03642
G1 X200.410 Y34.231 E4.72900
G1 X201.013 Y34.355 E0.01933
G1 X201.628 Y34.630 E0.02110
G1 X202.492 Y35.389 E0.03609
G1 X202.972 Y36.146 E0.02809
G1 X203.205 Y37.019 E0.02835
G1 X203.205 Y107.801 E2.21931
G1 X203.052 Y108.518 E0.02299
G1 X202.696 Y109.220 E0.02467
G1 X202.019 Y109.947 E0.03116
G1 X201.498 Y110.306 E0.01983
G1 X200.415 Y110.637 E0.03551
G1 X49.631 Y110.637 E4.72772
G1 X48.914 Y110.484 E0.02299
G1 X48.212 Y110.128 E0.02467
G1 X47.485 Y109.451 E0.03116
G1 X47.126 Y108.930 E0.01983
G1 X46.795 Y107.847 E0.03551
G1 X46.795 Y37.063 E2.21938
G1 X46.948 Y36.346 E0.02299
G1 X47.304 Y35.645 E0.02467
G1 X47.981 Y34.917 E0.03116
G1 X48.427 Y34.609 E0.01699
G1 X48.690 Y34.886 F10800.000
G1 F1200
G1 X49.613 Y34.604 E0.03026
G1 X200.389 Y34.608 E4.72748
G1 X200.914 Y34.719 E0.01682
G1 X201.445 Y34.960 E0.01829
G1 X202.222 Y35.653 E0.03263
G1 X202.616 Y36.273 E0.02306
G1 X202.828 Y37.045 E0.02510
G1 X202.828 Y107.780 E2.21784
G1 X202.689 Y108.412 E0.02029
G1 X202.374 Y109.022 E0.02153
G1 X201.759 Y109.672 E0.02806
G1 X201.310 Y109.978 E0.01705
G1 X200.387 Y110.260 E0.03026
G1 X49.652 Y110.260 E4.72619
G1 X49.020 Y110.121 E0.02029
G1 X48.410 Y109.806 E0.02153
G1 X47.760 Y109.192 E0.02806
G1 X47.454 Y108.742 E0.01705
G1 X47.172 Y107.819 E0.03026
G1 X47.172 Y37.084 E2.21784
G1 X47.311 Y36.452 E0.02029
G1 X47.626 Y35.842 E0.02153
G1 X48.241 Y35.192 E0.02806
G1 X48.640 Y34.920 E0.01516
G1 X48.850 Y35.232 F10800.000
G1 F1200
G1 X49.641 Y34.981 E0.02602
G1 X200.368 Y34.985 E4.72594
G1 X200.811 Y35.083 E0.01424
G1 X201.259 Y35.290 E0.01548
G1 X201.950 Y35.915 E0.02920
G1 X202.262 Y36.404 E0.01818
G1 X202.451 Y37.072 E0.02179
G1 X202.451 Y107.758 E2.21631
G1 X202.327 Y108.303 E0.01751
G1 X202.054 Y108.821 E0.01838
G1 X201.502 Y109.396 E0.02496
G1 X201.124 Y109.650 E0.01429
G1 X200.359 Y109.883 E0.02507
G1 X49.674 Y109.883 E4.72463
G1 X49.129 Y109.760 E0.01751
G1 X48.611 Y109.486 E0.01838
G1 X48.036 Y108.935 E0.02496
G1 X47.783 Y108.556 E0.01429
G1 X47.549 Y107.791 E0.02507
G1 X47.549 Y37.106 E2.21628
G1 X47.673 Y36.561 E0.01751
G1 X47.946 Y36.043 E0.01838
G1 X48.498 Y35.469 E0.02496
G1 X48.800 Y35.266 E0.01142
G1 X49.669 Y35.358 F10800.000
G1 F1200
G1 X200.346 Y35.362 E4.72436
G1 X200.705 Y35.445 E0.01157
G1 X201.071 Y35.618 E0.01268
G1 X201.676 Y36.175 E0.02580
G1 X201.908 Y36.537 E0.01347
G1 X202.074 Y37.100 E0.01841
G1 X202.074 Y107.738 E2.21479
G1 X201.982 Y108.149 E0.01322
G1 X201.733 Y108.620 E0.01670
G1 X201.248 Y109.117 E0.02176
G1 X200.940 Y109.320 E0.01158
G1 X200.331 Y109.506 E0.01997
G1 X49.694 Y109.506 E4.72311
G1 X49.283 Y109.414 E0.01322
G1 X48.812 Y109.166 E0.01670
G1 X48.316 Y108.680 E0.02176
G1 X48.113 Y108.372 E0.01158
G1 X47.926 Y107.763 E0.01997
G1 X47.926 Y37.126 E2.21476
G1 X48.018 Y36.715 E0.01322
G1 X48.267 Y36.244 E0.01670
G1 X48.752 Y35.748 E0.02176
G1 X49.060 Y35.545 E0.01158
G1 X49.612 Y35.376 E0.01809
G1 X49.698 Y35.735 F10800.000
G1 F1200
G1 X200.324 Y35.739 E4.72278
G1 X200.562 Y35.794 E0.00767
G1 X200.882 Y35.945 E0.01109
G1 X201.401 Y36.434 E0.02233
G1 X201.556 Y36.674 E0.00898
G1 X201.697 Y37.130 E0.01495
G1 X201.697 Y107.718 E2.21325
G1 X201.636 Y107.996 E0.00892
G1 X201.414 Y108.418 E0.01496
G1 X200.998 Y108.834 E0.01845
G1 X200.758 Y108.988 E0.00892
G1 X200.302 Y109.129 E0.01496
G1 X49.714 Y109.129 E4.72160
G1 X49.436 Y109.069 E0.00892
G1 X49.014 Y108.846 E0.01496
G1 X48.598 Y108.430 E0.01845
G1 X48.444 Y108.190 E0.00892
G1 X48.303 Y107.735 E0.01496
G1 X48.303 Y37.146 E2.21325
G1 X48.364 Y36.868 E0.00892
G1 X48.586 Y36.446 E0.01496
G1 X49.002 Y36.030 E0.01845
G1 X49.242 Y35.876 E0.00892
G1 X49.640 Y35.753 E0.01308
G1 X48.712 Y37.014 F10800.000
G1 F1200
G1 X48.875 Y36.690 E0.01136
G1 X49.256 Y36.310 E0.01687
G1 X49.385 Y36.225 E0.00484
G1 X49.729 Y36.112 E0.01136
G1 X200.302 Y36.116 E4.72110
G1 X200.419 Y36.144 E0.00377
G1 X200.692 Y36.273 E0.00947
G1 X201.123 Y36.689 E0.01880
G1 X201.207 Y36.817 E0.00479
G1 X201.320 Y37.162 E0.01136
G1 X201.320 Y107.700 E2.21167
G1 X201.288 Y107.851 E0.00484
G1 X201.125 Y108.174 E0.01136
G1 X200.744 Y108.554 E0.01687
G1 X200.615 Y108.639 E0.00484
G1 X200.271 Y108.752 E0.01136
G1 X49.733 Y108.752 E4.72001
G1 X49.582 Y108.720 E0.00484
G1 X49.258 Y108.557 E0.01136
G1 X48.878 Y108.176 E0.01687
G1 X48.793 Y108.047 E0.00484
G1 X48.680 Y107.703 E0.01136
G1 X48.680 Y37.165 E2.21167
G1 X48.700 Y37.072 E0.00296
G1 X49.064 Y37.151 F10800.000
G1 F1200
G1 X49.167 Y36.932 E0.00757
G1 X49.510 Y36.589 E0.01522
G1 X49.764 Y36.489 E0.00856
G1 X200.282 Y36.496 E4.71936
G1 X200.500 Y36.599 E0.00757
G1 X200.843 Y36.942 E0.01522
G1 X200.943 Y37.197 E0.00856
G1 X200.936 Y107.714 E2.21102
G1 X200.833 Y107.932 E0.00757
G1 X200.490 Y108.275 E0.01522
G1 X200.236 Y108.375 E0.00856
G1 X49.718 Y108.369 E4.71936
G1 X49.500 Y108.265 E0.00757
G1 X49.157 Y107.922 E0.01522
G1 X49.057 Y107.668 E0.00856
G1 X49.057 Y37.210 E2.20916
G1 X49.737 Y36.895 F10800.000
G1 F1200
G1 X49.806 Y36.867 E0.00235
G1 X200.194 Y36.867 E4.71529
G1 X200.263 Y36.895 E0.00235
G1 X200.537 Y37.169 E0.01215
G1 X200.566 Y37.238 E0.00235
G1 X200.566 Y107.626 E2.20695
G1 X200.537 Y107.695 E0.00235
G1 X200.263 Y107.969 E0.01215
G1 X200.194 Y107.998 E0.00235
G1 X49.806 Y107.998 E4.71529
G1 X49.737 Y107.969 E0.00235
G1 X49.463 Y107.695 E0.01215
G1 X49.434 Y107.626 E0.00235
G1 X49.434 Y37.238 E2.20695
G1 X49.463 Y37.169 E0.00235
G1 X49.695 Y36.938 E0.01027
G1 X49.922 Y37.244 F10800.000
G1 F1200
G1 X200.078 Y37.244 E4.70804
G1 X200.189 Y37.354 E0.00490
G1 X200.189 Y107.510 E2.19970
G1 X200.078 Y107.621 E0.00490
G1 X49.922 Y107.621 E4.70804
G1 X49.811 Y107.510 E0.00490
G1 X49.811 Y37.354 E2.19970
G1 X49.879 Y37.286 E0.00302
G1 E-2.40000 F4800.00000
G1 F8640
G1 X52.759 Y37.285 E-1.52000
G1 E-0.08000 F4800.00000
G1 Z0.800 F10800.000
G1 X101.709 Y130.337
G1 Z0.200
G1 E4.00000 F3000.00000
G1 F1200
G1 X103.799 Y128.620 E0.08481
G1 X105.245 Y128.068 E0.04851
G1 X106.766 Y127.854 E0.04817
G1 X142.821 Y127.855 E1.13047
G1 X144.170 Y127.972 E0.04248
G1 X145.441 Y128.337 E0.04143
G1 X147.497 Y129.656 E0.07661
G1 X148.854 Y131.414 E0.06965
G1 X149.378 Y132.721 E0.04413
G1 X149.615 Y134.093 E0.04365
G1 X149.635 Y170.384 E1.13790
G1 X149.570 Y171.509 E0.03534
G1 X149.336 Y172.579 E0.03434
G1 X148.115 Y174.833 E0.08035
G1 X147.022 Y175.884 E0.04756
G1 X145.727 Y176.667 E0.04745
G1 X144.277 Y177.141 E0.04784
G1 X142.753 Y177.281 E0.04800
G1 X106.620 Y177.280 E1.13291
G1 X104.518 Y176.834 E0.06739
G1 X102.704 Y175.793 E0.06555
G1 X101.632 Y174.698 E0.04806
G1 X100.818 Y173.359 E0.04912
G1 X100.324 Y171.767 E0.05228
G1 X100.210 Y170.244 E0.04787
G1 X100.210 Y134.711 E1.11410
G1 X100.319 Y133.366 E0.04232
G1 X100.675 Y132.100 E0.04124
G1 X101.679 Y130.389 E0.06220
G1 X102.003 Y130.580 F10800.000
G1 F1200
G1 X103.963 Y128.961 E0.07971
G1 X105.319 Y128.439 E0.04557
G1 X106.780 Y128.231 E0.04624
G1 X142.813 Y128.232 E1.12980
G1 X144.084 Y128.339 E0.04000
G1 X145.310 Y128.691 E0.03997
G1 X147.265 Y129.955 E0.07300
G1 X148.514 Y131.579 E0.06426
G1 X149.009 Y132.805 E0.04145
G1 X149.241 Y134.141 E0.04251
G1 X149.258 Y170.369 E1.13589
G1 X149.198 Y171.444 E0.03377
G1 X148.973 Y172.473 E0.03303
G1 X147.833 Y174.581 E0.07515
G1 X146.776 Y175.597 E0.04596
G1 X145.552 Y176.333 E0.04477
G1 X144.182 Y176.776 E0.04516
G1 X142.744 Y176.904 E0.04524
G1 X106.639 Y176.903 E1.13204
G1 X104.678 Y176.491 E0.06283
G1 X102.954 Y175.510 E0.06220
G1 X101.942 Y174.482 E0.04523
G1 X101.171 Y173.225 E0.04624
G1 X100.691 Y171.676 E0.05085
G1 X100.587 Y170.238 E0.04521
G1 X100.587 Y134.719 E1.11367
G1 X100.688 Y133.450 E0.03990
G1 X101.031 Y132.226 E0.03988
G1 X101.973 Y130.632 E0.05803
G1 X102.296 Y130.825 F10800.000
G1 F1200
G1 X102.324 Y130.779 E0.00167
G1 X104.126 Y129.302 E0.07307
G1 X105.435 Y128.798 E0.04395
G1 X106.793 Y128.608 E0.04299
G1 X142.805 Y128.609 E1.12915
G1 X144.033 Y128.714 E0.03865
G1 X145.178 Y129.046 E0.03737
G1 X146.987 Y130.211 E0.06747
G1 X148.174 Y131.745 E0.06082
G1 X148.652 Y132.927 E0.03998
G1 X148.866 Y134.188 E0.04010
G1 X148.881 Y170.354 E1.13394
G1 X148.826 Y171.378 E0.03218
G1 X148.610 Y172.367 E0.03172
G1 X147.550 Y174.331 E0.06998
G1 X146.562 Y175.286 E0.04308
G1 X145.414 Y175.981 E0.04209
G1 X144.126 Y176.402 E0.04248
G1 X142.736 Y176.527 E0.04377
G1 X106.659 Y176.526 E1.13118
G1 X104.838 Y176.148 E0.05830
G1 X103.204 Y175.226 E0.05881
G1 X102.226 Y174.233 E0.04370
G1 X101.506 Y173.050 E0.04344
G1 X101.058 Y171.587 E0.04797
G1 X100.964 Y170.231 E0.04260
G1 X100.964 Y134.726 E1.11324
G1 X101.062 Y133.499 E0.03861
G1 X101.387 Y132.353 E0.03735
G1 X102.266 Y130.876 E0.05387
G1 X102.589 Y131.070 F10800.000
G1 F1200
G1 X102.630 Y131.001 E0.00252
G1 X104.291 Y129.642 E0.06728
G1 X105.509 Y129.169 E0.04098
G1 X106.806 Y128.986 E0.04106
G1 X142.797 Y128.986 E1.12849
G1 X143.947 Y129.081 E0.03616
G1 X145.046 Y129.400 E0.03589
G1 X146.755 Y130.509 E0.06387
G1 X147.834 Y131.910 E0.05545
G1 X148.295 Y133.049 E0.03852
G1 X148.492 Y134.234 E0.03768
G1 X148.505 Y170.339 E1.13204
G1 X148.454 Y171.313 E0.03058
G1 X148.248 Y172.261 E0.03040
G1 X147.266 Y174.081 E0.06485
G1 X146.348 Y174.975 E0.04016
G1 X145.238 Y175.647 E0.04071
G1 X144.031 Y176.037 E0.03975
G1 X142.728 Y176.150 E0.04102
G1 X106.678 Y176.148 E1.13032
G1 X104.944 Y175.785 E0.05556
G1 X103.453 Y174.942 E0.05369
G1 X102.535 Y174.017 E0.04087
G1 X101.859 Y172.916 E0.04051
G1 X101.425 Y171.497 E0.04651
G1 X101.341 Y170.225 E0.03997
G1 X101.341 Y134.733 E1.11283
G1 X101.430 Y133.583 E0.03616
G1 X101.743 Y132.480 E0.03596
G1 X102.558 Y131.121 E0.04967
G1 X102.936 Y131.224 F10800.000
G1 F1200
G1 X104.456 Y129.982 E0.06156
G1 X105.585 Y129.539 E0.03802
G1 X106.819 Y129.363 E0.03911
G1 X142.790 Y129.363 E1.12782
G1 X143.896 Y129.455 E0.03481
G1 X144.913 Y129.754 E0.03322
G1 X146.521 Y130.807 E0.06029
G1 X147.495 Y132.076 E0.05015
G1 X147.926 Y133.132 E0.03577
G1 X148.117 Y134.281 E0.03652
G1 X148.128 Y170.326 E1.13016
G1 X148.083 Y171.248 E0.02896
G1 X147.885 Y172.155 E0.02908
G1 X146.981 Y173.832 E0.05975
G1 X146.133 Y174.665 E0.03726
G1 X145.100 Y175.295 E0.03793
G1 X143.936 Y175.671 E0.03836
G1 X142.720 Y175.773 E0.03826
G1 X106.697 Y175.771 E1.12948
G1 X105.102 Y175.442 E0.05106
G1 X103.701 Y174.657 E0.05036
