;FLAVOR:RepRap
;TIME:949
;Filament used: 0.335816m
;Layer height: 0.1
;Generated with Cura_SteamEngine 2.5.0
G21 ; set units to millimeters
G90 ; use absolute positioning
M82 ; absolute extrusion mode
G28 W ; home all without mesh bed level
G80 ; mesh bed leveling
M104 S215 ; set extruder temp
M140 S55 ; set bed temp
M190 S55 ; wait for bed temp
M109 S215 ; wait for extruder temp
G92 E0.0 ; reset extruder distance position
G1 Y-3.0 F1000.0 ; go outside print area
G1 X60.0 E9.0 F1000.0 ; intro line
G1 X100.0 E21.5 F1000.0 ; intro line
G92 E0.0 ; reset extruder distance position
;LAYER_COUNT:64
;LAYER:0
M107
G0 F3600 X115.256 Y97.369 Z0.15
;TYPE:SKIRT
G1 F1800 X115.806 Y96.715 E0.02132
G1 X116.915 Y95.63 E0.06002
G1 X117.527 Y95.131 E0.07972
G1 X118.581 Y94.418 E0.11146
G1 X119.298 Y94.024 E0.13187
G1 X120.936 Y93.315 E0.17639
G1 X121.748 Y93.054 E0.19767
G1 X122.947 Y92.793 E0.22828
G1 X123.666 Y92.697 E0.24637
G1 X125.168 Y92.623 E0.28388
G1 X126.008 Y92.662 E0.30486
G1 X127.455 Y92.869 E0.34132
G1 X128.201 Y93.043 E0.36043
G1 X129.463 Y93.456 E0.39356
G1 X130.234 Y93.793 E0.41455
G1 X131.788 Y94.658 E0.45891
G1 X132.285 Y94.981 E0.4737
G1 X132.547 Y95.193 E0.4821
G1 X133.749 Y96.246 E0.52197
G1 X134.328 Y96.861 E0.54304
G1 X135.199 Y97.985 E0.57851
G1 X135.641 Y98.682 E0.5991
G1 X136.376 Y100.124 E0.63947
G1 X136.691 Y100.928 E0.66101
G1 X137.086 Y102.329 E0.69732
G1 X137.216 Y102.966 E0.71354
G1 X137.336 Y103.907 E0.7372
G1 X137.368 Y104.626 E0.75515
G1 X137.306 Y106.306 E0.79709
G1 X137.191 Y107.155 E0.81846
G1 X136.873 Y108.502 E0.85299
G1 X136.676 Y109.126 E0.86931
G1 X136.299 Y110.068 E0.89462
G1 X135.987 Y110.696 E0.91211
G1 X135.194 Y112.018 E0.95057
G1 X134.685 Y112.705 E0.9719
G1 X133.642 Y113.859 E1.0107
G1 X132.994 Y114.447 E1.03253
G1 X131.685 Y115.415 E1.07314
G1 X131.055 Y115.803 E1.09159
G1 X130.12 Y116.276 E1.11773
G1 X129.638 Y116.485 E1.13084
G1 X128.835 Y116.777 E1.15215
G1 X128.181 Y116.959 E1.16909
G1 X126.596 Y117.271 E1.20938
G1 X125.746 Y117.354 E1.23069
G1 X124.246 Y117.354 E1.26811
G1 X123.422 Y117.276 E1.28875
G1 X121.959 Y116.997 E1.3259
G1 X121.385 Y116.847 E1.3407
G1 X121.106 Y116.743 E1.34813
G1 X119.473 Y116.07 E1.39219
G1 X118.942 Y115.808 E1.40696
G1 X118.606 Y115.592 E1.41692
G1 X117.133 Y114.548 E1.46196
G1 X116.673 Y114.173 E1.47677
G1 X116.434 Y113.931 E1.48525
G1 X115.365 Y112.765 E1.52471
G1 X114.837 Y112.059 E1.5467
G1 X113.988 Y110.647 E1.5878
G1 X113.616 Y109.861 E1.60949
G1 X113.125 Y108.487 E1.64589
G1 X112.941 Y107.804 E1.66354
G1 X112.739 Y106.708 E1.69134
G1 X112.666 Y105.896 E1.71167
G1 X112.672 Y103.993 E1.75914
G1 X112.714 Y103.402 E1.77392
G1 X112.784 Y103.021 E1.78359
G1 X113.149 Y101.433 E1.82423
G1 X113.418 Y100.627 E1.84543
G1 X113.994 Y99.335 E1.88072
G1 X114.386 Y98.636 E1.90071
G1 X115.256 Y97.369 E1.93905
G0 F3600 X115.586 Y97.596
G1 F1800 X116.086 Y97.001 E1.95843
G1 X117.195 Y95.916 E1.99713
G1 X117.751 Y95.462 E2.01504
G1 X118.805 Y94.749 E2.04678
G1 X119.457 Y94.391 E2.06534
G1 X121.095 Y93.682 E2.10986
G1 X121.833 Y93.445 E2.1292
G1 X123.032 Y93.184 E2.15981
G1 X123.686 Y93.097 E2.17626
G1 X125.188 Y93.023 E2.21378
G1 X125.951 Y93.058 E2.23283
G1 X127.398 Y93.265 E2.26929
G1 X128.076 Y93.423 E2.28666
G1 X129.338 Y93.836 E2.31978
G1 X130.039 Y94.143 E2.33887
G1 X131.593 Y95.008 E2.38324
G1 X132.284 Y95.494 E2.40431
G1 X133.486 Y96.547 E2.44417
G1 X134.012 Y97.106 E2.46332
G1 X134.883 Y98.23 E2.49879
G1 X135.285 Y98.864 E2.51752
G1 X136.02 Y100.306 E2.55789
G1 X136.306 Y101.037 E2.57747
G1 X136.701 Y102.438 E2.61378
G1 X136.819 Y103.017 E2.62852
G1 X136.939 Y103.958 E2.65219
G1 X136.968 Y104.612 E2.66852
G1 X136.906 Y106.292 E2.71045
G1 X136.802 Y107.063 E2.72986
G1 X136.484 Y108.41 E2.76439
G1 X136.305 Y108.977 E2.77922
G1 X135.928 Y109.919 E2.80453
G1 X135.644 Y110.491 E2.82046
G1 X134.851 Y111.813 E2.85891
G1 X134.389 Y112.437 E2.87828
G1 X133.346 Y113.591 E2.91708
G1 X132.756 Y114.125 E2.93693
G1 X131.447 Y115.093 E2.97755
G1 X130.875 Y115.446 E2.99431
G1 X129.94 Y115.919 E3.02045
G1 X129.501 Y116.109 E3.03238
G1 X128.698 Y116.401 E3.0537
G1 X128.104 Y116.567 E3.06908
G1 X126.519 Y116.879 E3.10938
G1 X125.746 Y116.954 E3.12875
G1 X124.246 Y116.954 E3.16617
G1 X123.497 Y116.883 E3.18494
G1 X122.034 Y116.604 E3.22209
G1 X121.259 Y116.373 E3.24226
G1 X119.626 Y115.7 E3.28632
G1 X119.12 Y115.448 E3.30042
G1 X118.837 Y115.265 E3.30883
G1 X117.364 Y114.221 E3.35387
G1 X116.927 Y113.863 E3.36796
G1 X116.729 Y113.661 E3.37502
G1 X115.66 Y112.495 E3.41448
G1 X115.18 Y111.853 E3.43447
G1 X114.331 Y110.441 E3.47557
G1 X113.992 Y109.726 E3.49531
G1 X113.501 Y108.352 E3.53171
G1 X113.334 Y107.731 E3.54775
G1 X113.132 Y106.635 E3.57555
G1 X113.066 Y105.897 E3.59403
G1 X113.072 Y103.994 E3.6415
G1 X113.114 Y103.431 E3.65559
G1 X113.174 Y103.111 E3.66371
G1 X113.539 Y101.523 E3.70435
G1 X113.784 Y100.79 E3.72363
G1 X114.36 Y99.498 E3.75892
G1 X114.716 Y98.863 E3.77708
G1 X115.586 Y97.596 E3.81542
G0 F3600 X115.915 Y97.822
G1 F1800 X116.365 Y97.287 E3.83286
G1 X117.474 Y96.202 E3.87156
G1 X117.975 Y95.793 E3.88769
G1 X119.029 Y95.08 E3.91943
G1 X119.616 Y94.758 E3.93614
G1 X121.254 Y94.049 E3.98066
G1 X121.918 Y93.835 E3.99806
G1 X123.117 Y93.574 E4.02867
G1 X123.706 Y93.496 E4.04349
G1 X125.208 Y93.422 E4.08101
G1 X125.895 Y93.454 E4.09816
G1 X127.342 Y93.661 E4.13462
G1 X127.952 Y93.804 E4.15025
G1 X129.214 Y94.217 E4.18338
G1 X129.845 Y94.492 E4.20055
G1 X131.399 Y95.357 E4.24491
G1 X132.02 Y95.795 E4.26387
G1 X133.222 Y96.848 E4.30373
G1 X133.696 Y97.351 E4.32097
G1 X134.567 Y98.475 E4.35644
G1 X134.928 Y99.045 E4.37327
G1 X135.663 Y100.487 E4.41365
G1 X135.921 Y101.145 E4.43128
G1 X136.316 Y102.546 E4.46759
G1 X136.422 Y103.068 E4.48088
G1 X136.542 Y104.009 E4.50454
G1 X136.569 Y104.597 E4.51922
G1 X136.507 Y106.277 E4.56116
G1 X136.413 Y106.971 E4.57863
G1 X136.095 Y108.318 E4.61315
G1 X135.933 Y108.829 E4.62653
G1 X135.556 Y109.771 E4.65184
G1 X135.301 Y110.285 E4.66615
G1 X134.508 Y111.607 E4.7046
G1 X134.092 Y112.169 E4.72205
G1 X133.049 Y113.323 E4.76085
G1 X132.518 Y113.804 E4.77872
G1 X131.209 Y114.772 E4.81933
G1 X130.694 Y115.089 E4.83442
G1 X129.759 Y115.562 E4.86056
G1 X129.364 Y115.733 E4.87129
G1 X128.561 Y116.025 E4.89261
G1 X128.026 Y116.174 E4.90646
G1 X126.441 Y116.486 E4.94676
G1 X125.746 Y116.554 E4.96418
G1 X124.246 Y116.554 E5.00159
G1 X123.572 Y116.49 E5.01848
G1 X122.109 Y116.211 E5.05564
G1 X121.411 Y116.003 E5.0738
G1 X119.778 Y115.33 E5.11786
G1 X119.299 Y115.09 E5.13123
G1 X119.068 Y114.939 E5.13811
G1 X117.595 Y113.895 E5.18315
G1 X117.023 Y113.391 E5.20217
G1 X115.954 Y112.225 E5.24163
G1 X115.523 Y111.647 E5.25961
G1 X114.674 Y110.235 E5.30071
G1 X114.369 Y109.591 E5.31849
G1 X113.878 Y108.217 E5.35488
G1 X113.728 Y107.659 E5.3693
G1 X113.526 Y106.563 E5.3971
G1 X113.466 Y105.899 E5.41373
G1 X113.472 Y103.996 E5.4612
G1 X113.563 Y103.201 E5.48116
G1 X113.928 Y101.613 E5.52181
G1 X114.149 Y100.953 E5.53917
G1 X114.725 Y99.661 E5.57445
G1 X115.045 Y99.089 E5.5908
G1 X115.915 Y97.822 E5.62914
G0 F3600 X116.245 Y98.049
G1 F1800 X116.645 Y97.573 E5.64465
G1 X117.754 Y96.488 E5.68336
G1 X118.199 Y96.124 E5.6977
G1 X119.253 Y95.411 E5.72944
G1 X119.775 Y95.125 E5.74429
G1 X121.413 Y94.416 E5.78881
G1 X122.003 Y94.226 E5.80427
G1 X123.202 Y93.965 E5.83488
G1 X123.726 Y93.896 E5.84807
G1 X125.228 Y93.822 E5.88558
G1 X125.838 Y93.85 E5.90081
G1 X127.285 Y94.057 E5.93727
G1 X127.827 Y94.184 E5.95116
G1 X129.089 Y94.597 E5.98428
G1 X129.65 Y94.842 E5.99956
G1 X131.204 Y95.707 E6.04392
G1 X131.757 Y96.096 E6.06079
G1 X132.959 Y97.149 E6.10065
G1 X133.379 Y97.596 E6.11595
G1 X134.25 Y98.72 E6.15142
G1 X134.572 Y99.227 E6.1664
G1 X135.307 Y100.669 E6.20678
G1 X135.536 Y101.254 E6.22245
G1 X135.931 Y102.655 E6.25876
G1 X136.025 Y103.118 E6.27054
G1 X136.145 Y104.059 E6.29421
G1 X136.169 Y104.582 E6.30727
G1 X136.107 Y106.262 E6.3492
G1 X136.023 Y106.879 E6.36474
G1 X135.705 Y108.226 E6.39926
G1 X135.562 Y108.68 E6.41113
G1 X135.185 Y109.622 E6.43645
G1 X134.958 Y110.079 E6.44917
G1 X134.165 Y111.401 E6.48763
G1 X133.795 Y111.901 E6.50315
G1 X132.752 Y113.055 E6.54195
G1 X132.281 Y113.482 E6.55781
G1 X130.972 Y114.45 E6.59842
G1 X130.514 Y114.732 E6.61183
G1 X129.579 Y115.205 E6.63797
G1 X129.228 Y115.357 E6.64751
G1 X128.425 Y115.649 E6.66883
G1 X127.949 Y115.782 E6.68116
G1 X126.364 Y116.094 E6.72145
G1 X125.746 Y116.154 E6.73694
G1 X124.246 Y116.154 E6.77436
G1 X123.647 Y116.097 E6.78937
G1 X122.184 Y115.818 E6.82652
G1 X121.564 Y115.634 E6.84265
G1 X119.931 Y114.961 E6.88671
G1 X119.3 Y114.613 E6.90469
G1 X117.827 Y113.569 E6.94973
G1 X117.318 Y113.121 E6.96664
G1 X116.249 Y111.955 E7.0061
G1 X115.866 Y111.441 E7.02209
G1 X115.017 Y110.029 E7.06319
G1 X114.746 Y109.457 E7.07898
G1 X114.255 Y108.083 E7.11538
G1 X114.121 Y107.586 E7.12822
G1 X113.919 Y106.49 E7.15602
G1 X113.866 Y105.9 E7.17079
G1 X113.872 Y103.997 E7.21826
G1 X113.953 Y103.29 E7.23602
G1 X114.318 Y101.702 E7.27666
G1 X114.514 Y101.116 E7.29208
G1 X115.09 Y99.824 E7.32736
G1 X115.375 Y99.316 E7.34189
G1 X116.245 Y98.049 E7.38023
G1 F2100 E6.58023
G0 F3600 X117.729 Y98.516
G0 X119.625 Y100.704
G0 X119.917 Y100.461
G0 X119.843 Y100.395
;TYPE:WALL-INNER
G1 F2100 E7.38023
G1 F1800 X120.487 Y99.762 E7.40276
G1 X121.193 Y99.229 E7.42482
G1 X121.959 Y98.791 E7.44684
G1 X122.781 Y98.452 E7.46902
G1 X123.633 Y98.222 E7.49103
G1 X124.504 Y98.104 E7.51296
G1 X125.427 Y98.099 E7.53598
G1 X126.321 Y98.214 E7.55846
G1 X127.171 Y98.437 E7.58039
G1 X128 Y98.771 E7.60268
G1 X128.767 Y99.203 E7.62464
G1 X129.477 Y99.732 E7.64673
G1 X130.112 Y100.346 E7.66876
G1 X130.66 Y101.03 E7.69062
G1 X131.127 Y101.797 E7.71302
G1 X131.483 Y102.6 E7.73493
G1 X131.736 Y103.444 E7.75691
G1 X131.88 Y104.318 E7.77901
G1 X131.911 Y105.212 E7.80132
G1 X131.828 Y106.086 E7.82322
G1 X131.632 Y106.955 E7.84545
G1 X131.327 Y107.786 E7.86753
G1 X130.921 Y108.569 E7.88953
G1 X130.415 Y109.298 E7.91167
G1 X129.817 Y109.958 E7.93388
G1 X129.15 Y110.53 E7.9558
G1 X128.41 Y111.014 E7.97786
G1 X127.618 Y111.398 E7.99981
G1 X126.786 Y111.679 E8.02172
G1 X125.914 Y111.853 E8.0439
G1 X125.025 Y111.914 E8.06613
G1 X124.145 Y111.861 E8.08812
G1 X123.272 Y111.694 E8.11029
G1 X122.437 Y111.421 E8.13221
G1 X121.637 Y111.04 E8.15431
G1 X120.892 Y110.561 E8.1764
G1 X120.211 Y109.986 E8.19864
G1 X119.619 Y109.341 E8.22048
G1 X119.107 Y108.615 E8.24264
G1 X118.69 Y107.824 E8.26494
G1 X118.382 Y107.001 E8.28686
G1 X118.181 Y106.142 E8.30887
G1 X118.092 Y105.27 E8.33074
G1 X118.115 Y104.376 E8.35304
G1 X118.251 Y103.501 E8.37513
G1 X118.5 Y102.646 E8.39735
G1 X118.852 Y101.837 E8.41935
G1 X119.31 Y101.074 E8.44155
G1 X119.843 Y100.395 E8.46309
G0 F3600 X119.917 Y100.461
G0 X121.539 Y101.97
G0 X121.614 Y102.035
G1 F1800 X121.4 Y102.301 E8.4716
G1 X121.206 Y102.579 E8.48006
G1 X121.033 Y102.876 E8.48863
G1 X120.885 Y103.18 E8.49707
G1 X120.759 Y103.496 E8.50555
G1 X120.658 Y103.821 E8.51404
G1 X120.58 Y104.154 E8.52257
G1 X120.529 Y104.491 E8.53108
G1 X120.503 Y104.829 E8.53953
G1 X120.503 Y105.171 E8.54806
G1 X120.529 Y105.509 E8.55652
G1 X120.58 Y105.846 E8.56502
G1 X120.658 Y106.179 E8.57355
G1 X120.759 Y106.504 E8.58204
G1 X120.885 Y106.82 E8.59053
G1 X121.033 Y107.123 E8.59894
G1 X121.205 Y107.42 E8.6075
G1 X121.4 Y107.699 E8.61599
G1 X121.614 Y107.965 E8.62451
G1 X121.849 Y108.212 E8.63302
G1 X122.1 Y108.441 E8.64149
G1 X122.369 Y108.65 E8.64999
G1 X122.652 Y108.839 E8.65848
G1 X122.95 Y109.005 E8.66699
G1 X123.259 Y109.15 E8.6755
G1 X123.578 Y109.269 E8.68399
G1 X123.904 Y109.364 E8.69246
G1 X124.237 Y109.435 E8.70096
G1 X124.575 Y109.479 E8.70946
G1 X124.915 Y109.499 E8.71796
G1 X125.256 Y109.493 E8.72646
G1 X125.594 Y109.46 E8.73494
G1 X125.93 Y109.403 E8.74344
G1 X126.26 Y109.319 E8.75193
G1 X126.583 Y109.212 E8.76042
G1 X126.896 Y109.08 E8.76889
G1 X127.2 Y108.925 E8.77741
G1 X127.492 Y108.747 E8.78594
G1 X127.767 Y108.549 E8.79439
G1 X128.029 Y108.329 E8.80292
G1 X128.271 Y108.089 E8.81143
G1 X128.495 Y107.834 E8.81989
G1 X128.7 Y107.562 E8.82839
G1 X128.884 Y107.274 E8.83691
G1 X129.044 Y106.974 E8.84539
G1 X129.181 Y106.663 E8.85387
G1 X129.295 Y106.341 E8.86239
G1 X129.384 Y106.013 E8.87087
G1 X129.449 Y105.679 E8.87936
G1 X129.487 Y105.339 E8.88789
G1 X129.499 Y105 E8.89635
G1 X129.487 Y104.658 E8.90489
G1 X129.448 Y104.318 E8.91343
G1 X129.383 Y103.984 E8.92192
G1 X129.294 Y103.656 E8.93039
G1 X129.18 Y103.334 E8.93891
G1 X129.043 Y103.023 E8.94739
G1 X128.881 Y102.723 E8.9559
G1 X128.698 Y102.436 E8.96439
G1 X128.493 Y102.164 E8.97288
G1 X128.269 Y101.909 E8.98135
G1 X128.027 Y101.669 E8.98985
G1 X127.764 Y101.449 E8.99841
G1 X127.488 Y101.251 E9.00688
G1 X127.199 Y101.074 E9.01533
G1 X126.893 Y100.918 E9.0239
G1 X126.579 Y100.787 E9.03239
G1 X126.257 Y100.68 E9.04085
G1 X125.926 Y100.597 E9.04936
G1 X125.591 Y100.54 E9.05784
G1 X125.253 Y100.507 E9.06631
G1 X124.912 Y100.501 E9.07482
G1 X124.572 Y100.521 E9.08332
G1 X124.237 Y100.566 E9.09175
G1 X123.904 Y100.636 E9.10024
G1 X123.578 Y100.731 E9.10871
G1 X123.259 Y100.85 E9.1172
G1 X122.95 Y100.995 E9.12571
G1 X122.652 Y101.161 E9.13422
G1 X122.369 Y101.35 E9.14271
G1 X122.1 Y101.559 E9.15121
G1 X121.849 Y101.788 E9.15969
G1 X121.614 Y102.035 E9.16819
G0 F3600 X121.915 Y102.299
;TYPE:WALL-OUTER
G1 F1800 X121.72 Y102.541 E9.17594
G1 X121.543 Y102.795 E9.18367
G1 X121.386 Y103.064 E9.19144
G1 X121.251 Y103.342 E9.19914
G1 X121.136 Y103.63 E9.20688
G1 X121.044 Y103.926 E9.21461
G1 X120.973 Y104.229 E9.22238
G1 X120.927 Y104.536 E9.23012
G1 X120.903 Y104.845 E9.23785
G1 X120.903 Y105.155 E9.24558
G1 X120.927 Y105.464 E9.25331
G1 X120.973 Y105.771 E9.26106
G1 X121.044 Y106.074 E9.26882
G1 X121.136 Y106.37 E9.27655
G1 X121.251 Y106.658 E9.28429
G1 X121.386 Y106.935 E9.29198
G1 X121.543 Y107.205 E9.29977
G1 X121.72 Y107.459 E9.30749
G1 X121.915 Y107.701 E9.31524
G1 X122.129 Y107.926 E9.32299
G1 X122.358 Y108.135 E9.33072
G1 X122.603 Y108.325 E9.33846
G1 X122.861 Y108.498 E9.3462
G1 X123.132 Y108.649 E9.35394
G1 X123.414 Y108.781 E9.36171
G1 X123.704 Y108.889 E9.36943
G1 X124.002 Y108.976 E9.37717
G1 X124.305 Y109.04 E9.3849
G1 X124.613 Y109.081 E9.39265
G1 X124.923 Y109.099 E9.4004
G1 X125.233 Y109.093 E9.40813
G1 X125.541 Y109.063 E9.41585
G1 X125.847 Y109.011 E9.42359
G1 X126.148 Y108.935 E9.43134
G1 X126.442 Y108.837 E9.43907
G1 X126.728 Y108.717 E9.4468
G1 X127.005 Y108.576 E9.45456
G1 X127.27 Y108.414 E9.46231
G1 X127.521 Y108.233 E9.47002
G1 X127.759 Y108.033 E9.47778
G1 X127.98 Y107.815 E9.48552
G1 X128.184 Y107.582 E9.49325
G1 X128.371 Y107.334 E9.501
G1 X128.538 Y107.072 E9.50875
G1 X128.684 Y106.799 E9.51647
G1 X128.809 Y106.515 E9.52421
G1 X128.913 Y106.222 E9.53197
G1 X128.994 Y105.923 E9.53969
G1 X129.053 Y105.618 E9.54744
G1 X129.088 Y105.309 E9.5552
G1 X129.099 Y105 E9.56291
G1 X129.088 Y104.688 E9.5707
G1 X129.052 Y104.379 E9.57846
G1 X128.993 Y104.074 E9.58621
G1 X128.912 Y103.775 E9.59394
G1 X128.808 Y103.482 E9.60169
G1 X128.683 Y103.199 E9.60941
G1 X128.536 Y102.926 E9.61714
G1 X128.369 Y102.664 E9.62489
G1 X128.182 Y102.416 E9.63264
G1 X127.978 Y102.183 E9.64037
G1 X127.757 Y101.965 E9.64811
G1 X127.519 Y101.765 E9.65587
G1 X127.267 Y101.585 E9.66359
G1 X127.003 Y101.423 E9.67132
G1 X126.725 Y101.281 E9.6791
G1 X126.439 Y101.162 E9.68683
G1 X126.145 Y101.064 E9.69456
G1 X125.844 Y100.989 E9.7023
G1 X125.538 Y100.937 E9.71004
G1 X125.23 Y100.907 E9.71776
G1 X124.92 Y100.901 E9.7255
G1 X124.61 Y100.919 E9.73324
G1 X124.305 Y100.96 E9.74092
G1 X124.002 Y101.024 E9.74865
G1 X123.704 Y101.111 E9.75639
G1 X123.414 Y101.219 E9.76411
G1 X123.132 Y101.351 E9.77188
G1 X122.861 Y101.502 E9.77961
G1 X122.603 Y101.675 E9.78736
G1 X122.358 Y101.865 E9.7951
G1 X122.129 Y102.074 E9.80283
G1 X121.915 Y102.299 E9.81058
G0 F3600 X121.79 Y102.455
G0 X121.4 Y102.142
G0 X119.915 Y100.464
G0 X119.566 Y100.107
G1 F1800 X120.207 Y99.477 E9.833
G1 X119.869 Y99.132 E9.84504
G1 X119.943 Y99.068 E9.84749
G1 X120.234 Y99.452 E9.84948
G1 X120.952 Y98.91 E9.87192
G1 X120.66 Y98.524 E9.884
G1 X120.742 Y98.47 E9.88645
G1 X120.982 Y98.889 E9.88845
