; generated by Slic3r 1.37.1-prusa3d-win64 on 2018-02-03 at 11:24:46

; 

; external perimeters extrusion width = 0.45mm
; perimeters extrusion width = 0.45mm
; infill extrusion width = 0.45mm
; solid infill extrusion width = 0.45mm
; top infill extrusion width = 0.40mm
; first layer extrusion width = 0.42mm

M107
M115 U3.0.12 ; tell printer latest fw version
; Start G-Code sequence START
T0
M104 S230 ; set extruder temp
M140 S55 ; set bed temp
M190 S55 ; wait for bed temp
M109 S230 ; wait for extruder temp
G21 ; set units to millimeters
G90 ; use absolute coordinates
M83 ; use relative distances for extrusion
G28 W
G80
G92 E0.0
M203 E100
M92 E140
G1 Z0.250 F7200.000
G1 X50.0 E80.0  F1000.0
G1 X160.0 E20.0  F1000.0
G1 Z0.200 F7200.000
G1 X220.0 E13 F1000.0
G1 X240.0 E0 F1000.0
G1 E-4 F1000.0
G92 E0.0
; Filament gcode

; Filament gcode

; Filament gcode

; Filament gcode

G21 ; set units to millimeters
G90 ; use absolute coordinates
M83 ; use relative distances for extrusion
;BEFORE_LAYER_CHANGE
;0.2


G1 Z0.200 F7200.000
;AFTER_LAYER_CHANGE
;0.2
G1 E-4.00000 F3000.00000
G1 Z0.700 F7200.000
G1 X113.828 Y64.514 F7200.000
G1 Z0.200 F7200.000
G1 E4.00000 F3000.00000
M204 S1000
G1 F2100
G1 X114.265 Y64.009 E0.02093
G1 X114.803 Y63.607 E0.02107
G1 X115.414 Y63.328 E0.02107
G1 X116.067 Y63.187 E0.02093
G1 X126.404 Y63.169 E0.32412
G1 X127.179 Y63.267 E0.02447
G1 X127.905 Y63.554 E0.02447
G1 X128.537 Y64.011 E0.02447
G1 X129.039 Y64.615 E0.02461
G1 X157.921 Y112.572 E1.75532
G1 X158.076 Y113.114 E0.01766
G1 X158.131 Y113.679 E0.01779
G1 X158.131 Y143.700 E0.94129
G1 X158.077 Y144.278 E0.01820
G1 X157.918 Y144.836 E0.01820
G1 X157.465 Y145.631 E0.02868
G1 X156.805 Y146.259 E0.02855
G1 X155.989 Y146.671 E0.02868
G1 X155.088 Y146.830 E0.02868
G1 X94.991 Y146.831 E1.88429
G1 X94.418 Y146.777 E0.01807
G1 X93.864 Y146.618 E0.01807
G1 X93.086 Y146.178 E0.02800
G1 X92.462 Y145.534 E0.02814
G1 X92.047 Y144.742 E0.02800
G1 X91.873 Y143.862 E0.02814
G1 X91.869 Y113.678 E0.94640
G1 X91.924 Y113.113 E0.01779
G1 X92.082 Y112.564 E0.01793
G1 X113.546 Y65.012 E1.63581
G1 X113.798 Y64.566 E0.01605
G1 X114.133 Y64.735 F7200.000
G1 F2100
G1 X114.524 Y64.283 E0.01873
G1 X115.003 Y63.926 E0.01873
G1 X115.548 Y63.681 E0.01873
G1 X116.133 Y63.559 E0.01873
G1 X126.404 Y63.546 E0.32205
G1 X127.090 Y63.634 E0.02167
G1 X127.732 Y63.889 E0.02167
G1 X128.287 Y64.294 E0.02154
G1 X128.727 Y64.827 E0.02167
G1 X157.571 Y112.711 E1.75273
G1 X157.754 Y113.685 E0.03107
G1 X157.754 Y143.700 E0.94110
G1 X157.564 Y144.705 E0.03208
G1 X157.164 Y145.404 E0.02523
G1 X156.579 Y145.956 E0.02523
G1 X155.859 Y146.317 E0.02523
G1 X155.066 Y146.453 E0.02523
G1 X94.992 Y146.454 E1.88359
G1 X93.995 Y146.264 E0.03183
G1 X93.309 Y145.874 E0.02473
G1 X92.762 Y145.306 E0.02473
G1 X92.399 Y144.606 E0.02473
G1 X92.249 Y143.828 E0.02485
G1 X92.246 Y113.684 E0.94515
G1 X92.436 Y112.695 E0.03157
G1 X114.109 Y64.790 E1.64858
G1 X114.441 Y64.954 F7200.000
G1 F2100
G1 X114.784 Y64.557 E0.01645
G1 X115.205 Y64.245 E0.01645
G1 X115.685 Y64.033 E0.01645
G1 X116.196 Y63.932 E0.01633
G1 X126.404 Y63.923 E0.32006
G1 X126.995 Y63.999 E0.01870
G1 X127.550 Y64.219 E0.01870
G1 X128.031 Y64.571 E0.01870
G1 X128.412 Y65.035 E0.01882
G1 X157.220 Y112.851 E1.75033
G1 X157.377 Y113.689 E0.02673
G1 X157.377 Y143.700 E0.94096
G1 X157.212 Y144.571 E0.02778
G1 X156.866 Y145.173 E0.02178
G1 X156.357 Y145.651 E0.02190
G1 X155.735 Y145.960 E0.02178
G1 X155.051 Y146.077 E0.02178
G1 X94.992 Y146.077 E1.88308
G1 X94.129 Y145.912 E0.02755
G1 X93.536 Y145.573 E0.02142
G1 X93.064 Y145.079 E0.02142
G1 X92.752 Y144.472 E0.02142
G1 X92.625 Y143.796 E0.02154
G1 X92.623 Y113.689 E0.94401
G1 X92.788 Y112.829 E0.02743
G1 X114.416 Y65.009 E1.64561
G1 E-2.40000 F3000.00000
G1 F5760
G1 X114.784 Y64.557 E-0.28814
G1 F5760
G1 X115.205 Y64.245 E-0.25955
G1 F5760
G1 X115.685 Y64.033 E-0.25955
G1 F5760
G1 X116.196 Y63.932 E-0.25768
G1 F5760
G1 X117.116 Y63.931 E-0.45507
G1 E-0.08000 F3000.00000
G1 Z0.700 F7200.000
G1 X153.659 Y129.684 F7200.000
G1 Z0.200 F7200.000
G1 E4.00000 F3000.00000
G1 F1680
G1 X153.659 Y142.359 E0.39742
G1 X96.341 Y142.359 E1.79715
G1 X96.341 Y115.041 E0.85652
G1 X153.659 Y115.041 E1.79715
G1 X153.659 Y129.624 E0.45722
G1 X154.036 Y129.624 F7200.000
G1 F1680
G1 X154.036 Y142.736 E0.41113
G1 X95.964 Y142.736 E1.82080
G1 X95.964 Y114.664 E0.88017
G1 X154.036 Y114.664 E1.82080
G1 X154.036 Y129.564 E0.46716
G1 X154.413 Y129.564 F7200.000
G1 F1680
G1 X154.413 Y143.113 E0.42483
G1 X95.587 Y143.113 E1.84444
G1 X95.587 Y114.287 E0.90381
G1 X154.413 Y114.287 E1.84444
G1 X154.413 Y129.504 E0.47710
G1 X154.790 Y129.504 F7200.000
G1 F1260
G1 X154.790 Y143.490 E0.43854
G1 X95.210 Y143.490 E1.86809
G1 X95.210 Y113.910 E0.92746
G1 X154.790 Y113.910 E1.86809
G1 X154.790 Y129.444 E0.48704
G1 X154.561 Y129.832 F7200.000
G1 E-2.40000 F3000.00000
G1 F5760
G1 X154.790 Y132.516 E-1.52000
G1 E-0.08000 F3000.00000
G1 Z0.700 F7200.000
G1 X153.546 Y115.917 F7200.000
G1 Z0.200 F7200.000
G1 E4.00000 F3000.00000
G1 F1680
G1 X152.953 Y115.324 E0.02628
G1 X152.420 Y115.324 E0.01672
G1 X153.376 Y116.280 E0.04240
G1 X153.376 Y116.813 E0.01672
G1 X151.887 Y115.324 E0.06605
G1 X151.353 Y115.324 E0.01672
G1 X153.376 Y117.347 E0.08969
G1 X153.376 Y117.880 E0.01672
G1 X150.820 Y115.324 E0.11334
G1 X150.287 Y115.324 E0.01672
G1 X153.376 Y118.413 E0.13699
G1 X153.376 Y118.947 E0.01672
G1 X149.753 Y115.324 E0.16063
G1 X149.220 Y115.324 E0.01672
G1 X153.376 Y119.480 E0.18428
G1 X153.376 Y120.013 E0.01672
G1 X148.687 Y115.324 E0.20793
G1 X148.154 Y115.324 E0.01672
G1 X153.376 Y120.546 E0.23157
G1 X153.376 Y121.080 E0.01672
G1 X147.620 Y115.324 E0.25522
G1 X147.087 Y115.324 E0.01672
G1 X153.376 Y121.613 E0.27887
G1 X153.376 Y122.146 E0.01672
G1 X146.554 Y115.324 E0.30251
G1 X146.020 Y115.324 E0.01672
G1 X153.376 Y122.680 E0.32616
G1 X153.376 Y123.213 E0.01672
G1 X145.487 Y115.324 E0.34981
G1 X144.954 Y115.324 E0.01672
G1 X153.376 Y123.746 E0.37346
G1 X153.376 Y124.279 E0.01672
G1 X144.421 Y115.324 E0.39710
G1 X143.887 Y115.324 E0.01672
G1 X153.376 Y124.813 E0.42075
G1 X153.376 Y125.346 E0.01672
G1 X143.354 Y115.324 E0.44440
G1 X142.821 Y115.324 E0.01672
G1 X153.376 Y125.879 E0.46804
G1 X153.376 Y126.413 E0.01672
G1 X142.287 Y115.324 E0.49169
G1 X141.754 Y115.324 E0.01672
G1 X153.376 Y126.946 E0.51534
G1 X153.376 Y127.479 E0.01672
G1 X141.221 Y115.324 E0.53898
G1 X140.688 Y115.324 E0.01672
G1 X153.376 Y128.012 E0.56263
G1 X153.376 Y128.546 E0.01672
G1 X140.154 Y115.324 E0.58628
G1 X139.621 Y115.324 E0.01672
G1 X153.376 Y129.079 E0.60992
G1 X153.376 Y129.612 E0.01672
G1 X139.088 Y115.324 E0.63357
G1 X138.555 Y115.324 E0.01672
G1 X153.376 Y130.145 E0.65722
G1 X153.376 Y130.679 E0.01672
G1 X138.021 Y115.324 E0.68086
G1 X137.488 Y115.324 E0.01672
G1 X153.376 Y131.212 E0.70451
G1 X153.376 Y131.745 E0.01672
G1 X136.955 Y115.324 E0.72816
G1 X136.421 Y115.324 E0.01672
G1 X153.376 Y132.279 E0.75180
G1 X153.376 Y132.812 E0.01672
G1 X135.888 Y115.324 E0.77545
G1 X135.355 Y115.324 E0.01672
G1 X153.376 Y133.345 E0.79910
G1 X153.376 Y133.878 E0.01672
G1 X134.822 Y115.324 E0.82274
G1 X134.288 Y115.324 E0.01672
G1 X153.376 Y134.412 E0.84639
G1 X153.376 Y134.945 E0.01672
G1 X133.755 Y115.324 E0.87004
G1 X133.222 Y115.324 E0.01672
G1 X153.376 Y135.478 E0.89368
G1 X153.376 Y136.012 E0.01672
G1 X132.688 Y115.324 E0.91733
G1 X132.155 Y115.324 E0.01672
G1 X153.376 Y136.545 E0.94098
G1 X153.376 Y137.078 E0.01672
G1 X131.622 Y115.324 E0.96463
G1 X131.089 Y115.324 E0.01672
G1 X153.376 Y137.611 E0.98827
G1 X153.376 Y138.145 E0.01672
G1 X130.555 Y115.324 E1.01192
G1 X130.022 Y115.324 E0.01672
G1 X153.376 Y138.678 E1.03557
G1 X153.376 Y139.211 E0.01672
G1 X129.489 Y115.324 E1.05921
G1 X128.956 Y115.324 E0.01672
G1 X153.376 Y139.744 E1.08286
G1 X153.376 Y140.278 E0.01672
G1 X128.422 Y115.324 E1.10651
G1 X127.889 Y115.324 E0.01672
G1 X153.376 Y140.811 E1.13015
G1 X153.376 Y141.344 E0.01672
G1 X127.356 Y115.324 E1.15380
G1 X126.822 Y115.324 E0.01672
G1 X153.376 Y141.878 E1.17745
G1 X153.376 Y142.076 E0.00622
G1 X153.041 Y142.076 E0.01050
G1 X126.289 Y115.324 E1.18624
G1 X125.756 Y115.324 E0.01672
G1 X152.508 Y142.076 E1.18624
G1 X151.975 Y142.076 E0.01672
G1 X125.223 Y115.324 E1.18624
G1 X124.689 Y115.324 E0.01672
G1 X151.441 Y142.076 E1.18624
G1 X150.908 Y142.076 E0.01672
G1 X124.156 Y115.324 E1.18624
G1 X123.623 Y115.324 E0.01672
G1 X150.375 Y142.076 E1.18624
G1 X149.841 Y142.076 E0.01672
G1 X123.089 Y115.324 E1.18624
G1 X122.556 Y115.324 E0.01672
G1 X149.308 Y142.076 E1.18624
G1 X148.775 Y142.076 E0.01672
G1 X122.023 Y115.324 E1.18624
G1 X121.490 Y115.324 E0.01672
G1 X148.242 Y142.076 E1.18624
G1 X147.708 Y142.076 E0.01672
G1 X120.956 Y115.324 E1.18624
G1 X120.423 Y115.324 E0.01672
G1 X147.175 Y142.076 E1.18624
G1 X146.642 Y142.076 E0.01672
G1 X119.890 Y115.324 E1.18624
G1 X119.357 Y115.324 E0.01672
G1 X146.108 Y142.076 E1.18624
G1 X145.575 Y142.076 E0.01672
G1 X118.823 Y115.324 E1.18624
G1 X118.290 Y115.324 E0.01672
G1 X145.042 Y142.076 E1.18624
G1 X144.509 Y142.076 E0.01672
G1 X117.757 Y115.324 E1.18624
G1 X117.223 Y115.324 E0.01672
G1 X143.975 Y142.076 E1.18624
G1 X143.442 Y142.076 E0.01672
G1 X116.690 Y115.324 E1.18624
G1 X116.157 Y115.324 E0.01672
G1 X142.909 Y142.076 E1.18624
G1 X142.376 Y142.076 E0.01672
G1 X115.624 Y115.324 E1.18624
G1 X115.090 Y115.324 E0.01672
G1 X141.842 Y142.076 E1.18624
G1 X141.309 Y142.076 E0.01672
G1 X114.557 Y115.324 E1.18624
G1 X114.024 Y115.324 E0.01672
G1 X140.776 Y142.076 E1.18624
G1 X140.242 Y142.076 E0.01672
G1 X113.490 Y115.324 E1.18624
G1 X112.957 Y115.324 E0.01672
G1 X139.709 Y142.076 E1.18624
G1 X139.176 Y142.076 E0.01672
G1 X112.424 Y115.324 E1.18624
G1 X111.891 Y115.324 E0.01672
G1 X138.643 Y142.076 E1.18624
G1 X138.109 Y142.076 E0.01672
G1 X111.357 Y115.324 E1.18624
G1 X110.824 Y115.324 E0.01672
G1 X137.576 Y142.076 E1.18624
G1 X137.043 Y142.076 E0.01672
G1 X110.291 Y115.324 E1.18624
G1 X109.757 Y115.324 E0.01672
G1 X136.509 Y142.076 E1.18624
G1 X135.976 Y142.076 E0.01672
G1 X109.224 Y115.324 E1.18624
G1 X108.691 Y115.324 E0.01672
G1 X135.443 Y142.076 E1.18624
G1 X134.910 Y142.076 E0.01672
G1 X108.158 Y115.324 E1.18624
G1 X107.624 Y115.324 E0.01672
G1 X134.376 Y142.076 E1.18624
G1 X133.843 Y142.076 E0.01672
G1 X107.091 Y115.324 E1.18624
G1 X106.558 Y115.324 E0.01672
G1 X133.310 Y142.076 E1.18624
G1 X132.776 Y142.076 E0.01672
G1 X106.025 Y115.324 E1.18624
G1 X105.491 Y115.324 E0.01672
G1 X132.243 Y142.076 E1.18624
G1 X131.710 Y142.076 E0.01672
G1 X104.958 Y115.324 E1.18624
G1 X104.425 Y115.324 E0.01672
G1 X131.177 Y142.076 E1.18624
G1 X130.643 Y142.076 E0.01672
G1 X103.891 Y115.324 E1.18624
G1 X103.358 Y115.324 E0.01672
G1 X130.110 Y142.076 E1.18624
G1 X129.577 Y142.076 E0.01672
G1 X102.825 Y115.324 E1.18624
G1 X102.292 Y115.324 E0.01672
G1 X129.044 Y142.076 E1.18624
G1 X128.510 Y142.076 E0.01672
G1 X101.758 Y115.324 E1.18624
G1 X101.225 Y115.324 E0.01672
G1 X127.977 Y142.076 E1.18624
G1 X127.444 Y142.076 E0.01672
G1 X100.692 Y115.324 E1.18624
G1 X100.158 Y115.324 E0.01672
G1 X126.910 Y142.076 E1.18624
G1 X126.377 Y142.076 E0.01672
G1 X99.625 Y115.324 E1.18624
G1 X99.092 Y115.324 E0.01672
G1 X125.844 Y142.076 E1.18624
G1 X125.311 Y142.076 E0.01672
G1 X98.559 Y115.324 E1.18624
G1 X98.025 Y115.324 E0.01672
G1 X124.777 Y142.076 E1.18624
G1 X124.244 Y142.076 E0.01672
G1 X97.492 Y115.324 E1.18624
G1 X96.959 Y115.324 E0.01672
G1 X123.711 Y142.076 E1.18624
G1 X123.177 Y142.076 E0.01672
G1 X96.624 Y115.523 E1.17744
G1 X96.624 Y116.056 E0.01672
G1 X122.644 Y142.076 E1.15379
G1 X122.111 Y142.076 E0.01672
G1 X96.624 Y116.589 E1.13015
G1 X96.624 Y117.122 E0.01672
G1 X121.578 Y142.076 E1.10650
G1 X121.044 Y142.076 E0.01672
G1 X96.624 Y117.656 E1.08285
G1 X96.624 Y118.189 E0.01672
G1 X120.511 Y142.076 E1.05921
G1 X119.978 Y142.076 E0.01672
G1 X96.624 Y118.722 E1.03556
G1 X96.624 Y119.255 E0.01672
G1 X119.445 Y142.076 E1.01191
G1 X118.911 Y142.076 E0.01672
G1 X96.624 Y119.789 E0.98827
G1 X96.624 Y120.322 E0.01672
G1 X118.378 Y142.076 E0.96462
G1 X117.845 Y142.076 E0.01672
G1 X96.624 Y120.855 E0.94097
G1 X96.624 Y121.389 E0.01672
G1 X117.311 Y142.076 E0.91733
G1 X116.778 Y142.076 E0.01672
G1 X96.624 Y121.922 E0.89368
G1 X96.624 Y122.455 E0.01672
G1 X116.245 Y142.076 E0.87003
G1 X115.712 Y142.076 E0.01672
G1 X96.624 Y122.988 E0.84639
G1 X96.624 Y123.522 E0.01672
G1 X115.178 Y142.076 E0.82274
G1 X114.645 Y142.076 E0.01672
G1 X96.624 Y124.055 E0.79909
G1 X96.624 Y124.588 E0.01672
G1 X114.112 Y142.076 E0.77545
G1 X113.578 Y142.076 E0.01672
G1 X96.624 Y125.122 E0.75180
G1 X96.624 Y125.655 E0.01672
G1 X113.045 Y142.076 E0.72815
G1 X112.512 Y142.076 E0.01672
G1 X96.624 Y126.188 E0.70451
G1 X96.624 Y126.721 E0.01672
G1 X111.979 Y142.076 E0.68086
G1 X111.445 Y142.076 E0.01672
G1 X96.624 Y127.255 E0.65721
G1 X96.624 Y127.788 E0.01672
G1 X110.912 Y142.076 E0.63356
G1 X110.379 Y142.076 E0.01672
G1 X96.624 Y128.321 E0.60992
G1 X96.624 Y128.854 E0.01672
G1 X109.846 Y142.076 E0.58627
G1 X109.312 Y142.076 E0.01672
G1 X96.624 Y129.388 E0.56262
G1 X96.624 Y129.921 E0.01672
G1 X108.779 Y142.076 E0.53898
G1 X108.246 Y142.076 E0.01672
G1 X96.624 Y130.454 E0.51533
G1 X96.624 Y130.988 E0.01672
G1 X107.712 Y142.076 E0.49168
G1 X107.179 Y142.076 E0.01672
G1 X96.624 Y131.521 E0.46804
G1 X96.624 Y132.054 E0.01672
G1 X106.646 Y142.076 E0.44439
G1 X106.113 Y142.076 E0.01672
G1 X96.624 Y132.587 E0.42074
G1 X96.624 Y133.121 E0.01672
G1 X105.579 Y142.076 E0.39710
G1 X105.046 Y142.076 E0.01672
G1 X96.624 Y133.654 E0.37345
G1 X96.624 Y134.187 E0.01672
G1 X104.513 Y142.076 E0.34980
G1 X103.979 Y142.076 E0.01672
G1 X96.624 Y134.721 E0.32616
G1 X96.624 Y135.254 E0.01672
G1 X103.446 Y142.076 E0.30251
G1 X102.913 Y142.076 E0.01672
G1 X96.624 Y135.787 E0.27886
G1 X96.624 Y136.320 E0.01672
G1 X102.380 Y142.076 E0.25522
G1 X101.846 Y142.076 E0.01672
G1 X96.624 Y136.854 E0.23157
G1 X96.624 Y137.387 E0.01672
G1 X101.313 Y142.076 E0.20792
G1 X100.780 Y142.076 E0.01672
G1 X96.624 Y137.920 E0.18428
G1 X96.624 Y138.454 E0.01672
G1 X100.246 Y142.076 E0.16063
G1 X99.713 Y142.076 E0.01672
G1 X96.624 Y138.987 E0.13698
G1 X96.624 Y139.520 E0.01672
G1 X99.180 Y142.076 E0.11333
G1 X98.647 Y142.076 E0.01672
G1 X96.624 Y140.053 E0.08969
G1 X96.624 Y140.587 E0.01672
G1 X98.113 Y142.076 E0.06604
G1 X97.580 Y142.076 E0.01672
G1 X96.624 Y141.120 E0.04239
G1 X96.624 Y141.653 E0.01672
G1 X97.217 Y142.246 E0.02627
G1 E-2.40000 F3000.00000
G1 F5760
G1 X96.624 Y141.653 E-0.41458
G1 F5760
G1 X96.624 Y141.120 E-0.26386
G1 F5760
G1 X97.580 Y142.076 E-0.66900
G1 F5760
G1 X97.929 Y142.076 E-0.17256
G1 E-0.08000 F3000.00000
G1 Z0.700 F7200.000
G1 X117.741 Y81.642 F7200.000
G1 Z0.200 F7200.000
G1 E4.00000 F3000.00000
G1 F1680
G1 X117.741 Y67.641 E0.43900
G1 X125.059 Y67.641 E0.22944
G1 X125.059 Y99.959 E1.01329
G1 X117.741 Y99.959 E0.22944
G1 X117.741 Y81.702 E0.57241
G1 X117.364 Y81.702 F7200.000
G1 F1680
G1 X117.364 Y67.264 E0.45270
G1 X125.436 Y67.264 E0.25308
G1 X125.436 Y100.336 E1.03694
G1 X117.364 Y100.336 E0.25308
G1 X117.364 Y81.762 E0.58235
G1 X116.987 Y81.762 F7200.000
G1 F1680
G1 X116.987 Y66.887 E0.46641
G1 X125.813 Y66.887 E0.27673
G1 X125.813 Y100.713 E1.06059
G1 X116.987 Y100.713 E0.27673
G1 X116.987 Y81.822 E0.59230
G1 X116.610 Y81.822 F7200.000
G1 F1260
G1 X116.610 Y66.510 E0.48011
G1 X126.190 Y66.510 E0.30037
G1 X126.190 Y101.090 E1.08423
G1 X116.610 Y101.090 E0.30037
G1 X116.610 Y81.882 E0.60224
G1 X116.922 Y81.572 F7200.000
G1 E-2.40000 F3000.00000
G1 F5760
G1 X116.610 Y78.810 E-1.52000
G1 E-0.08000 F3000.00000
G1 Z0.700 F7200.000
G1 X124.946 Y68.523 F7200.000
G1 Z0.200 F7200.000
G1 E4.00000 F3000.00000
G1 F1680
G1 X124.346 Y67.924 E0.02680
G1 X123.809 Y67.924 E0.01700
G1 X124.776 Y68.891 E0.04326
G1 X124.776 Y69.429 E0.01700
G1 X123.271 Y67.924 E0.06731
G1 X122.733 Y67.924 E0.01700
G1 X124.776 Y69.967 E0.09136
G1 X124.776 Y70.505 E0.01700
G1 X122.195 Y67.924 E0.11540
G1 X121.657 Y67.924 E0.01700
G1 X124.776 Y71.043 E0.13945
G1 X124.776 Y71.580 E0.01700
G1 X121.120 Y67.924 E0.16350
G1 X120.582 Y67.924 E0.01700
G1 X124.776 Y72.118 E0.18755
G1 X124.776 Y72.656 E0.01700
