; generated by Slic3r Prusa Edition 1.41.2+win64 on 2019-01-29 at 17:35:21

; 

; external perimeters extrusion width = 0.60mm
; perimeters extrusion width = 0.43mm
; infill extrusion width = 0.45mm
; solid infill extrusion width = 0.70mm
; top infill extrusion width = 0.43mm
; first layer extrusion width = 0.42mm

M201 X9000 Y9000 Z500 E10000 ; sets maximum accelerations, mm/sec^2
M203 X500 Y500 Z12 E120 ; sets maximum feedrates, mm/sec
M204 P2000 R1500 T2000 ; sets acceleration (P, T) and retract acceleration (R), mm/sec^2
M205 X10.00 Y10.00 Z0.20 E2.50 ; sets the jerk limits, mm/sec
M205 S0 T0 ; sets the minimum extruding and travel feed rate, mm/sec
M107
M115 U3.1.0 ; tell printer latest fw version
M204 S2000 T1500 ; MK2 firmware only supports the old M204 format
; Start G-Code sequence START
T3
M104 S215 ; set extruder temp
M140 S60 ; set bed temp
M190 S60 ; wait for bed temp
M109 S215 ; wait for extruder temp
G21 ; set units to millimeters
G90 ; use absolute coordinates
M83 ; use relative distances for extrusion
G28 W
G80
G92 E0.0
M203 E100 ; set max feedrate
M92 E140 ; E-steps per filament milimeter

G1 Z0.250 F7200.000
G1 X50.0 E80.0  F1000.0
G1 X160.0 E20.0  F1000.0
G1 Z0.200 F7200.000
G1 X220.0 E13 F1000.0
G1 X240.0 E0 F1000.0

G92 E0.0
M900 K200; Filament gcode
G21 ; set units to millimeters
G90 ; use absolute coordinates
M83 ; use relative distances for extrusion
T3
M900 K200; Filament gcode
;BEFORE_LAYER_CHANGE
G92 E0.0
;0.2


G1 Z0.200 F10800.000
;AFTER_LAYER_CHANGE
;0.2
G1 E-4.00000 F4800.00000
G1 Z0.800 F10800.000
G1 X40.696 Y13.720
G1 Z0.200
G1 E4.00000 F3000.00000
M204 S1000
G1 F1200
G1 X42.005 Y12.446 E0.05727
G1 X42.755 Y11.914 E0.02884
G1 X43.570 Y11.460 E0.02924
G1 X45.117 Y10.897 E0.05162
G1 X45.994 Y10.730 E0.02800
G1 X46.911 Y10.665 E0.02882
G1 X203.005 Y10.664 E4.89423
G1 X204.611 Y10.834 E0.05062
G1 X205.466 Y11.067 E0.02779
G1 X206.321 Y11.408 E0.02888
G1 X207.714 Y12.233 E0.05076
G1 X209.083 Y13.467 E0.05777
G1 X210.172 Y14.921 E0.05696
G1 X211.008 Y16.594 E0.05865
G1 X211.611 Y18.661 E0.06750
G1 X211.829 Y20.559 E0.05989
G1 X211.836 Y189.062 E5.28329
G1 X211.641 Y191.182 E0.06675
G1 X211.160 Y193.002 E0.05902
G1 X210.387 Y194.713 E0.05887
G1 X209.304 Y196.280 E0.05974
G1 X207.991 Y197.557 E0.05744
G1 X207.233 Y198.095 E0.02913
G1 X206.416 Y198.547 E0.02927
G1 X204.863 Y199.108 E0.05178
G1 X203.986 Y199.273 E0.02799
G1 X203.034 Y199.336 E0.02991
G1 X46.943 Y199.336 E4.89411
G1 X45.504 Y199.190 E0.04535
G1 X44.124 Y198.784 E0.04511
G1 X42.812 Y198.122 E0.04607
G1 X41.664 Y197.269 E0.04486
G1 X40.900 Y196.514 E0.03366
G1 X40.119 Y195.524 E0.03955
G1 X39.572 Y194.639 E0.03261
G1 X39.060 Y193.571 E0.03716
G1 X38.689 Y192.542 E0.03430
G1 X38.381 Y191.299 E0.04015
G1 X38.232 Y190.292 E0.03192
G1 X38.164 Y189.035 E0.03945
G1 X38.164 Y20.938 E5.27056
G1 X38.361 Y18.807 E0.06712
G1 X38.840 Y16.998 E0.05865
G1 X39.610 Y15.292 E0.05870
G1 X40.662 Y13.769 E0.05802
G1 X40.946 Y14.014 F10800.000
G1 F1200
G1 X41.248 Y13.663 E0.01452
G1 X41.766 Y13.147 E0.02293
G1 X42.225 Y12.752 E0.01897
G1 X42.839 Y12.308 E0.02377
G1 X43.322 Y12.014 E0.01772
G1 X44.138 Y11.617 E0.02846
G1 X44.704 Y11.408 E0.01892
G1 X45.522 Y11.191 E0.02653
G1 X46.208 Y11.084 E0.02179
G1 X46.881 Y11.043 E0.02113
G1 X113.343 Y11.048 E2.08386
G1 X114.262 Y11.151 E0.02899
G1 X115.024 Y11.325 E0.02451
G1 X115.853 Y11.614 E0.02753
G1 X116.656 Y12.002 E0.02798
G1 X117.396 Y12.468 E0.02739
G1 X118.079 Y13.007 E0.02730
G1 X118.730 Y13.639 E0.02843
G1 X119.299 Y14.316 E0.02774
G1 X119.679 Y14.852 E0.02060
G1 X120.140 Y15.622 E0.02813
G1 X120.588 Y16.564 E0.03270
G1 X120.918 Y17.461 E0.02999
G1 X121.268 Y18.873 E0.04560
G1 X121.399 Y19.810 E0.02967
G1 X121.457 Y20.870 E0.03327
G1 X121.459 Y189.037 E5.27276
G1 X121.421 Y189.960 E0.02897
G1 X121.329 Y190.759 E0.02522
G1 X121.183 Y191.548 E0.02516
G1 X120.962 Y192.395 E0.02743
G1 X120.673 Y193.228 E0.02765
G1 X120.239 Y194.190 E0.03310
G1 X119.848 Y194.885 E0.02501
G1 X119.410 Y195.537 E0.02462
G1 X118.779 Y196.307 E0.03121
G1 X118.055 Y197.015 E0.03175
G1 X117.426 Y197.510 E0.02509
G1 X116.755 Y197.942 E0.02504
G1 X115.926 Y198.356 E0.02903
G1 X114.788 Y198.739 E0.03768
G1 X114.126 Y198.872 E0.02115
G1 X113.486 Y198.943 E0.02020
G1 X46.653 Y198.952 E2.09552
G1 X45.508 Y198.807 E0.03618
G1 X44.953 Y198.668 E0.01792
G1 X44.324 Y198.458 E0.02079
G1 X43.248 Y197.944 E0.03739
G1 X42.524 Y197.475 E0.02707
G1 X41.835 Y196.917 E0.02778
G1 X41.238 Y196.326 E0.02634
G1 X40.720 Y195.708 E0.02529
G1 X40.331 Y195.165 E0.02094
G1 X39.952 Y194.548 E0.02271
G1 X39.416 Y193.444 E0.03849
G1 X39.024 Y192.347 E0.03651
G1 X38.769 Y191.318 E0.03325
G1 X38.621 Y190.384 E0.02967
G1 X38.541 Y189.050 E0.04188
G1 X38.541 Y20.961 E5.27031
G1 X38.580 Y20.032 E0.02917
G1 X38.691 Y19.119 E0.02884
G1 X38.938 Y17.957 E0.03724
G1 X39.304 Y16.835 E0.03702
G1 X39.729 Y15.872 E0.03300
G1 X39.986 Y15.395 E0.01700
G1 X40.440 Y14.674 E0.02671
G1 X40.907 Y14.060 E0.02419
G1 X41.193 Y14.305 F10800.000
G1 F1200
G1 X41.520 Y13.925 E0.01572
G1 X42.027 Y13.419 E0.02247
G1 X42.464 Y13.044 E0.01805
G1 X43.054 Y12.618 E0.02280
G1 X43.510 Y12.340 E0.01675
G1 X44.278 Y11.968 E0.02677
G1 X44.809 Y11.770 E0.01777
G1 X45.609 Y11.558 E0.02592
G1 X46.240 Y11.460 E0.02005
G1 X46.887 Y11.420 E0.02031
G1 X113.332 Y11.425 E2.08333
G1 X114.208 Y11.525 E0.02765
G1 X114.929 Y11.690 E0.02318
G1 X115.718 Y11.966 E0.02622
G1 X116.482 Y12.337 E0.02662
G1 X117.186 Y12.781 E0.02609
G1 X117.838 Y13.297 E0.02606
G1 X118.459 Y13.903 E0.02722
G1 X119.005 Y14.553 E0.02662
G1 X119.360 Y15.052 E0.01920
G1 X119.803 Y15.792 E0.02705
G1 X120.243 Y16.718 E0.03214
G1 X120.560 Y17.582 E0.02885
G1 X120.896 Y18.935 E0.04372
G1 X121.023 Y19.839 E0.02861
G1 X121.080 Y20.885 E0.03286
G1 X121.082 Y189.033 E5.27216
G1 X121.045 Y189.924 E0.02797
G1 X120.957 Y190.697 E0.02440
G1 X120.813 Y191.473 E0.02474
G1 X120.599 Y192.292 E0.02655
G1 X120.320 Y193.096 E0.02669
G1 X119.906 Y194.013 E0.03153
G1 X119.531 Y194.681 E0.02404
G1 X119.102 Y195.319 E0.02410
G1 X118.494 Y196.060 E0.03004
G1 X117.813 Y196.725 E0.02985
G1 X117.215 Y197.198 E0.02392
G1 X116.560 Y197.620 E0.02442
G1 X115.770 Y198.013 E0.02765
G1 X114.702 Y198.372 E0.03533
G1 X114.060 Y198.500 E0.02051
G1 X113.455 Y198.567 E0.01910
G1 X46.664 Y198.575 E2.09417
G1 X45.588 Y198.439 E0.03402
G1 X45.066 Y198.308 E0.01688
G1 X44.455 Y198.104 E0.02020
G1 X43.443 Y197.621 E0.03515
G1 X42.738 Y197.164 E0.02637
G1 X42.080 Y196.630 E0.02654
G1 X41.522 Y196.077 E0.02466
G1 X41.013 Y195.471 E0.02479
G1 X40.649 Y194.962 E0.01965
G1 X40.287 Y194.374 E0.02162
G1 X39.759 Y193.288 E0.03787
G1 X39.388 Y192.247 E0.03465
G1 X39.137 Y191.235 E0.03270
G1 X38.995 Y190.334 E0.02862
G1 X38.918 Y189.045 E0.04049
G1 X38.918 Y20.965 E5.27001
G1 X38.955 Y20.069 E0.02811
G1 X39.062 Y19.189 E0.02782
G1 X39.300 Y18.064 E0.03603
G1 X39.659 Y16.960 E0.03640
G1 X40.064 Y16.044 E0.03141
G1 X40.309 Y15.590 E0.01619
G1 X40.747 Y14.893 E0.02578
G1 X41.154 Y14.351 E0.02127
G1 X41.448 Y14.586 F10800.000
G1 F1200
G1 X41.791 Y14.187 E0.01649
G1 X42.288 Y13.691 E0.02202
G1 X42.703 Y13.336 E0.01712
G1 X43.268 Y12.929 E0.02183
G1 X43.698 Y12.667 E0.01579
G1 X44.419 Y12.318 E0.02511
G1 X44.915 Y12.132 E0.01661
G1 X45.695 Y11.925 E0.02531
G1 X46.273 Y11.836 E0.01831
G1 X46.893 Y11.797 E0.01948
G1 X113.321 Y11.802 E2.08280
G1 X114.154 Y11.898 E0.02630
G1 X114.833 Y12.055 E0.02185
G1 X115.583 Y12.318 E0.02490
G1 X116.307 Y12.671 E0.02527
G1 X116.975 Y13.094 E0.02480
G1 X117.596 Y13.586 E0.02482
G1 X118.189 Y14.166 E0.02601
G1 X118.711 Y14.789 E0.02550
G1 X119.040 Y15.252 E0.01782
G1 X119.467 Y15.963 E0.02597
G1 X119.899 Y16.872 E0.03157
G1 X120.203 Y17.702 E0.02770
G1 X120.524 Y18.997 E0.04186
G1 X120.647 Y19.867 E0.02755
G1 X120.703 Y20.900 E0.03244
G1 X120.705 Y189.029 E5.27155
G1 X120.670 Y189.888 E0.02696
G1 X120.583 Y190.648 E0.02398
G1 X120.444 Y191.397 E0.02390
G1 X120.236 Y192.189 E0.02566
G1 X119.966 Y192.964 E0.02574
G1 X119.574 Y193.836 E0.02996
G1 X119.206 Y194.490 E0.02353
G1 X118.794 Y195.101 E0.02311
G1 X118.223 Y195.798 E0.02825
G1 X117.571 Y196.436 E0.02859
G1 X116.988 Y196.897 E0.02331
G1 X116.365 Y197.297 E0.02322
G1 X115.614 Y197.669 E0.02628
G1 X114.616 Y198.005 E0.03300
G1 X113.995 Y198.129 E0.01987
G1 X113.424 Y198.191 E0.01800
G1 X46.676 Y198.198 E2.09283
G1 X45.668 Y198.070 E0.03186
G1 X45.178 Y197.948 E0.01583
G1 X44.585 Y197.750 E0.01960
G1 X43.638 Y197.298 E0.03291
G1 X42.951 Y196.853 E0.02566
G1 X42.326 Y196.344 E0.02529
G1 X41.793 Y195.816 E0.02351
G1 X41.307 Y195.235 E0.02375
G1 X40.967 Y194.758 E0.01836
G1 X40.613 Y194.185 E0.02112
G1 X40.103 Y193.133 E0.03666
G1 X39.752 Y192.148 E0.03280
G1 X39.505 Y191.153 E0.03214
G1 X39.369 Y190.284 E0.02756
G1 X39.295 Y189.039 E0.03911
G1 X39.295 Y20.969 E5.26972
G1 X39.331 Y20.107 E0.02706
G1 X39.432 Y19.258 E0.02680
G1 X39.666 Y18.152 E0.03545
G1 X40.015 Y17.087 E0.03515
G1 X40.400 Y16.217 E0.02984
G1 X40.632 Y15.785 E0.01537
G1 X41.053 Y15.113 E0.02485
G1 X41.412 Y14.634 E0.01878
G1 X41.714 Y14.860 F10800.000
G1 F1200
G1 X42.063 Y14.449 E0.01690
G1 X42.549 Y13.963 E0.02156
G1 X42.942 Y13.628 E0.01619
G1 X43.482 Y13.239 E0.02086
G1 X43.886 Y12.994 E0.01482
G1 X44.560 Y12.667 E0.02347
G1 X45.021 Y12.494 E0.01545
G1 X45.782 Y12.292 E0.02469
G1 X46.305 Y12.212 E0.01659
G1 X46.899 Y12.174 E0.01866
G1 X113.310 Y12.180 E2.08227
G1 X114.100 Y12.271 E0.02495
G1 X114.718 Y12.414 E0.01989
G1 X115.447 Y12.670 E0.02423
G1 X116.132 Y13.005 E0.02389
G1 X116.765 Y13.407 E0.02350
G1 X117.353 Y13.875 E0.02358
G1 X117.918 Y14.428 E0.02480
G1 X118.417 Y15.025 E0.02439
G1 X118.721 Y15.453 E0.01645
G1 X119.130 Y16.133 E0.02488
G1 X119.555 Y17.026 E0.03100
G1 X119.845 Y17.821 E0.02655
G1 X120.152 Y19.060 E0.04002
G1 X120.271 Y19.896 E0.02648
G1 X120.327 Y20.916 E0.03202
G1 X120.328 Y189.025 E5.27095
G1 X120.294 Y189.852 E0.02595
G1 X120.211 Y190.586 E0.02314
G1 X120.074 Y191.322 E0.02347
G1 X119.873 Y192.086 E0.02477
G1 X119.613 Y192.832 E0.02479
G1 X119.241 Y193.658 E0.02841
G1 X118.889 Y194.286 E0.02255
G1 X118.486 Y194.883 E0.02258
G1 X117.938 Y195.550 E0.02709
G1 X117.329 Y196.146 E0.02671
G1 X116.776 Y196.585 E0.02212
G1 X116.170 Y196.973 E0.02259
G1 X115.458 Y197.325 E0.02489
G1 X114.531 Y197.637 E0.03069
G1 X113.929 Y197.757 E0.01923
G1 X113.394 Y197.815 E0.01689
G1 X46.688 Y197.820 E2.09151
G1 X45.748 Y197.701 E0.02972
G1 X45.290 Y197.588 E0.01478
G1 X44.716 Y197.396 E0.01900
G1 X43.832 Y196.975 E0.03068
G1 X43.181 Y196.554 E0.02431
G1 X42.571 Y196.057 E0.02467
G1 X42.066 Y195.555 E0.02235
G1 X41.601 Y194.999 E0.02272
G1 X41.284 Y194.555 E0.01708
G1 X40.940 Y193.995 E0.02062
G1 X40.447 Y192.978 E0.03544
G1 X40.116 Y192.048 E0.03095
G1 X39.873 Y191.070 E0.03159
G1 X39.742 Y190.235 E0.02650
G1 X39.672 Y189.034 E0.03773
G1 X39.672 Y20.973 E5.26942
G1 X39.706 Y20.144 E0.02601
G1 X39.803 Y19.328 E0.02578
G1 X40.028 Y18.260 E0.03422
G1 X40.370 Y17.213 E0.03453
G1 X40.735 Y16.389 E0.02827
G1 X40.955 Y15.979 E0.01456
G1 X41.360 Y15.333 E0.02391
G1 X41.678 Y14.908 E0.01665
G1 E-2.40000 F4800.00000
G1 F8640
G1 X42.063 Y14.449 E-0.31606
G1 X42.549 Y13.963 E-0.36287
G1 X42.942 Y13.628 E-0.27245
G1 X43.482 Y13.239 E-0.35118
G1 X43.834 Y13.026 E-0.21744
G1 E-0.08000 F4800.00000
G1 Z0.800 F10800.000
G1 X40.395 Y18.348
G1 Z0.200
G1 E4.00000 F3000.00000
G1 F1200
G1 X40.725 Y17.340 E0.03326
G1 X41.071 Y16.560 E0.02673
G1 X41.278 Y16.174 E0.01376
G1 X41.666 Y15.552 E0.02297
G1 X42.044 Y15.048 E0.01977
G1 X42.334 Y14.710 E0.01394
G1 X42.810 Y14.235 E0.02109
G1 X43.180 Y13.920 E0.01524
G1 X43.696 Y13.550 E0.01990
G1 X44.074 Y13.321 E0.01385
G1 X44.701 Y13.017 E0.02187
G1 X45.127 Y12.856 E0.01427
G1 X45.869 Y12.659 E0.02407
G1 X46.338 Y12.588 E0.01486
G1 X46.905 Y12.551 E0.01783
G1 X113.299 Y12.557 E2.08173
G1 X114.046 Y12.644 E0.02358
G1 X114.604 Y12.774 E0.01796
G1 X115.292 Y13.014 E0.02285
G1 X115.957 Y13.339 E0.02320
G1 X116.553 Y13.719 E0.02219
G1 X117.110 Y14.164 E0.02234
G1 X117.647 Y14.691 E0.02359
G1 X118.123 Y15.261 E0.02328
G1 X118.402 Y15.654 E0.01511
G1 X118.794 Y16.303 E0.02379
G1 X119.210 Y17.180 E0.03042
G1 X119.487 Y17.941 E0.02539
G1 X119.780 Y19.123 E0.03819
G1 X119.895 Y19.925 E0.02541
G1 X119.950 Y20.931 E0.03160
G1 X119.951 Y189.021 E5.27035
G1 X119.919 Y189.816 E0.02495
G1 X119.837 Y190.536 E0.02271
G1 X119.705 Y191.246 E0.02263
G1 X119.511 Y191.982 E0.02388
G1 X119.260 Y192.700 E0.02384
G1 X118.908 Y193.481 E0.02686
G1 X118.564 Y194.094 E0.02204
G1 X118.179 Y194.665 E0.02157
G1 X117.667 Y195.288 E0.02531
G1 X117.087 Y195.857 E0.02546
G1 X116.550 Y196.283 E0.02150
G1 X115.976 Y196.650 E0.02136
G1 X115.303 Y196.982 E0.02351
G1 X114.445 Y197.270 E0.02838
G1 X113.864 Y197.386 E0.01858
G1 X113.364 Y197.439 E0.01577
G1 X46.700 Y197.443 E2.09019
G1 X45.827 Y197.333 E0.02758
G1 X45.402 Y197.228 E0.01372
G1 X44.846 Y197.042 E0.01839
G1 X44.026 Y196.652 E0.02847
G1 X43.411 Y196.255 E0.02295
G1 X42.817 Y195.771 E0.02404
G1 X42.338 Y195.294 E0.02118
G1 X41.895 Y194.763 E0.02169
G1 X41.602 Y194.352 E0.01581
G1 X41.266 Y193.806 E0.02012
G1 X40.791 Y192.823 E0.03422
G1 X40.479 Y191.948 E0.02912
G1 X40.241 Y190.987 E0.03104
G1 X40.116 Y190.186 E0.02543
G1 X40.049 Y189.028 E0.03637
G1 X40.049 Y20.977 E5.26914
G1 X40.081 Y20.181 E0.02497
G1 X40.174 Y19.397 E0.02475
G1 X40.383 Y18.406 E0.03174
G1 X40.751 Y18.484 F10800.000
G1 F1200
G1 X41.081 Y17.466 E0.03354
G1 X41.407 Y16.732 E0.02518
G1 X41.602 Y16.368 E0.01296
G1 X41.973 Y15.772 E0.02201
G1 X42.342 Y15.279 E0.01932
G1 X42.606 Y14.972 E0.01267
G1 X43.071 Y14.508 E0.02062
G1 X43.418 Y14.213 E0.01428
G1 X43.909 Y13.861 E0.01893
G1 X44.261 Y13.649 E0.01289
G1 X44.844 Y13.366 E0.02029
G1 X45.233 Y13.218 E0.01308
G1 X45.956 Y13.027 E0.02343
G1 X46.370 Y12.963 E0.01315
G1 X46.911 Y12.928 E0.01700
G1 X113.287 Y12.934 E2.08118
G1 X113.991 Y13.018 E0.02221
G1 X114.490 Y13.133 E0.01607
G1 X115.137 Y13.358 E0.02146
G1 X115.781 Y13.673 E0.02249
G1 X116.341 Y14.032 E0.02086
G1 X116.867 Y14.452 E0.02111
G1 X117.376 Y14.953 E0.02238
G1 X117.828 Y15.496 E0.02217
G1 X118.083 Y15.855 E0.01379
G1 X118.457 Y16.474 E0.02268
G1 X118.866 Y17.333 E0.02983
G1 X119.129 Y18.060 E0.02423
G1 X119.409 Y19.186 E0.03638
G1 X119.519 Y19.954 E0.02433
G1 X119.573 Y20.947 E0.03117
G1 X119.574 Y189.018 E5.26975
G1 X119.543 Y189.781 E0.02395
G1 X119.465 Y190.474 E0.02187
G1 X119.336 Y191.170 E0.02219
G1 X119.148 Y191.878 E0.02299
G1 X118.907 Y192.567 E0.02289
G1 X118.575 Y193.304 E0.02533
G1 X118.247 Y193.890 E0.02105
G1 X117.871 Y194.446 E0.02104
G1 X117.382 Y195.041 E0.02415
G1 X116.845 Y195.568 E0.02360
G1 X116.338 Y195.971 E0.02028
G1 X115.782 Y196.327 E0.02071
G1 X115.148 Y196.637 E0.02212
G1 X114.360 Y196.902 E0.02609
G1 X113.799 Y197.014 E0.01793
G1 X113.334 Y197.063 E0.01464
G1 X46.712 Y197.066 E2.08889
G1 X45.906 Y196.964 E0.02546
G1 X45.514 Y196.868 E0.01265
G1 X44.976 Y196.688 E0.01778
G1 X44.220 Y196.328 E0.02627
G1 X43.640 Y195.955 E0.02160
G1 X43.076 Y195.497 E0.02280
G1 X42.611 Y195.033 E0.02060
G1 X42.190 Y194.527 E0.02065
G1 X41.920 Y194.149 E0.01456
G1 X41.592 Y193.616 E0.01961
G1 X41.135 Y192.669 E0.03299
G1 X40.843 Y191.848 E0.02729
G1 X40.609 Y190.905 E0.03048
G1 X40.491 Y190.137 E0.02435
G1 X40.426 Y189.023 E0.03501
G1 X40.426 Y20.980 E5.26885
G1 X40.457 Y20.217 E0.02394
G1 X40.545 Y19.466 E0.02372
G1 X40.738 Y18.542 E0.02959
G1 X41.107 Y18.620 F10800.000
G1 F1200
G1 X41.436 Y17.593 E0.03379
G1 X41.743 Y16.904 E0.02366
G1 X41.925 Y16.561 E0.01216
G1 X42.280 Y15.991 E0.02105
G1 X42.640 Y15.510 E0.01886
G1 X42.887 Y15.224 E0.01184
G1 X43.332 Y14.780 E0.01971
G1 X43.644 Y14.515 E0.01285
G1 X44.123 Y14.172 E0.01844
G1 X44.448 Y13.977 E0.01191
G1 X45.000 Y13.710 E0.01923
G1 X45.358 Y13.574 E0.01200
G1 X46.023 Y13.398 E0.02159
G1 X46.403 Y13.339 E0.01205
G1 X46.930 Y13.305 E0.01654
G1 X113.276 Y13.311 E2.08024
G1 X113.935 Y13.391 E0.02082
G1 X114.377 Y13.493 E0.01421
G1 X114.982 Y13.702 E0.02009
G1 X115.587 Y13.996 E0.02110
G1 X116.130 Y14.344 E0.02019
G1 X116.624 Y14.740 E0.01986
G1 X117.104 Y15.214 E0.02117
G1 X117.533 Y15.731 E0.02107
G1 X117.764 Y16.056 E0.01249
