;FLAVOR:RepRap
;TIME:3172
;Filament used: 2.47379m
;Layer height: 0.175
;Generated with Cura_SteamEngine 2.4.0
M190 S104

G21 ;metric values
G90 ;absolute positioning
M82 ;set extruder to absolute mode
M107 ;start with the fan off
G28 ;Home all axes (max endstops)

M0 Add PROBE
M117 Auto leveling...
G29   ; DAQ -- auto level
M500
G1 x0 y0
M0 Remove PROBE

M104 S240
M109 S240

G1 Z75.0 F9000 ;move the platform down 15mm
G92 E0 ;zero the extruded length
G1 F200 E3 ;extrude 3mm of feed stock
G92 E0 ;zero the extruded length again

G1 Z100 F9000
M0 CLEAN ME...

M106 S191 ;	Turn fan on 50% power

G1 F9000
M117 Printing...
;LAYER_COUNT:57
;LAYER:0
M107
G1 F1500 E-6.5
G1 Z21
G0 F3600 X-1.003 Y37.183 Z1.2
;TYPE:SKIRT
G1 Z0.2
G1 F1500 E0
G1 F1800 X-6.498 Y37.397 E0.1829
G1 X-6.634 Y37.4 E0.18743
G1 X-18.072 Y37.385 E0.56786
G1 X-18.592 Y37.344 E0.58521
G1 X-19.099 Y37.225 E0.60253
G1 X-19.582 Y37.029 E0.61986
G1 X-19.897 Y36.851 E0.6319
G1 X-22.758 Y35.026 E0.74477
G1 X-27.512 Y32.283 E0.92732
G1 X-32.382 Y29.829 E1.1087
G1 X-37.424 Y27.637 E1.29156
G1 X-39.976 Y26.653 E1.38253
G1 X-42.502 Y25.764 E1.47159
G1 X-47.742 Y24.16 E1.65386
G1 X-54.411 Y22.561 E1.88196
G1 X-54.907 Y22.401 E1.89929
G1 X-55.373 Y22.167 E1.91664
G1 X-55.797 Y21.865 E1.93395
G1 X-56.17 Y21.501 E1.95128
G1 X-56.484 Y21.085 E1.96862
G1 X-56.73 Y20.625 E1.98597
G1 X-56.902 Y20.134 E2.00327
G1 X-56.998 Y19.621 E2.02063
G1 X-57.018 Y19.255 E2.03282
G1 X-57.017 Y-19.127 E3.30941
G1 X-56.977 Y-19.647 E3.32676
G1 X-56.858 Y-20.154 E3.34408
G1 X-56.663 Y-20.637 E3.36141
G1 X-56.396 Y-21.085 E3.37875
G1 X-56.065 Y-21.487 E3.39607
G1 X-55.675 Y-21.833 E3.41341
G1 X-55.237 Y-22.116 E3.43076
G1 X-54.95 Y-22.255 E3.44136
G1 X-50.652 Y-24.088 E3.59677
G1 X-45.746 Y-26.482 E3.77834
G1 X-40.996 Y-29.143 E3.95943
G1 X-36.368 Y-32.09 E4.14191
G1 X-31.9 Y-35.306 E4.32501
G1 X-30.155 Y-36.669 E4.39866
G1 X-29.721 Y-36.958 E4.416
G1 X-29.248 Y-37.176 E4.43332
G1 X-28.747 Y-37.32 E4.45066
G1 X-28.062 Y-37.39 E4.47356
G1 X28.695 Y-37.39 E6.36131
G1 X29.215 Y-37.35 E6.37865
G1 X29.722 Y-37.231 E6.39597
G1 X30.205 Y-37.036 E6.4133
G1 X30.739 Y-36.707 E6.43416
G1 X36.505 Y-32.368 E6.67417
G1 X41.063 Y-29.376 E6.85552
G1 X45.782 Y-26.647 E7.03683
G1 X50.673 Y-24.176 E7.21908
G1 X54.993 Y-22.266 E7.37618
G1 X55.452 Y-22.019 E7.39352
G1 X55.868 Y-21.705 E7.41086
G1 X56.231 Y-21.331 E7.42819
G1 X56.533 Y-20.906 E7.44553
G1 X56.766 Y-20.44 E7.46286
G1 X56.925 Y-19.944 E7.48018
G1 X57.007 Y-19.429 E7.49753
G1 X57.018 Y-19.156 E7.50662
G1 X57.017 Y19.228 E8.78327
G1 X56.977 Y19.748 E8.80062
G1 X56.858 Y20.255 E8.81794
G1 X56.663 Y20.738 E8.83527
G1 X56.396 Y21.186 E8.85261
G1 X56.065 Y21.588 E8.86993
G1 X55.675 Y21.934 E8.88727
G1 X55.237 Y22.217 E8.90462
G1 X54.762 Y22.43 E8.92193
G1 X54.404 Y22.536 E8.93435
G1 X49.94 Y23.598 E9.08697
G1 X44.687 Y25.133 E9.26899
G1 X39.523 Y26.963 E9.45121
G1 X34.508 Y29.067 E9.63209
G1 X29.573 Y31.475 E9.81473
G1 X24.823 Y34.135 E9.9958
G1 X20.513 Y36.862 E10.16544
G1 X20.052 Y37.106 E10.18278
G1 X19.56 Y37.277 E10.20011
G1 X19.047 Y37.371 E10.21745
G1 X18.695 Y37.389 E10.22918
G1 X6.936 Y37.39 E10.62028
G1 X6.752 Y37.385 E10.62641
G1 X4.519 Y37.264 E10.70078
G1 X-1.003 Y37.183 E10.88447
G0 F3600 X-.993 Y36.783
G1 F1800 X-6.513 Y36.998 E11.0682
G1 X-6.634 Y37 E11.07223
G1 X-18.072 Y36.985 E11.45266
G1 X-18.56 Y36.944 E11.46894
G1 X-19.034 Y36.825 E11.4852
G1 X-19.682 Y36.514 E11.50911
G1 X-22.548 Y34.685 E11.62219
G1 X-27.325 Y31.93 E11.8056
G1 X-32.221 Y29.463 E11.98795
G1 X-37.261 Y27.272 E12.17073
G1 X-39.836 Y26.278 E12.26254
G1 X-42.371 Y25.386 E12.35192
G1 X-47.644 Y23.773 E12.53532
G1 X-54.318 Y22.172 E12.7636
G1 X-54.783 Y22.02 E12.77987
G1 X-55.217 Y21.793 E12.79616
G1 X-55.608 Y21.5 E12.81241
G1 X-55.947 Y21.146 E12.82871
G1 X-56.223 Y20.742 E12.84498
G1 X-56.431 Y20.299 E12.86126
G1 X-56.563 Y19.828 E12.87753
G1 X-56.618 Y19.255 E12.89668
G1 X-56.617 Y-19.127 E14.17327
G1 X-56.577 Y-19.615 E14.18955
G1 X-56.458 Y-20.09 E14.20584
G1 X-56.264 Y-20.539 E14.22211
G1 X-55.999 Y-20.951 E14.2384
G1 X-55.671 Y-21.314 E14.25467
G1 X-55.288 Y-21.619 E14.27096
G1 X-54.794 Y-21.887 E14.28965
G1 X-50.491 Y-23.721 E14.44522
G1 X-45.555 Y-26.131 E14.62792
G1 X-40.778 Y-28.806 E14.81002
G1 X-36.145 Y-31.758 E14.99273
G1 X-31.676 Y-34.973 E15.17584
G1 X-29.909 Y-36.354 E15.25043
G1 X-29.5 Y-36.623 E15.26671
G1 X-29.053 Y-36.822 E15.28299
G1 X-28.579 Y-36.945 E15.29927
G1 X-28.062 Y-36.99 E15.31653
G1 X28.695 Y-36.99 E17.20428
G1 X29.183 Y-36.95 E17.22057
G1 X29.658 Y-36.831 E17.23685
G1 X30.107 Y-36.637 E17.25312
G1 X30.499 Y-36.387 E17.26858
G1 X36.274 Y-32.041 E17.50898
G1 X40.849 Y-29.038 E17.69099
G1 X45.595 Y-26.294 E17.87333
G1 X50.509 Y-23.811 E18.05645
G1 X54.831 Y-21.9 E18.21363
G1 X55.261 Y-21.666 E18.22991
G1 X55.647 Y-21.365 E18.24619
G1 X55.98 Y-21.006 E18.26247
G1 X56.249 Y-20.597 E18.27876
G1 X56.448 Y-20.15 E18.29503
G1 X56.572 Y-19.677 E18.31129
G1 X56.618 Y-19.156 E18.32869
G1 X56.617 Y19.228 E19.60535
G1 X56.577 Y19.716 E19.62163
G1 X56.458 Y20.191 E19.63792
G1 X56.264 Y20.64 E19.65419
G1 X55.999 Y21.052 E19.67048
G1 X55.671 Y21.415 E19.68675
G1 X55.288 Y21.72 E19.70304
G1 X54.86 Y21.958 E19.71933
G1 X54.311 Y22.147 E19.73864
G1 X49.837 Y23.212 E19.8916
G1 X44.562 Y24.752 E20.07437
G1 X39.377 Y26.591 E20.25735
G1 X34.335 Y28.706 E20.43921
G1 X29.402 Y31.112 E20.62175
G1 X24.614 Y33.794 E20.80428
G1 X20.299 Y36.524 E20.97411
G1 X19.865 Y36.751 E20.9904
G1 X19.401 Y36.905 E21.00666
G1 X18.695 Y36.989 E21.03031
G1 X6.936 Y36.99 E21.42142
G1 X6.774 Y36.986 E21.42681
G1 X4.522 Y36.864 E21.50182
G1 X-.993 Y36.783 E21.68527
G0 F3600 X-1.003 Y36.383
G1 F1800 X-6.529 Y36.598 E21.8692
G1 X-6.633 Y36.6 E21.87266
G1 X-18.071 Y36.585 E22.25309
G1 X-18.525 Y36.544 E22.26825
G1 X-18.965 Y36.425 E22.28341
G1 X-19.467 Y36.177 E22.30204
G1 X-22.355 Y34.334 E22.41598
G1 X-27.123 Y31.584 E22.59906
G1 X-32.054 Y29.099 E22.78271
G1 X-37.106 Y26.903 E22.96593
G1 X-39.695 Y25.904 E23.05823
G1 X-42.262 Y25.001 E23.14873
G1 X-47.534 Y23.387 E23.33212
G1 X-54.224 Y21.783 E23.56093
G1 X-54.656 Y21.639 E23.57608
G1 X-55.057 Y21.421 E23.59126
G1 X-55.413 Y21.136 E23.60643
G1 X-55.713 Y20.794 E23.62156
G1 X-55.95 Y20.405 E23.63671
G1 X-56.115 Y19.98 E23.65187
G1 X-56.203 Y19.533 E23.66702
G1 X-56.218 Y19.255 E23.67628
G1 X-56.217 Y-19.127 E24.95287
G1 X-56.177 Y-19.581 E24.96803
G1 X-56.059 Y-20.021 E24.98318
G1 X-55.865 Y-20.433 E24.99833
G1 X-55.602 Y-20.806 E25.01351
G1 X-55.279 Y-21.127 E25.02866
G1 X-54.904 Y-21.386 E25.04381
G1 X-54.637 Y-21.519 E25.05374
G1 X-50.33 Y-23.355 E25.20946
G1 X-45.37 Y-25.776 E25.39303
G1 X-40.573 Y-28.463 E25.57591
G1 X-35.918 Y-31.428 E25.75947
G1 X-31.441 Y-34.65 E25.94293
G1 X-29.663 Y-36.039 E26.01797
G1 X-29.28 Y-36.287 E26.03315
G1 X-28.861 Y-36.464 E26.04828
G1 X-28.417 Y-36.566 E26.06343
G1 X-28.062 Y-36.59 E26.07526
G1 X28.695 Y-36.59 E27.96301
G1 X29.149 Y-36.55 E27.97817
G1 X29.589 Y-36.432 E27.99332
G1 X30.001 Y-36.238 E28.00847
G1 X30.258 Y-36.067 E28.01873
G1 X36.029 Y-31.724 E28.25896
G1 X40.65 Y-28.691 E28.4428
G1 X45.399 Y-25.945 E28.62526
G1 X50.346 Y-23.445 E28.80961
G1 X54.669 Y-21.534 E28.96682
G1 X55.068 Y-21.314 E28.98197
G1 X55.423 Y-21.028 E28.99714
G1 X55.722 Y-20.684 E29.0123
G1 X55.956 Y-20.293 E29.02745
G1 X56.119 Y-19.867 E29.04262
G1 X56.205 Y-19.42 E29.05776
G1 X56.218 Y-19.156 E29.06655
G1 X56.217 Y19.228 E30.34321
G1 X56.177 Y19.682 E30.35837
G1 X56.059 Y20.122 E30.37352
G1 X55.865 Y20.534 E30.38867
G1 X55.602 Y20.907 E30.40385
G1 X55.279 Y21.228 E30.41899
G1 X54.904 Y21.487 E30.43415
G1 X54.49 Y21.677 E30.4493
G1 X54.219 Y21.757 E30.4587
G1 X49.748 Y22.821 E30.61156
G1 X44.443 Y24.37 E30.79537
G1 X39.247 Y26.213 E30.97874
G1 X34.163 Y28.345 E31.1621
G1 X29.211 Y30.761 E31.34536
G1 X24.405 Y33.453 E31.52858
G1 X20.085 Y36.186 E31.6986
G1 X19.68 Y36.395 E31.71376
G1 X19.245 Y36.53 E31.72891
G1 X18.695 Y36.589 E31.74731
G1 X6.936 Y36.59 E32.13841
G1 X6.796 Y36.586 E32.14307
G1 X4.549 Y36.464 E32.21792
G1 X-1.003 Y36.383 E32.4026
G0 F3600 X-1.013 Y35.983
G1 F1800 X-6.544 Y36.198 E32.5867
G1 X-6.633 Y36.2 E32.58966
G1 X-18.071 Y36.185 E32.97009
G1 X-18.488 Y36.145 E32.98402
G1 X-18.89 Y36.026 E32.99796
G1 X-19.251 Y35.84 E33.01147
G1 X-22.135 Y34 E33.12525
G1 X-26.936 Y31.23 E33.30961
G1 X-31.878 Y28.74 E33.49366
G1 X-36.963 Y26.53 E33.67807
G1 X-39.585 Y25.518 E33.77155
G1 X-42.11 Y24.63 E33.86058
G1 X-47.436 Y23 E34.04583
G1 X-54.131 Y21.394 E34.27482
G1 X-54.527 Y21.258 E34.28875
G1 X-54.891 Y21.049 E34.30271
G1 X-55.208 Y20.776 E34.31662
G1 X-55.467 Y20.447 E34.33055
G1 X-55.66 Y20.074 E34.34452
G1 X-55.778 Y19.672 E34.35845
G1 X-55.818 Y19.255 E34.37239
G1 X-55.817 Y-19.127 E35.64898
G1 X-55.777 Y-19.544 E35.66291
G1 X-55.659 Y-19.946 E35.67685
G1 X-55.466 Y-20.318 E35.69078
G1 X-55.207 Y-20.648 E35.70474
G1 X-54.89 Y-20.921 E35.71865
G1 X-54.48 Y-21.151 E35.73429
G1 X-50.16 Y-22.993 E35.89049
G1 X-45.184 Y-25.422 E36.07466
G1 X-40.376 Y-28.114 E36.25793
G1 X-35.695 Y-31.096 E36.44253
G1 X-31.188 Y-34.34 E36.62722
G1 X-29.416 Y-35.724 E36.70201
G1 X-29.063 Y-35.949 E36.71593
G1 X-28.673 Y-36.103 E36.72988
G1 X-28.062 Y-36.19 E36.7504
G1 X28.695 Y-36.19 E38.63815
G1 X29.112 Y-36.15 E38.65208
G1 X29.514 Y-36.032 E38.66602
G1 X30.018 Y-35.748 E38.68526
G1 X35.818 Y-31.383 E38.92669
G1 X40.423 Y-28.361 E39.10989
G1 X45.218 Y-25.588 E39.29412
G1 X50.167 Y-23.087 E39.47855
G1 X54.508 Y-21.168 E39.63641
G1 X54.873 Y-20.963 E39.65034
G1 X55.193 Y-20.692 E39.66428
G1 X55.456 Y-20.366 E39.67822
G1 X55.652 Y-19.995 E39.69217
G1 X55.774 Y-19.595 E39.70608
G1 X55.818 Y-19.156 E39.72075
G1 X55.817 Y19.228 E40.99741
G1 X55.777 Y19.645 E41.01134
G1 X55.659 Y20.047 E41.02528
G1 X55.466 Y20.419 E41.03922
G1 X55.207 Y20.749 E41.05317
G1 X54.89 Y21.022 E41.06709
G1 X54.526 Y21.231 E41.08105
G1 X54.126 Y21.368 E41.09511
G1 X49.644 Y22.434 E41.24834
G1 X44.318 Y23.99 E41.43289
G1 X39.1 Y25.84 E41.61702
G1 X33.997 Y27.981 E41.80108
G1 X29.025 Y30.407 E41.98509
G1 X24.204 Y33.107 E42.16887
G1 X19.871 Y35.848 E42.3394
G1 X19.497 Y36.037 E42.35334
G1 X19.094 Y36.152 E42.36728
G1 X18.695 Y36.189 E42.3806
G1 X6.936 Y36.19 E42.77171
G1 X6.817 Y36.187 E42.77567
G1 X4.551 Y36.064 E42.85115
G1 X-1.013 Y35.983 E43.03623
G1 F1500 E36.53623
G1 Z1.2
G0 F3600 X-1.6 Y-3.824 Z1.2
;TYPE:WALL-INNER
G1 Z0.2
G1 F1500 E43.03623
G1 F1800 X-7.3 Y-3.821 E43.22581
G1 X-7.3 Y-3.799 E43.22654
G1 X-17.065 Y-3.799 E43.55133
G1 X-17.065 Y-18.199 E44.03027
G1 X-7.3 Y-18.199 E44.35506
G1 X-7.3 Y-8.569 E44.67535
G1 X-6.219 Y-8.461 E44.71149
G1 X-1.6 Y-8.46 E44.86511
G1 X-1.6 Y-3.824 E45.01931
G0 F3600 X-1.2 Y-3.424
G1 F1800 X-6.9 Y-3.421 E45.20889
G1 X-6.9 Y-3.399 E45.20962
G1 X-17.465 Y-3.399 E45.56102
G1 X-17.465 Y-18.599 E46.06657
G1 X-6.9 Y-18.599 E46.41796
G1 X-6.9 Y-8.931 E46.73952
G1 X-6.199 Y-8.861 E46.76295
G1 X-1.2 Y-8.86 E46.92922
G1 X-1.2 Y-3.424 E47.11002
G0 F3600 X-.8 Y-3.024
;TYPE:WALL-OUTER
G1 F1800 X-6.5 Y-3.021 E47.29961
G1 X-6.5 Y-2.999 E47.30034
G1 X-17.865 Y-2.999 E47.67834
G1 X-17.865 Y-18.999 E48.2105
G1 X-6.5 Y-18.999 E48.5885
G1 X-6.5 Y-9.293 E48.91133
G1 X-6.179 Y-9.261 E48.92206
G1 X-.8 Y-9.26 E49.10096
G1 X-.8 Y-3.024 E49.30837
G0 F3600 X-1 Y-3.024
G0 X-1.27 Y-3.494
G0 X-1.779 Y-4.042
;TYPE:SKIN
G1 F1800 X-6.016 Y-8.279 E49.50767
G0 X-6.086 Y-8.349
G0 F3600 X-5.451 Y-8.279
G1 F1800 X-1.779 Y-4.608 E49.68036
G0 X-1.709 Y-4.538
G0 F3600 X-1.779 Y-5.173
G1 F1800 X-4.885 Y-8.279 E49.82646
G0 X-4.955 Y-8.349
G0 F3600 X-4.319 Y-8.279
G1 F1800 X-1.779 Y-5.739 E49.94593
G0 X-1.709 Y-5.669
G0 F3600 X-1.779 Y-6.305
G1 F1800 X-3.754 Y-8.279 E50.03881
G0 X-3.824 Y-8.349
G0 F3600 X-3.188 Y-8.279
G1 F1800 X-1.779 Y-6.87 E50.10508
G0 X-1.709 Y-6.8
G0 F3600 X-1.779 Y-7.436
G1 F1800 X-2.622 Y-8.279 E50.14474
G0 X-2.692 Y-8.349
G0 F3600 X-2.056 Y-8.279
G1 F1800 X-1.779 Y-8.002 E50.15776
G0 F3600 X-2.305 Y-4.002
G1 F1800 X-6.622 Y-8.319 E50.36082
G0 X-6.692 Y-8.389
G0 F3600 X-7.25 Y-8.382
G1 F1800 X-2.871 Y-4.002 E50.56682
G0 X-2.801 Y-3.932
G0 F3600 X-3.437 Y-4.002
G1 F1800 X-16.885 Y-17.45 E51.19937
G0 X-16.955 Y-17.52
G0 F3600 X-16.885 Y-16.885
G1 F1800 X-4.002 Y-4.002 E51.80535
G0 X-3.932 Y-3.932
G0 F3600 X-4.567 Y-4.002
G1 F1800 X-16.885 Y-16.319 E52.38473
G0 X-16.955 Y-16.389
G0 F3600 X-16.885 Y-15.753
G1 F1800 X-5.133 Y-4.002 E52.93748
G0 X-5.063 Y-3.932
G0 F3600 X-5.698 Y-4.001
G1 F1800 X-16.885 Y-15.187 E53.46366
G0 X-16.955 Y-15.257
G0 F3600 X-16.885 Y-14.622
G1 F1800 X-6.264 Y-4.001 E53.96324
G0 X-6.194 Y-3.931
G0 F3600 X-6.829 Y-4.001
G1 F1800 X-16.885 Y-14.056 E54.43622
G0 X-16.955 Y-14.126
G0 F3600 X-16.885 Y-13.49
G1 F1800 X-7.395 Y-4.001 E54.88258
G0 X-7.325 Y-3.931
G0 F3600 X-7.939 Y-3.979
G1 F1800 X-16.885 Y-12.925 E55.30337
G0 X-16.955 Y-12.995
G0 F3600 X-16.885 Y-12.359
G1 F1800 X-8.505 Y-3.979 E55.69754
G0 X-8.435 Y-3.909
G0 F3600 X-9.07 Y-3.979
G1 F1800 X-16.885 Y-11.793 E56.06511
G0 X-16.955 Y-11.863
G0 F3600 X-16.885 Y-11.228
G1 F1800 X-9.636 Y-3.979 E56.40608
G0 X-9.566 Y-3.909
G0 F3600 X-10.202 Y-3.979
G1 F1800 X-16.885 Y-10.662 E56.72043
G0 X-16.955 Y-10.732
G0 F3600 X-16.885 Y-10.096
G1 F1800 X-10.767 Y-3.979 E57.00818
G0 X-10.697 Y-3.909
G0 F3600 X-11.333 Y-3.979
G1 F1800 X-16.885 Y-9.531 E57.26933
G0 X-16.955 Y-9.601
G0 F3600 X-16.885 Y-8.965
G1 F1800 X-11.899 Y-3.979 E57.50385
G0 X-11.829 Y-3.909
G0 F3600 X-12.464 Y-3.979
G1 F1800 X-16.885 Y-8.399 E57.71178
G0 X-16.955 Y-8.469
G0 F3600 X-16.885 Y-7.834
G1 F1800 X-13.03 Y-3.979 E57.89311
G0 X-12.96 Y-3.909
G0 F3600 X-13.596 Y-3.979
G1 F1800 X-16.885 Y-7.268 E58.04781
G0 X-16.955 Y-7.338
G0 F3600 X-16.885 Y-6.702
G1 F1800 X-14.161 Y-3.979 E58.17592
G0 X-14.091 Y-3.909
G0 F3600 X-14.727 Y-3.979
G1 F1800 X-16.885 Y-6.136 E58.2774
G0 X-16.955 Y-6.206
G0 F3600 X-16.885 Y-5.571
G1 F1800 X-15.293 Y-3.979 E58.35228
G0 X-15.223 Y-3.909
G0 F3600 X-15.858 Y-3.979
G1 F1800 X-16.885 Y-5.005 E58.40056
G0 X-16.955 Y-5.075
G0 F3600 X-16.885 Y-4.439
G1 F1800 X-16.424 Y-3.979 E58.42222
G0 F3600 X-7.479 Y-8.611
G1 F1800 X-16.885 Y-18.016 E58.86463
G0 X-16.955 Y-18.086
G0 F3600 X-16.32 Y-18.017
G1 F1800 X-7.479 Y-9.176 E59.28048
G0 X-7.409 Y-9.106
G0 F3600 X-7.479 Y-9.742
G1 F1800 X-15.755 Y-18.017 E59.66974
G0 X-15.825 Y-18.087
G0 F3600 X-15.189 Y-18.017
G1 F1800 X-7.479 Y-10.308 E60.03237
G0 X-7.409 Y-10.238
G0 F3600 X-7.479 Y-10.873
G1 F1800 X-14.623 Y-18.017 E60.3684
G0 X-14.693 Y-18.087
G0 F3600 X-14.057 Y-18.017
G1 F1800 X-7.479 Y-11.439 E60.67781
G0 X-7.409 Y-11.369
G0 F3600 X-7.479 Y-12.005
G1 F1800 X-13.492 Y-18.017 E60.96062
G0 X-13.562 Y-18.087
G0 F3600 X-12.926 Y-18.017
G1 F1800 X-7.479 Y-12.57 E61.21683
G0 X-7.409 Y-12.5
G0 F3600 X-7.479 Y-13.136
G1 F1800 X-12.36 Y-18.017 E61.44642
G0 X-12.43 Y-18.087
G0 F3600 X-11.795 Y-18.017
G1 F1800 X-7.479 Y-13.702 E61.64941
G0 X-7.409 Y-13.632
G0 F3600 X-7.479 Y-14.268
G1 F1800 X-11.229 Y-18.017 E61.82577
G0 X-11.299 Y-18.087
G0 F3600 X-10.663 Y-18.017
G1 F1800 X-7.479 Y-14.833 E61.97554
G0 X-7.409 Y-14.763
G0 F3600 X-7.479 Y-15.399
G1 F1800 X-10.098 Y-18.017 E62.0987
G0 X-10.168 Y-18.087
G0 F3600 X-9.532 Y-18.017
G1 F1800 X-7.479 Y-15.965 E62.19525
G0 X-7.409 Y-15.895
G0 F3600 X-7.479 Y-16.53
G1 F1800 X-8.966 Y-18.017 E62.26519
G0 X-9.036 Y-18.087
G0 F3600 X-8.401 Y-18.017
G1 F1800 X-7.479 Y-17.096 E62.30853
G0 X-7.409 Y-17.026
G0 F3600 X-7.479 Y-17.662
G1 F1800 X-7.835 Y-18.017 E62.32526
G1 F1500 E55.82526
G1 Z1.2
G0 F3600 X2.234 Y-8.236 Z1.2
;TYPE:WALL-INNER
G1 Z0.2
G1 F1500 E62.32526
G1 F1800 X2.234 Y-8.436 E62.33191
G1 X2.434 Y-8.436 E62.33621
G1 X6.855 Y-8.435 E62.48326
G1 X7.934 Y-8.549 E62.51934
G1 X7.934 Y-18.199 E62.84031
G1 X17.699 Y-18.199 E63.16509
G1 X17.699 Y-3.799 E63.64404
G1 X2.234 Y-3.799 E64.1584
G1 X2.234 Y-8.236 E64.30598
G0 F3600 X1.834 Y-8.636
G1 F1800 X1.834 Y-8.836 E64.31263
G1 X2.034 Y-8.836 E64.31694
G1 X6.834 Y-8.835 E64.47659
G1 X7.534 Y-8.909 E64.5
G1 X7.534 Y-18.599 E64.82229
G1 X18.099 Y-18.599 E65.17368
G1 X18.099 Y-3.399 E65.67924
G1 X1.834 Y-3.399 E66.22021
G1 X1.834 Y-8.636 E66.3944
G0 F3600 X1.434 Y-9.036
;TYPE:WALL-OUTER
G1 F1800 X1.434 Y-9.236 E66.40105
