;FLAVOR:RepRap
;TIME:9757
;Filament used: 9.32691m
;Layer height: 0.175
;Generated with Cura_SteamEngine 2.4.0
M190 S104

G21 ;metric values
G90 ;absolute positioning
M82 ;set extruder to absolute mode
M107 ;start with the fan off
G28 ;Home all axes (max endstops)

M0 Add PROBE
M117 Auto leveling...
G29   ; DAQ -- auto level
M500
G1 x0 y0
M0 Remove PROBE

M104 S240
M109 S240

G1 Z75.0 F9000 ;move the platform down 15mm
G92 E0 ;zero the extruded length
G1 F200 E3 ;extrude 3mm of feed stock
G92 E0 ;zero the extruded length again

G1 Z100 F9000
M0 CLEAN ME...

M106 S191 ;	Turn fan on 50% power

G1 F9000
M117 Printing...
;LAYER_COUNT:90
;LAYER:0
M107
G1 F1500 E-6.5
G1 Z21
G0 F3600 X-.933 Y46.694 Z1.2
;TYPE:SKIRT
G1 Z0.2
G1 F1500 E0
G1 F1800 X-6.427 Y46.7 E0.18273
G1 X-11.883 Y47.016 E0.3645
G1 X-17.104 Y47.606 E0.53926
G1 X-17.494 Y47.628 E0.55225
G1 X-23.462 Y47.614 E0.75075
G1 X-23.982 Y47.573 E0.7681
G1 X-24.585 Y47.42 E0.78879
G1 X-25.872 Y46.966 E0.83418
G1 X-31.315 Y45.132 E1.02522
G1 X-36.609 Y43.681 E1.20779
G1 X-39.245 Y43.077 E1.29773
G1 X-43.918 Y42.195 E1.4559
G1 X-44.421 Y42.059 E1.47323
G1 X-44.897 Y41.848 E1.49055
G1 X-45.336 Y41.567 E1.50789
G1 X-45.727 Y41.222 E1.52523
G1 X-46.06 Y40.821 E1.54257
G1 X-46.328 Y40.375 E1.55987
G1 X-46.525 Y39.892 E1.57722
G1 X-46.645 Y39.385 E1.59455
G1 X-46.687 Y38.854 E1.61227
G1 X-46.688 Y-44.061 E4.37003
G1 X-46.648 Y-44.581 E4.38738
G1 X-46.529 Y-45.088 E4.4047
G1 X-46.334 Y-45.571 E4.42202
G1 X-46.068 Y-46.019 E4.43935
G1 X-45.736 Y-46.421 E4.45669
G1 X-45.346 Y-46.767 E4.47403
G1 X-44.908 Y-47.05 E4.49138
G1 X-44.433 Y-47.263 E4.50869
G1 X-43.93 Y-47.4 E4.52603
G1 X-43.298 Y-47.461 E4.54715
G1 X-26.286 Y-47.512 E5.11297
G1 X-23.281 Y-47.634 E5.213
G1 X-23.138 Y-47.637 E5.21776
G1 X-17.474 Y-47.628 E5.40615
G1 X-17.089 Y-47.606 E5.41897
G1 X-13.867 Y-47.234 E5.52685
G1 X-8.433 Y-46.849 E5.70804
G1 X-2.961 Y-46.771 E5.89005
G1 X3.2 Y-47.05 E6.09518
G1 X3.879 Y-47.012 E6.1178
G1 X10.393 Y-45.994 E6.33709
G1 X15.823 Y-45.48 E6.5185
G1 X21.306 Y-45.272 E6.70099
G1 X26.751 Y-45.373 E6.88212
G1 X32.185 Y-45.784 E7.06338
G1 X37.632 Y-46.506 E7.24613
G1 X42.669 Y-47.425 E7.41643
G1 X43.188 Y-47.479 E7.43378
G1 X43.708 Y-47.453 E7.4511
G1 X44.219 Y-47.348 E7.46845
G1 X44.707 Y-47.166 E7.48577
G1 X45.162 Y-46.912 E7.5031
G1 X45.573 Y-46.591 E7.52045
G1 X45.929 Y-46.211 E7.53777
G1 X46.224 Y-45.781 E7.55511
G1 X46.449 Y-45.311 E7.57244
G1 X46.6 Y-44.812 E7.58978
G1 X46.68 Y-44.08 E7.61427
G1 X46.687 Y38.875 E10.37337
G1 X46.647 Y39.394 E10.39068
G1 X46.528 Y39.902 E10.40804
G1 X46.333 Y40.385 E10.42536
G1 X46.067 Y40.833 E10.44269
G1 X45.735 Y41.235 E10.46003
G1 X45.345 Y41.581 E10.47737
G1 X44.908 Y41.864 E10.49469
G1 X44.432 Y42.076 E10.51202
G1 X43.929 Y42.214 E10.52937
G1 X43.516 Y42.267 E10.54321
G1 X39.506 Y42.538 E10.67689
G1 X34.039 Y43.166 E10.85992
G1 X28.658 Y44.095 E11.04154
G1 X25.974 Y44.677 E11.13289
G1 X24.474 Y45.024 E11.18409
G1 X23.737 Y45.112 E11.20878
G1 X19.446 Y45.15 E11.35151
G1 X13.958 Y45.462 E11.53433
G1 X8.533 Y46.08 E11.71594
G1 X3.936 Y46.843 E11.87092
G1 X3.223 Y46.885 E11.89468
G1 X-.933 Y46.694 E12.03305
G0 F3600 X-.937 Y46.294
G1 F1800 X-6.434 Y46.3 E12.21589
G1 X-11.914 Y46.617 E12.39846
G1 X-17.149 Y47.209 E12.57368
G1 X-17.493 Y47.228 E12.58514
G1 X-23.461 Y47.214 E12.78364
G1 X-23.949 Y47.173 E12.79993
G1 X-24.452 Y47.043 E12.81721
G1 X-25.744 Y46.587 E12.86278
G1 X-31.202 Y44.748 E13.05434
G1 X-36.505 Y43.294 E13.23723
G1 X-39.164 Y42.685 E13.32795
G1 X-43.843 Y41.802 E13.48633
G1 X-44.315 Y41.672 E13.50261
G1 X-44.76 Y41.467 E13.5189
G1 X-45.165 Y41.193 E13.53517
G1 X-45.521 Y40.857 E13.55145
G1 X-45.817 Y40.467 E13.56773
G1 X-46.045 Y40.034 E13.58401
G1 X-46.2 Y39.57 E13.60028
G1 X-46.287 Y38.854 E13.62427
G1 X-46.288 Y-44.061 E16.38203
G1 X-46.248 Y-44.549 E16.39832
G1 X-46.129 Y-45.024 E16.41461
G1 X-45.935 Y-45.473 E16.43088
G1 X-45.67 Y-45.885 E16.44717
G1 X-45.342 Y-46.248 E16.46344
G1 X-44.959 Y-46.553 E16.47972
G1 X-44.532 Y-46.791 E16.49598
G1 X-44.071 Y-46.957 E16.51228
G1 X-43.59 Y-47.046 E16.52855
G1 X-43.297 Y-47.061 E16.53831
G1 X-26.295 Y-47.112 E17.1038
G1 X-23.265 Y-47.235 E17.20466
G1 X-23.138 Y-47.237 E17.20889
G1 X-17.474 Y-47.228 E17.39727
G1 X-17.135 Y-47.208 E17.40857
G1 X-13.919 Y-46.837 E17.51624
G1 X-8.449 Y-46.449 E17.69863
G1 X-2.948 Y-46.371 E17.88161
G1 X3.219 Y-46.65 E18.08694
G1 X3.817 Y-46.617 E18.10686
G1 X10.341 Y-45.597 E18.32648
G1 X15.808 Y-45.08 E18.50913
G1 X21.298 Y-44.872 E18.69186
G1 X26.771 Y-44.973 E18.87392
G1 X32.234 Y-45.386 E19.05614
G1 X37.695 Y-46.11 E19.23936
G1 X42.741 Y-47.031 E19.40996
G1 X43.228 Y-47.08 E19.42624
G1 X43.717 Y-47.048 E19.44254
G1 X44.194 Y-46.937 E19.45883
G1 X44.646 Y-46.751 E19.47509
G1 X45.062 Y-46.493 E19.49137
G1 X45.431 Y-46.171 E19.50766
G1 X45.742 Y-45.794 E19.52391
G1 X45.988 Y-45.37 E19.54022
G1 X46.162 Y-44.913 E19.55648
G1 X46.259 Y-44.433 E19.57277
G1 X46.28 Y-44.08 E19.58453
G1 X46.287 Y38.875 E22.34363
G1 X46.247 Y39.363 E22.35991
G1 X46.128 Y39.837 E22.37617
G1 X45.934 Y40.287 E22.39246
G1 X45.669 Y40.698 E22.40873
G1 X45.341 Y41.062 E22.42503
G1 X44.958 Y41.366 E22.44129
G1 X44.531 Y41.605 E22.45756
G1 X44.07 Y41.771 E22.47386
G1 X43.489 Y41.868 E22.49345
G1 X39.457 Y42.14 E22.62786
G1 X33.995 Y42.768 E22.81073
G1 X28.579 Y43.703 E22.99353
G1 X25.908 Y44.282 E23.08443
G1 X24.383 Y44.635 E23.13649
G1 X23.734 Y44.712 E23.15823
G1 X19.419 Y44.75 E23.30175
G1 X13.944 Y45.062 E23.48415
G1 X8.479 Y45.684 E23.66709
G1 X3.87 Y46.449 E23.82248
G1 X3.241 Y46.486 E23.84344
G1 X-.937 Y46.294 E23.98254
G0 F3600 X-.918 Y45.894
G1 F1800 X-6.44 Y45.9 E24.16621
G1 X-11.946 Y46.219 E24.34964
G1 X-17.194 Y46.812 E24.5253
G1 X-17.492 Y46.828 E24.53523
G1 X-23.46 Y46.814 E24.73373
G1 X-23.914 Y46.773 E24.74889
G1 X-24.319 Y46.666 E24.76282
G1 X-25.638 Y46.201 E24.80934
G1 X-31.074 Y44.369 E25.00013
G1 X-36.424 Y42.902 E25.18464
G1 X-39.08 Y42.294 E25.27527
G1 X-43.769 Y41.409 E25.43398
G1 X-44.208 Y41.285 E25.44915
G1 X-44.618 Y41.087 E25.46429
G1 X-44.988 Y40.821 E25.47945
G1 X-45.305 Y40.494 E25.4946
G1 X-45.56 Y40.116 E25.50976
G1 X-45.746 Y39.7 E25.52492
G1 X-45.855 Y39.258 E25.54006
G1 X-45.887 Y38.854 E25.55354
G1 X-45.888 Y-44.061 E28.3113
G1 X-45.848 Y-44.515 E28.32646
G1 X-45.73 Y-44.955 E28.34161
G1 X-45.536 Y-45.367 E28.35676
G1 X-45.273 Y-45.74 E28.37194
G1 X-44.95 Y-46.06 E28.38706
G1 X-44.575 Y-46.32 E28.40224
G1 X-44.161 Y-46.51 E28.41739
G1 X-43.72 Y-46.625 E28.43255
G1 X-43.296 Y-46.661 E28.4467
G1 X-26.278 Y-46.712 E29.01272
G1 X-23.249 Y-46.835 E29.11355
G1 X-23.139 Y-46.837 E29.11721
G1 X-17.475 Y-46.828 E29.3056
G1 X-17.181 Y-46.811 E29.31539
G1 X-13.949 Y-46.438 E29.4236
G1 X-8.465 Y-46.049 E29.60646
G1 X-2.936 Y-45.971 E29.79037
G1 X3.237 Y-46.25 E29.9959
G1 X3.756 Y-46.222 E30.01318
G1 X10.31 Y-45.197 E30.23382
G1 X15.772 Y-44.68 E30.4163
G1 X21.273 Y-44.472 E30.59939
G1 X26.791 Y-44.575 E30.78296
G1 X32.297 Y-44.991 E30.96661
G1 X37.74 Y-45.712 E31.14922
G1 X42.813 Y-46.638 E31.32074
G1 X43.267 Y-46.68 E31.33591
G1 X43.721 Y-46.642 E31.35106
G1 X44.161 Y-46.526 E31.36619
G1 X44.575 Y-46.335 E31.38136
G1 X44.949 Y-46.074 E31.39653
G1 X45.271 Y-45.752 E31.41167
G1 X45.532 Y-45.379 E31.42681
G1 X45.724 Y-44.966 E31.44196
G1 X45.842 Y-44.525 E31.45715
G1 X45.88 Y-44.08 E31.472
G1 X45.887 Y38.875 E34.23109
G1 X45.847 Y39.329 E34.24625
G1 X45.729 Y39.769 E34.2614
G1 X45.535 Y40.181 E34.27655
G1 X45.273 Y40.554 E34.29171
G1 X44.949 Y40.874 E34.30686
G1 X44.575 Y41.134 E34.32201
G1 X44.16 Y41.324 E34.33719
G1 X43.72 Y41.439 E34.35231
G1 X43.462 Y41.469 E34.36095
G1 X39.426 Y41.742 E34.4955
G1 X33.935 Y42.373 E34.67933
G1 X28.495 Y43.312 E34.86294
G1 X25.805 Y43.895 E34.95449
G1 X24.293 Y44.245 E35.00611
G1 X23.73 Y44.312 E35.02497
G1 X19.415 Y44.35 E35.16849
G1 X13.892 Y44.664 E35.35248
G1 X8.43 Y45.286 E35.53532
G1 X3.805 Y46.054 E35.69126
G1 X3.26 Y46.086 E35.70941
G1 X-.918 Y45.894 E35.84852
G0 F3600 X-.922 Y45.494
G1 F1800 X-6.463 Y45.5 E36.03282
G1 X-11.977 Y45.819 E36.21652
G1 X-17.239 Y46.414 E36.39265
G1 X-17.491 Y46.428 E36.40104
G1 X-23.459 Y46.414 E36.59954
G1 X-23.876 Y46.373 E36.61348
G1 X-24.186 Y46.289 E36.62416
G1 X-25.507 Y45.823 E36.67075
G1 X-30.966 Y43.983 E36.86235
G1 X-36.325 Y42.514 E37.04717
G1 X-38.989 Y41.904 E37.13807
G1 X-43.695 Y41.016 E37.29735
G1 X-44.098 Y40.899 E37.31131
G1 X-44.471 Y40.708 E37.32525
G1 X-44.801 Y40.45 E37.33918
G1 X-45.076 Y40.134 E37.35311
G1 X-45.286 Y39.772 E37.36703
G1 X-45.424 Y39.376 E37.38098
G1 X-45.487 Y38.854 E37.39847
G1 X-45.488 Y-44.061 E40.15623
G1 X-45.448 Y-44.478 E40.17017
G1 X-45.33 Y-44.88 E40.1841
G1 X-45.137 Y-45.252 E40.19804
G1 X-44.878 Y-45.581 E40.21197
G1 X-44.561 Y-45.855 E40.2259
G1 X-44.198 Y-46.064 E40.23983
G1 X-43.801 Y-46.2 E40.25379
G1 X-43.295 Y-46.261 E40.27074
G1 X-26.259 Y-46.312 E40.83736
G1 X-23.232 Y-46.435 E40.93813
G1 X-23.14 Y-46.437 E40.94119
G1 X-17.476 Y-46.428 E41.12957
G1 X-17.227 Y-46.413 E41.13787
G1 X-14.001 Y-46.041 E41.24588
G1 X-8.481 Y-45.649 E41.42994
G1 X-2.94 Y-45.571 E41.61425
G1 X3.255 Y-45.851 E41.82051
G1 X3.694 Y-45.827 E41.83513
G1 X10.26 Y-44.801 E42.05616
G1 X15.754 Y-44.281 E42.23971
G1 X21.265 Y-44.072 E42.42314
G1 X26.811 Y-44.175 E42.60763
G1 X32.328 Y-44.592 E42.79165
G1 X37.822 Y-45.32 E42.97598
G1 X42.885 Y-46.244 E43.14716
G1 X43.302 Y-46.28 E43.16108
G1 X43.719 Y-46.236 E43.17503
G1 X44.12 Y-46.113 E43.18898
G1 X44.49 Y-45.917 E43.2029
G1 X44.817 Y-45.654 E43.21686
G1 X45.087 Y-45.334 E43.23079
G1 X45.292 Y-44.969 E43.24471
G1 X45.424 Y-44.571 E43.25866
G1 X45.48 Y-44.08 E43.27509
G1 X45.487 Y38.875 E46.03419
G1 X45.447 Y39.292 E46.04812
G1 X45.329 Y39.694 E46.06205
G1 X45.137 Y40.066 E46.07598
G1 X44.877 Y40.395 E46.08993
G1 X44.56 Y40.669 E46.10386
G1 X44.197 Y40.878 E46.11779
G1 X43.8 Y41.014 E46.13175
G1 X43.435 Y41.07 E46.14403
G1 X39.395 Y41.343 E46.27871
G1 X33.875 Y41.978 E46.46352
G1 X28.412 Y42.92 E46.6479
G1 X25.72 Y43.504 E46.73952
G1 X24.203 Y43.855 E46.79131
G1 X23.727 Y43.912 E46.80725
G1 X19.388 Y43.951 E46.95157
G1 X13.877 Y44.264 E47.13516
G1 X8.357 Y44.893 E47.31995
G1 X3.739 Y45.659 E47.47564
G1 X3.278 Y45.687 E47.491
G1 X-.922 Y45.494 E47.63084
G1 F1500 E41.13084
G1 Z1.2
G0 F3600 X2.013 Y39.557 Z1.2
;TYPE:WALL-INNER
G1 Z0.2
G1 F1500 E47.63084
G1 F1800 X-11.369 Y18.95 E48.44807
G1 X-11.369 Y4.56 E48.92669
G1 X2.143 Y1.934 E49.38451
G1 X2.38 Y1.888 E49.39254
G1 X2.38 Y2.129 E49.39746
G1 X2.38 Y2.13 E49.39749
G1 X2.38 Y39.448 E50.63869
G1 X2.38 Y39.449 E50.63873
G1 X2.38 Y40.123 E50.66114
G1 X2.013 Y39.557 E50.67282
G0 F3600 X2.496 Y40.854
G0 X2.413 Y40.907
G1 F1800 X-11.769 Y19.068 E51.53891
G1 X-11.769 Y4.23 E52.03242
G1 X2.543 Y1.448 E52.51735
G1 X2.78 Y1.402 E52.52538
G1 X2.78 Y1.643 E52.5303
G1 X2.78 Y1.644 E52.53034
G1 X2.78 Y40.798 E53.8326
G1 X2.78 Y40.799 E53.83264
G1 X2.78 Y41.473 E53.85505
G1 X2.413 Y40.907 E53.86673
G0 F3600 X2.496 Y40.854
G0 X2.752 Y41.378
G0 X2.813 Y42.257
;TYPE:WALL-OUTER
G1 F1800 X-12.169 Y19.186 E54.78167
G1 X-12.169 Y3.9 E55.29009
G1 X2.943 Y0.962 E55.80213
G1 X3.18 Y0.916 E55.81016
G1 X3.18 Y1.157 E55.81508
G1 X3.18 Y1.158 E55.81511
G1 X3.18 Y42.148 E57.17844
G1 X3.18 Y42.149 E57.17848
G1 X3.18 Y42.823 E57.2009
G1 X2.813 Y42.257 E57.21257
G0 F3600 X2.705 Y42.09
G0 X2.752 Y41.378
G0 X2.199 Y38.969
;TYPE:SKIN
G1 F1800 X1.19 Y37.96 E57.26003
G0 X1.12 Y37.89
G0 F3600 X2.199 Y37.837
G1 F1800 X-.904 Y34.733 E57.40601
G0 X-.974 Y34.663
G0 F3600 X-1.952 Y33.12
G1 F1800 X2.199 Y37.272 E57.60128
G0 X2.269 Y37.342
G0 F3600 X2.199 Y36.706
G1 F1800 X-2.999 Y31.507 E57.84581
G0 X-3.069 Y31.437
G0 F3600 X-4.047 Y29.893
G1 F1800 X2.199 Y36.14 E58.13962
G0 X2.269 Y36.21
G0 F3600 X2.199 Y35.575
G1 F1800 X-5.094 Y28.28 E58.48271
G0 X-5.164 Y28.21
G0 F3600 X-6.142 Y26.667
G1 F1800 X2.199 Y35.009 E58.87507
G0 X2.269 Y35.079
G0 F3600 X2.199 Y34.443
G1 F1800 X-7.19 Y25.053 E59.31672
G0 X-7.26 Y24.983
G0 F3600 X-8.237 Y23.44
G1 F1800 X2.199 Y33.878 E59.80765
G0 X2.269 Y33.948
G0 F3600 X2.199 Y33.312
G1 F1800 X-9.285 Y21.826 E60.34787
G0 X-9.355 Y21.756
G0 F3600 X-10.332 Y20.214
G1 F1800 X2.199 Y32.746 E60.93731
G0 X2.269 Y32.816
G0 F3600 X2.199 Y32.181
G1 F1800 X-11.189 Y18.792 E61.56706
G0 X-11.259 Y18.722
G0 F3600 X-11.189 Y18.226
G1 F1800 X2.199 Y31.615 E62.19682
G0 X2.269 Y31.685
G0 F3600 X2.199 Y31.049
G1 F1800 X-11.189 Y17.66 E62.82657
G0 X-11.259 Y17.59
G0 F3600 X-11.189 Y17.095
G1 F1800 X2.199 Y30.484 E63.45632
G0 X2.269 Y30.554
G0 F3600 X2.199 Y29.918
G1 F1800 X-11.189 Y16.529 E64.08608
G0 X-11.259 Y16.459
G0 F3600 X-11.189 Y15.963
G1 F1800 X2.199 Y29.352 E64.71583
G0 X2.269 Y29.422
G0 F3600 X2.199 Y28.787
G1 F1800 X-11.189 Y15.397 E65.34561
G0 X-11.259 Y15.327
G0 F3600 X-11.189 Y14.832
G1 F1800 X2.199 Y28.221 E65.97536
G0 X2.269 Y28.291
G0 F3600 X2.199 Y27.655
G1 F1800 X-11.189 Y14.266 E66.60512
G0 X-11.259 Y14.196
G0 F3600 X-11.189 Y13.7
G1 F1800 X2.199 Y27.089 E67.23487
G0 X2.269 Y27.159
G0 F3600 X2.199 Y26.524
G1 F1800 X-11.189 Y13.135 E67.86463
G0 X-11.259 Y13.065
G0 F3600 X-11.189 Y12.569
G1 F1800 X2.199 Y25.958 E68.49438
G0 X2.269 Y26.028
G0 F3600 X2.199 Y25.392
G1 F1800 X-11.189 Y12.003 E69.12413
G0 X-11.259 Y11.933
G0 F3600 X-11.189 Y11.438
G1 F1800 X2.199 Y24.827 E69.75389
G0 X2.269 Y24.897
G0 F3600 X2.199 Y24.261
G1 F1800 X-11.189 Y10.872 E70.38364
G0 X-11.259 Y10.802
G0 F3600 X-11.189 Y10.306
G1 F1800 X2.199 Y23.695 E71.0134
G0 X2.269 Y23.765
G0 F3600 X2.199 Y23.13
G1 F1800 X-11.189 Y9.741 E71.64315
G0 X-11.259 Y9.671
G0 F3600 X-11.189 Y9.175
G1 F1800 X2.199 Y22.564 E72.2729
G0 X2.269 Y22.634
G0 F3600 X2.199 Y21.998
G1 F1800 X-11.189 Y8.609 E72.90266
G0 X-11.259 Y8.539
G0 F3600 X-11.189 Y8.044
G1 F1800 X2.199 Y21.433 E73.53241
G0 X2.269 Y21.503
G0 F3600 X2.199 Y20.867
G1 F1800 X-11.189 Y7.478 E74.16217
G0 X-11.259 Y7.408
G0 F3600 X-11.189 Y6.912
G1 F1800 X2.199 Y20.301 E74.79192
G0 X2.269 Y20.371
G0 F3600 X2.199 Y19.736
G1 F1800 X-11.189 Y6.346 E75.4217
G0 X-11.259 Y6.276
G0 F3600 X-11.189 Y5.781
G1 F1800 X2.199 Y19.17 E76.05145
G0 X2.269 Y19.24
G0 F3600 X2.199 Y18.604
G1 F1800 X-11.189 Y5.215 E76.68121
G0 X-11.259 Y5.145
G0 F3600 X-11.139 Y4.699
G1 F1800 X2.199 Y18.039 E77.30863
G0 X2.269 Y18.109
G0 F3600 X2.199 Y17.473
G1 F1800 X-10.665 Y4.607 E77.91376
G0 X-10.735 Y4.537
G0 F3600 X-10.192 Y4.515
G1 F1800 X2.199 Y16.907 E78.49662
G0 X2.269 Y16.977
G0 F3600 X2.199 Y16.341
G1 F1800 X-9.719 Y4.422 E79.05723
G0 X-9.789 Y4.352
G0 F3600 X-9.245 Y4.331
G1 F1800 X2.199 Y15.776 E79.59554
G0 X2.269 Y15.846
G0 F3600 X2.199 Y15.21
G1 F1800 X-8.771 Y4.239 E80.11156
G0 X-8.841 Y4.169
G0 F3600 X-8.297 Y4.147
G1 F1800 X2.199 Y14.644 E80.60528
G0 X2.269 Y14.714
G0 F3600 X2.199 Y14.079
G1 F1800 X-7.824 Y4.055 E81.07676
G0 X-7.894 Y3.985
G0 F3600 X-7.351 Y3.962
G1 F1800 X2.199 Y13.513 E81.52599
G0 X2.269 Y13.583
G0 F3600 X2.199 Y12.947
G1 F1800 X-6.877 Y3.87 E81.95292
G0 X-6.947 Y3.8
G0 F3600 X-6.403 Y3.778
G1 F1800 X2.199 Y12.382 E82.35758
G0 X2.269 Y12.452
G0 F3600 X2.199 Y11.816
G1 F1800 X-5.929 Y3.686 E82.73994
G0 X-5.999 Y3.616
G0 F3600 X-5.456 Y3.594
G1 F1800 X2.199 Y11.25 E83.10003
G0 X2.269 Y11.32
G0 F3600 X2.199 Y10.685
G1 F1800 X-4.982 Y3.502 E83.43785
G0 X-5.052 Y3.432
G0 F3600 X-4.509 Y3.41
G1 F1800 X2.199 Y10.119 E83.7534
G0 X2.269 Y10.189
G0 F3600 X2.199 Y9.553
G1 F1800 X-4.035 Y3.318 E84.04665
G0 X-4.105 Y3.248
G0 F3600 X-3.561 Y3.226
G1 F1800 X2.199 Y8.988 E84.31763
G0 X2.269 Y9.058
G0 F3600 X2.199 Y8.422
G1 F1800 X-3.088 Y3.133 E84.56636
G0 X-3.158 Y3.063
G0 F3600 X-2.614 Y3.041
G1 F1800 X2.199 Y7.856 E84.7928
G0 X2.269 Y7.926
G0 F3600 X2.199 Y7.29
G1 F1800 X-2.141 Y2.95 E84.99694
G0 X-2.211 Y2.88
G0 F3600 X-1.667 Y2.858
G1 F1800 X2.199 Y6.725 E85.1788
G0 X2.269 Y6.795
G0 F3600 X2.199 Y6.159
G1 F1800 X-1.193 Y2.766 E85.33838
G0 X-1.263 Y2.696
G0 F3600 X-.72 Y2.673
G1 F1800 X2.199 Y5.593 E85.4757
G0 X2.269 Y5.663
G0 F3600 X2.199 Y5.028
G1 F1800 X-.246 Y2.581 E85.59075
G0 X-.316 Y2.511
G0 F3600 X0.226 Y2.489
G1 F1800 X2.199 Y4.462 E85.68356
G0 X2.269 Y4.532
G0 F3600 X2.199 Y3.896
G1 F1800 X0.7 Y2.397 E85.75407
G0 X0.63 Y2.327
G0 F3600 X1.173 Y2.305
