;FLAVOR:RepRap
;TIME:3590
;Filament used: 2.50546m
;Layer height: 0.15
;Generated with Cura_SteamEngine 2.4.0
M190 S60
M104 S205
M109 S205
G21 ;metric values
G90 ;absolute positioning
M82 ;set extruder to absolute mode
M107 ;start with the fan off
G28 ;Home all axes (max endstops)

M0 Add PROBE
M106 S255 ;	Turn fan on 100% power, cool the probe
M117 Auto leveling...
G29   ; DAQ -- auto level
M500
G1 x0 y0
M0 Remove PROBE

G1 Z75.0 F9000 ;move the platform down 15mm
G92 E0 ;zero the extruded length
G1 F200 E3 ;extrude 3mm of feed stock
G92 E0 ;zero the extruded length again

G1 Z100 F9000
M0 CLEAN ME...

M106 S191 ;	Turn fan on 50% power

G1 F9000
M117 Printing...
;LAYER_COUNT:64
;LAYER:0
M107
G1 F1500 E-6.5
G1 Z21
G0 F3600 X-26.194 Y-53.22 Z1.125
;TYPE:SKIRT
G1 Z0.125
G1 F1500 E0
G1 F1800 X-26.191 Y-53.382 E0.00337
G1 X-26.13 Y-54.828 E0.03345
G1 X-26.067 Y-55.376 E0.04492
G1 X-25.991 Y-55.699 E0.05182
G1 X-25.798 Y-56.384 E0.06661
G1 X-25.61 Y-56.902 E0.07807
G1 X-25.47 Y-57.184 E0.08461
G1 X-25.058 Y-57.933 E0.10238
G1 X-24.758 Y-58.396 E0.11385
G1 X-24.516 Y-58.684 E0.12167
G1 X-24.04 Y-59.198 E0.13623
G1 X-23.515 Y-59.669 E0.15089
G1 X-23.202 Y-59.901 E0.15899
G1 X-22.566 Y-60.282 E0.17441
G1 X-21.895 Y-60.6 E0.18984
G1 X-21.382 Y-60.799 E0.20128
G1 X-20.732 Y-60.938 E0.2151
G1 X-19.619 Y-61.075 E0.23841
G1 X-19.154 Y-61.103 E0.24809
G1 X19.624 Y-61.089 E1.05419
G1 X20.174 Y-61.049 E1.06566
G1 X20.595 Y-60.963 E1.07459
G1 X21.604 Y-60.696 E1.09628
G1 X22.125 Y-60.516 E1.10774
G1 X22.76 Y-60.17 E1.12278
G1 X23.445 Y-59.707 E1.13996
G1 X23.878 Y-59.366 E1.15142
G1 X24.269 Y-58.952 E1.16326
G1 X24.856 Y-58.228 E1.18263
G1 X25.171 Y-57.776 E1.19409
G1 X25.451 Y-57.199 E1.20742
G1 X25.862 Y-56.13 E1.23123
G1 X26.022 Y-55.602 E1.24269
G1 X26.079 Y-55.285 E1.24939
G1 X26.135 Y-54.879 E1.25791
G1 X26.171 Y-54.36 E1.26872
G1 X26.167 Y54.436 E3.53033
G1 X26.127 Y54.986 E3.54179
G1 X26.061 Y55.325 E3.54897
G1 X25.834 Y56.268 E3.56914
G1 X25.597 Y56.956 E3.58426
G1 X25.451 Y57.276 E3.59157
G1 X25.07 Y57.931 E3.60733
G1 X24.507 Y58.707 E3.62725
G1 X24.152 Y59.128 E3.6387
G1 X23.735 Y59.497 E3.65028
G1 X23.079 Y59.997 E3.66742
G1 X22.617 Y60.299 E3.6789
G1 X22.27 Y60.468 E3.68692
G1 X21.763 Y60.685 E3.69838
G1 X21.242 Y60.865 E3.70984
G1 X20.732 Y60.964 E3.72064
G1 X19.619 Y61.101 E3.74395
G1 X19.154 Y61.129 E3.75364
G1 X-19.625 Y61.115 E4.55976
G1 X-20.175 Y61.075 E4.57122
G1 X-20.597 Y60.988 E4.58018
G1 X-21.605 Y60.721 E4.60186
G1 X-22.126 Y60.542 E4.61331
G1 X-22.752 Y60.202 E4.62812
G1 X-23.426 Y59.749 E4.645
G1 X-23.86 Y59.409 E4.65646
G1 X-24.18 Y59.081 E4.66598
G1 X-24.686 Y58.496 E4.68206
G1 X-25.015 Y58.054 E4.69352
G1 X-25.264 Y57.598 E4.70432
G1 X-25.702 Y56.646 E4.7261
G1 X-25.896 Y56.13 E4.73756
G1 X-25.966 Y55.854 E4.74348
G1 X-26.062 Y55.406 E4.753
G1 X-26.146 Y54.612 E4.7696
G1 X-26.194 Y-53.22 E7.01117
G0 F3600 X-25.794 Y-53.22
G1 F1800 X-25.791 Y-53.365 E7.01418
G1 X-25.73 Y-54.811 E7.04427
G1 X-25.668 Y-55.329 E7.05511
G1 X-25.606 Y-55.59 E7.06069
G1 X-25.413 Y-56.275 E7.07548
G1 X-25.119 Y-56.992 E7.09159
G1 X-24.707 Y-57.741 E7.10936
G1 X-24.422 Y-58.177 E7.12019
G1 X-24.223 Y-58.412 E7.12659
G1 X-23.747 Y-58.926 E7.14115
G1 X-23.277 Y-59.347 E7.15427
G1 X-22.964 Y-59.579 E7.16237
G1 X-22.395 Y-59.92 E7.17616
G1 X-21.724 Y-60.238 E7.1916
G1 X-21.237 Y-60.425 E7.20244
G1 X-20.683 Y-60.541 E7.21421
G1 X-19.57 Y-60.678 E7.23752
G1 X-19.154 Y-60.703 E7.24618
G1 X19.624 Y-60.689 E8.05228
G1 X20.144 Y-60.649 E8.06312
G1 X20.493 Y-60.576 E8.07053
G1 X21.502 Y-60.309 E8.09223
G1 X21.994 Y-60.137 E8.10307
G1 X22.536 Y-59.839 E8.11592
G1 X23.221 Y-59.376 E8.13311
G1 X23.629 Y-59.052 E8.14394
G1 X23.958 Y-58.7 E8.15396
G1 X24.545 Y-57.976 E8.17333
G1 X24.841 Y-57.547 E8.18417
G1 X25.078 Y-57.055 E8.19552
G1 X25.489 Y-55.986 E8.21933
G1 X25.683 Y-55.231 E8.23553
G1 X25.739 Y-54.825 E8.24405
G1 X25.771 Y-54.36 E8.25374
G1 X25.767 Y54.436 E10.51535
G1 X25.727 Y54.956 E10.52619
G1 X25.673 Y55.232 E10.53203
G1 X25.446 Y56.175 E10.5522
G1 X25.233 Y56.79 E10.56573
G1 X25.087 Y57.11 E10.57304
G1 X24.746 Y57.696 E10.58713
G1 X24.183 Y58.472 E10.60706
G1 X23.846 Y58.869 E10.61789
G1 X23.492 Y59.179 E10.62767
G1 X22.836 Y59.679 E10.64481
G1 X22.399 Y59.962 E10.65564
G1 X22.113 Y60.101 E10.66225
G1 X21.606 Y60.318 E10.67371
G1 X21.112 Y60.485 E10.68455
G1 X20.683 Y60.567 E10.69363
G1 X19.57 Y60.704 E10.71694
G1 X19.154 Y60.729 E10.7256
G1 X-19.625 Y60.715 E11.53173
G1 X-20.145 Y60.675 E11.54257
G1 X-20.495 Y60.602 E11.55
G1 X-21.503 Y60.335 E11.57168
G1 X-21.995 Y60.163 E11.58251
G1 X-22.529 Y59.87 E11.59517
G1 X-23.203 Y59.417 E11.61205
G1 X-23.612 Y59.094 E11.62289
G1 X-23.878 Y58.819 E11.63084
G1 X-24.384 Y58.234 E11.64692
G1 X-24.693 Y57.815 E11.65774
G1 X-24.901 Y57.431 E11.66682
G1 X-25.339 Y56.479 E11.6886
G1 X-25.575 Y55.77 E11.70414
G1 X-25.671 Y55.322 E11.71366
G1 X-25.746 Y54.612 E11.7285
G1 X-25.794 Y-53.22 E13.97007
G0 F3600 X-25.391 Y-53.348
G1 F1800 X-25.33 Y-54.794 E14.00016
G1 X-25.221 Y-55.482 E14.01464
G1 X-25.028 Y-56.167 E14.02943
G1 X-24.769 Y-56.799 E14.04363
G1 X-24.357 Y-57.548 E14.0614
G1 X-23.929 Y-58.14 E14.07658
G1 X-23.453 Y-58.654 E14.09115
G1 X-23.038 Y-59.026 E14.10273
G1 X-22.725 Y-59.258 E14.11083
G1 X-22.224 Y-59.559 E14.12298
G1 X-21.553 Y-59.877 E14.13842
G1 X-21.095 Y-60.05 E14.14859
G1 X-20.635 Y-60.144 E14.15835
G1 X-19.522 Y-60.281 E14.18166
G1 X-19.154 Y-60.303 E14.18933
G1 X19.624 Y-60.289 E14.99543
G1 X20.112 Y-60.249 E15.00561
G1 X20.39 Y-60.189 E15.01152
G1 X21.399 Y-59.922 E15.03322
G1 X21.861 Y-59.759 E15.0434
G1 X22.312 Y-59.507 E15.05414
G1 X22.997 Y-59.044 E15.07133
G1 X23.379 Y-58.738 E15.0815
G1 X23.647 Y-58.448 E15.08971
G1 X24.234 Y-57.724 E15.10908
G1 X24.511 Y-57.32 E15.11927
G1 X24.704 Y-56.912 E15.12865
G1 X25.115 Y-55.843 E15.15246
G1 X25.287 Y-55.176 E15.16678
G1 X25.343 Y-54.77 E15.1753
G1 X25.371 Y-54.36 E15.18384
G1 X25.367 Y54.436 E17.44544
G1 X25.284 Y55.138 E17.46014
G1 X25.057 Y56.081 E17.4803
G1 X24.869 Y56.624 E17.49225
G1 X24.723 Y56.944 E17.49956
G1 X24.422 Y57.461 E17.51199
G1 X23.859 Y58.237 E17.53192
G1 X23.54 Y58.608 E17.54209
G1 X23.25 Y58.861 E17.55009
G1 X22.594 Y59.361 E17.56724
G1 X22.181 Y59.625 E17.57743
G1 X21.955 Y59.733 E17.58264
G1 X21.448 Y59.95 E17.5941
G1 X20.984 Y60.105 E17.60427
G1 X20.635 Y60.17 E17.61165
G1 X19.522 Y60.307 E17.63496
G1 X19.154 Y60.329 E17.64263
G1 X-19.625 Y60.315 E18.44875
G1 X-20.113 Y60.275 E18.45893
G1 X-20.392 Y60.215 E18.46486
G1 X-21.4 Y59.948 E18.48653
G1 X-21.862 Y59.784 E18.49673
G1 X-22.305 Y59.538 E18.50726
G1 X-22.979 Y59.085 E18.52414
G1 X-23.362 Y58.78 E18.53432
G1 X-23.575 Y58.558 E18.54071
G1 X-24.081 Y57.973 E18.55679
G1 X-24.37 Y57.577 E18.56698
G1 X-24.537 Y57.264 E18.57436
G1 X-24.975 Y56.312 E18.59614
G1 X-25.183 Y55.687 E18.60983
G1 X-25.279 Y55.239 E18.61936
G1 X-25.346 Y54.611 E18.63249
G1 X-25.394 Y-53.221 E20.87405
G1 X-25.391 Y-53.348 E20.87669
G0 F3600 X-24.994 Y-53.221
G1 F1800 X-24.992 Y-53.332 E20.879
G1 X-24.931 Y-54.778 E20.90909
G1 X-24.836 Y-55.373 E20.92161
G1 X-24.643 Y-56.058 E20.93641
G1 X-24.418 Y-56.606 E20.94872
G1 X-24.006 Y-57.355 E20.96649
G1 X-23.636 Y-57.869 E20.97966
G1 X-23.16 Y-58.383 E20.99422
G1 X-22.8 Y-58.705 E21.00426
G1 X-22.487 Y-58.937 E21.01236
G1 X-22.052 Y-59.198 E21.0229
G1 X-21.381 Y-59.516 E21.03834
G1 X-20.954 Y-59.674 E21.0478
G1 X-20.586 Y-59.747 E21.0556
G1 X-19.473 Y-59.884 E21.07891
G1 X-19.154 Y-59.903 E21.08556
G1 X19.624 Y-59.889 E21.89166
G1 X20.288 Y-59.802 E21.90558
G1 X21.297 Y-59.535 E21.92728
G1 X21.726 Y-59.381 E21.93675
G1 X22.088 Y-59.176 E21.9454
G1 X22.773 Y-58.713 E21.96259
G1 X23.127 Y-58.426 E21.97206
G1 X23.337 Y-58.196 E21.97853
G1 X23.924 Y-57.472 E21.99791
G1 X24.178 Y-57.095 E22.00736
G1 X24.331 Y-56.768 E22.01486
G1 X24.742 Y-55.699 E22.03867
G1 X24.891 Y-55.121 E22.05108
G1 X24.947 Y-54.715 E22.0596
G1 X24.971 Y-54.36 E22.067
G1 X24.967 Y54.436 E24.3286
G1 X24.895 Y55.044 E24.34133
G1 X24.668 Y55.987 E24.36149
G1 X24.505 Y56.458 E24.37185
G1 X24.359 Y56.778 E24.37916
G1 X24.098 Y57.226 E24.38994
G1 X23.535 Y58.002 E24.40987
G1 X23.237 Y58.346 E24.41933
G1 X23.007 Y58.543 E24.42563
G1 X22.351 Y59.043 E24.44277
G1 X21.798 Y59.365 E24.45608
G1 X21.291 Y59.582 E24.46754
G1 X20.858 Y59.724 E24.47701
G1 X20.586 Y59.773 E24.48276
G1 X19.473 Y59.91 E24.50607
G1 X19.154 Y59.929 E24.51271
G1 X-19.625 Y59.915 E25.31883
G1 X-20.29 Y59.828 E25.33278
G1 X-21.298 Y59.561 E25.35445
G1 X-21.726 Y59.407 E25.36391
G1 X-22.082 Y59.206 E25.37241
G1 X-22.756 Y58.753 E25.38929
G1 X-23.111 Y58.467 E25.39876
G1 X-23.272 Y58.296 E25.40365
G1 X-23.778 Y57.711 E25.41972
G1 X-24.045 Y57.341 E25.42921
G1 X-24.174 Y57.097 E25.43495
G1 X-24.612 Y56.145 E25.45673
G1 X-24.792 Y55.603 E25.4686
G1 X-24.888 Y55.155 E25.47813
G1 X-24.946 Y54.611 E25.4895
G1 X-24.994 Y-53.221 E27.73107
G0 F3600 X-24.594 Y-53.221
G1 F1800 X-24.592 Y-53.315 E27.73302
G1 X-24.531 Y-54.761 E27.76311
G1 X-24.451 Y-55.265 E27.77371
G1 X-24.258 Y-55.95 E27.78851
G1 X-24.068 Y-56.413 E27.79891
G1 X-23.656 Y-57.162 E27.81668
G1 X-23.342 Y-57.597 E27.82783
G1 X-22.866 Y-58.111 E27.8424
G1 X-22.562 Y-58.383 E27.85088
G1 X-22.249 Y-58.615 E27.85898
G1 X-21.881 Y-58.836 E27.8679
G1 X-21.21 Y-59.154 E27.88333
G1 X-20.816 Y-59.297 E27.89205
G1 X-20.537 Y-59.35 E27.89795
G1 X-19.424 Y-59.487 E27.92126
G1 X-19.154 Y-59.503 E27.92688
G1 X19.624 Y-59.489 E28.73299
G1 X20.186 Y-59.416 E28.74477
G1 X21.195 Y-59.149 E28.76646
G1 X21.588 Y-59.004 E28.77517
G1 X21.864 Y-58.845 E28.78179
G1 X22.549 Y-58.382 E28.79898
G1 X22.872 Y-58.115 E28.80769
G1 X23.026 Y-57.945 E28.81246
G1 X23.613 Y-57.221 E28.83183
G1 X23.845 Y-56.871 E28.84056
G1 X23.957 Y-56.624 E28.8462
G1 X24.368 Y-55.555 E28.87001
G1 X24.494 Y-55.067 E28.88049
G1 X24.55 Y-54.661 E28.88901
G1 X24.571 Y-54.36 E28.89528
G1 X24.567 Y54.436 E31.15688
G1 X24.506 Y54.951 E31.16766
G1 X24.279 Y55.894 E31.18783
G1 X24.142 Y56.292 E31.19658
G1 X23.996 Y56.612 E31.20389
G1 X23.775 Y56.991 E31.21301
G1 X23.212 Y57.767 E31.23294
G1 X22.934 Y58.081 E31.24166
G1 X22.765 Y58.225 E31.24627
G1 X22.109 Y58.725 E31.26342
G1 X21.641 Y58.998 E31.27468
G1 X21.134 Y59.215 E31.28614
G1 X20.537 Y59.376 E31.299
G1 X19.424 Y59.513 E31.32231
G1 X19.154 Y59.529 E31.32793
G1 X-19.625 Y59.515 E32.13405
G1 X-20.187 Y59.442 E32.14583
G1 X-21.195 Y59.175 E32.16751
G1 X-21.588 Y59.029 E32.17623
G1 X-21.859 Y58.874 E32.18272
G1 X-22.533 Y58.421 E32.1996
G1 X-22.97 Y58.034 E32.21173
G1 X-23.476 Y57.449 E32.22781
G1 X-23.811 Y56.93 E32.24065
G1 X-24.249 Y55.978 E32.26244
G1 X-24.401 Y55.519 E32.27249
G1 X-24.497 Y55.071 E32.28201
G1 X-24.546 Y54.611 E32.29163
G1 X-24.594 Y-53.221 E34.53319
G1 F1500 E28.03319
G1 Z1.125
G0 F3600 X-21.794 Y-54.039 Z1.125
;TYPE:WALL-INNER
G1 Z0.125
G1 F1500 E34.53319
G1 F1800 X-21.786 Y-54.278 E34.53816
G1 X-21.759 Y-54.515 E34.54312
G1 X-21.722 Y-54.712 E34.54729
G1 X-21.661 Y-54.935 E34.5521
G1 X-21.584 Y-55.152 E34.55688
G1 X-21.499 Y-55.344 E34.56125
G1 X-21.401 Y-55.524 E34.56551
G1 X-21.278 Y-55.714 E34.57021
G1 X-21.16 Y-55.868 E34.57425
G1 X-21.012 Y-56.032 E34.57884
G1 X-20.865 Y-56.169 E34.58301
G1 X-20.715 Y-56.287 E34.58698
G1 X-20.558 Y-56.391 E34.5909
G1 X-20.366 Y-56.495 E34.59544
G1 X-20.2 Y-56.566 E34.59919
G1 X-20.012 Y-56.628 E34.6033
G1 X-19.828 Y-56.671 E34.60723
G1 X-19.662 Y-56.693 E34.61071
G1 X-19.432 Y-56.704 E34.6155
G1 X19.432 Y-56.705 E35.42339
G1 X19.663 Y-56.694 E35.4282
G1 X19.829 Y-56.672 E35.43168
G1 X20.017 Y-56.628 E35.43569
G1 X20.2 Y-56.568 E35.43969
G1 X20.378 Y-56.491 E35.44373
G1 X20.545 Y-56.401 E35.44767
G1 X20.711 Y-56.292 E35.4518
G1 X20.872 Y-56.164 E35.45607
G1 X21.014 Y-56.031 E35.46012
G1 X21.162 Y-55.867 E35.46471
G1 X21.284 Y-55.709 E35.46886
G1 X21.394 Y-55.538 E35.47309
G1 X21.502 Y-55.338 E35.47781
G1 X21.586 Y-55.151 E35.48207
G1 X21.668 Y-54.916 E35.48725
G1 X21.718 Y-54.73 E35.49125
G1 X21.76 Y-54.506 E35.49599
G1 X21.785 Y-54.292 E35.50047
G1 X21.794 Y-54.046 E35.50558
G1 X21.794 Y54.064 E37.75293
G1 X21.785 Y54.303 E37.7579
G1 X21.758 Y54.542 E37.7629
G1 X21.72 Y54.743 E37.76715
G1 X21.662 Y54.958 E37.77178
G1 X21.587 Y55.169 E37.77644
G1 X21.496 Y55.376 E37.78114
G1 X21.403 Y55.548 E37.7852
G1 X21.28 Y55.74 E37.78994
G1 X21.155 Y55.902 E37.7942
G1 X21.021 Y56.05 E37.79835
G1 X20.866 Y56.195 E37.80276
G1 X20.715 Y56.313 E37.80674
G1 X20.558 Y56.417 E37.81066
G1 X20.363 Y56.523 E37.81527
G1 X20.21 Y56.588 E37.81873
G1 X20.008 Y56.655 E37.82315
G1 X19.828 Y56.697 E37.82699
G1 X19.662 Y56.719 E37.83047
G1 X19.432 Y56.73 E37.83526
G1 X-19.432 Y56.731 E38.64315
G1 X-19.663 Y56.72 E38.64796
G1 X-19.829 Y56.698 E38.65144
G1 X-20.017 Y56.654 E38.65545
G1 X-20.2 Y56.594 E38.65945
G1 X-20.378 Y56.517 E38.66349
G1 X-20.545 Y56.427 E38.66743
G1 X-20.711 Y56.318 E38.67156
G1 X-20.872 Y56.19 E38.67583
G1 X-21.014 Y56.057 E38.67988
G1 X-21.162 Y55.893 E38.68447
G1 X-21.28 Y55.74 E38.68849
G1 X-21.404 Y55.547 E38.69325
G1 X-21.502 Y55.366 E38.69753
G1 X-21.587 Y55.173 E38.70192
G1 X-21.664 Y54.955 E38.70672
G1 X-21.721 Y54.745 E38.71125
G1 X-21.76 Y54.535 E38.71569
G1 X-21.785 Y54.313 E38.72033
G1 X-21.794 Y54.072 E38.72534
G1 X-21.794 Y-54.039 E40.97271
G0 F3600 X-21.695 Y-54.038
G0 X-18.564 Y-54.656
G0 X-18.494 Y-54.586
G1 F1800 X-18.494 Y52.613 E43.20112
G1 X-16.294 Y52.613 E43.24685
G1 X-16.294 Y-54.586 E45.47526
G1 X-18.494 Y-54.586 E45.52099
G0 F3600 X-18.564 Y-54.656
G0 X-16.266 Y-54.614
G0 X-13.119 Y-50.756
G0 X-13.049 Y-50.686
G1 F1800 X-13.049 Y22.513 E47.04262
G1 X13.05 Y22.513 E47.58516
G1 X13.05 Y-50.686 E49.10679
G1 X-13.049 Y-50.686 E49.64932
G0 F3600 X-13.119 Y-50.756
G0 X16.435 Y-54.656
G0 X16.505 Y-54.586
G1 F1800 X16.505 Y52.613 E51.87773
G1 X18.705 Y52.613 E51.92346
G1 X18.705 Y-54.586 E54.15187
G1 X16.505 Y-54.586 E54.19761
G0 F3600 X16.435 Y-54.656
G0 X15.089 Y25.836
G0 X15.019 Y25.906
G1 F1800 X11.819 Y25.906 E54.26413
G1 X11.819 Y51.106 E54.78797
G1 X15.019 Y51.106 E54.85449
G1 X15.019 Y25.906 E55.37834
G0 F3600 X15.089 Y25.836
G0 X11.791 Y25.878
G0 X7.421 Y30.569
G0 X7.335 Y30.619
G1 F1800 X7.228 Y30.466 E55.38222
G1 X7.092 Y30.329 E55.38623
G1 X6.93 Y30.217 E55.39033
G1 X6.754 Y30.137 E55.39435
G1 X6.571 Y30.091 E55.39827
G1 X6.378 Y30.073 E55.4023
G1 X6.186 Y30.093 E55.40631
G1 X6.003 Y30.142 E55.41025
G1 X5.828 Y30.226 E55.41428
G1 X5.675 Y30.334 E55.41818
G1 X5.537 Y30.471 E55.42222
G1 X5.428 Y30.629 E55.42621
G1 X5.347 Y30.807 E55.43028
G1 X5.3 Y30.99 E55.4342
G1 X5.282 Y31.183 E55.43823
G1 X5.302 Y31.375 E55.44225
G1 X5.351 Y31.558 E55.44618
G1 X5.434 Y31.731 E55.45017
G1 X5.542 Y31.887 E55.45412
G1 X5.682 Y32.026 E55.45822
G1 X5.838 Y32.133 E55.46215
G1 X6.013 Y32.214 E55.46616
G1 X6.199 Y32.263 E55.47016
G1 X6.391 Y32.278 E55.47416
G1 X6.583 Y32.261 E55.47817
G1 X6.771 Y32.209 E55.48222
G1 X6.94 Y32.126 E55.48614
G1 X7.095 Y32.02 E55.49004
G1 X7.234 Y31.88 E55.49414
G1 X7.343 Y31.721 E55.49815
G1 X7.423 Y31.547 E55.50213
G1 X7.472 Y31.362 E55.50611
G1 X7.487 Y31.17 E55.51011
G1 X7.47 Y30.978 E55.51412
G1 X7.418 Y30.79 E55.51817
G1 X7.335 Y30.619 E55.52212
G0 F3600 X7.421 Y30.569
G0 X7.527 Y31.17
G0 X6.378 Y44.473
G0 X6.378 Y44.573
G1 F1800 X6.186 Y44.593 E55.52614
G1 X6.003 Y44.642 E55.53007
G1 X5.828 Y44.726 E55.53411
G1 X5.675 Y44.834 E55.538
G1 X5.537 Y44.971 E55.54204
G1 X5.428 Y45.129 E55.54603
G1 X5.347 Y45.307 E55.5501
G1 X5.3 Y45.49 E55.55403
G1 X5.282 Y45.683 E55.55806
G1 X5.302 Y45.875 E55.56207
G1 X5.351 Y46.058 E55.56601
G1 X5.434 Y46.231 E55.57
G1 X5.542 Y46.387 E55.57394
G1 X5.682 Y46.526 E55.57804
G1 X5.838 Y46.633 E55.58197
G1 X6.013 Y46.714 E55.58598
G1 X6.199 Y46.763 E55.58998
G1 X6.391 Y46.778 E55.59398
G1 X6.583 Y46.761 E55.59799
G1 X6.771 Y46.709 E55.60205
G1 X6.94 Y46.626 E55.60596
G1 X7.095 Y46.52 E55.60986
G1 X7.234 Y46.38 E55.61396
G1 X7.343 Y46.221 E55.61797
G1 X7.423 Y46.047 E55.62195
G1 X7.472 Y45.862 E55.62593
G1 X7.487 Y45.67 E55.62994
G1 X7.47 Y45.478 E55.63394
G1 X7.418 Y45.29 E55.638
G1 X7.335 Y45.119 E55.64195
G1 X7.228 Y44.966 E55.64583
G1 X7.092 Y44.829 E55.64984
G1 X6.93 Y44.717 E55.65394
