;FLAVOR:RepRap
;TIME:3076
;Filament used: 1.99301m
;Layer height: 0.15
;Generated with Cura_SteamEngine 2.4.0
M190 S60
M104 S205
M109 S205
G21 ;metric values
G90 ;absolute positioning
M82 ;set extruder to absolute mode
M107 ;start with the fan off
G28 ;Home all axes (max endstops)

M0 Add PROBE
M106 S255 ;	Turn fan on 100% power, cool the probe
M117 Auto leveling...
G29   ; DAQ -- auto level
M500
G1 x0 y0
M0 Remove PROBE

G1 Z75.0 F9000 ;move the platform down 15mm
G92 E0 ;zero the extruded length
G1 F200 E3 ;extrude 3mm of feed stock
G92 E0 ;zero the extruded length again

G1 Z100 F9000
M0 CLEAN ME...

M106 S191 ;	Turn fan on 50% power

G1 F9000
M117 Printing...
;LAYER_COUNT:102
;LAYER:0
M107
G1 F1500 E-6.5
G1 Z21
G0 F3600 X-29.779 Y12.434 Z1.125
;TYPE:SKIRT
G1 Z0.125
G1 F1500 E0
G1 F1800 X-32.679 Y7.034 E0.12742
G1 X-32.984 Y6.281 E0.1443
G1 X-33.61 Y4.092 E0.19163
G1 X-35.337 Y-1.147 E0.3063
G1 X-36.285 Y-3.662 E0.36217
G1 X-37.328 Y-6.203 E0.41927
G1 X-39.392 Y-10.851 E0.52499
G1 X-39.628 Y-11.568 E0.54068
G1 X-39.735 Y-12.049 E0.55093
G1 X-39.823 Y-12.724 E0.56508
G1 X-39.861 Y-13.687 E0.58511
G1 X-39.843 Y-14.238 E0.59657
G1 X-39.771 Y-14.67 E0.60567
G1 X-39.528 Y-15.751 E0.62871
G1 X-39.354 Y-16.317 E0.64102
G1 X-37.115 Y-21.971 E0.76743
G1 X-36.78 Y-22.624 E0.78269
G1 X-34.582 Y-26.05 E0.8673
G1 X-31.854 Y-30.777 E0.98075
G1 X-29.415 Y-35.618 E1.09344
G1 X-26.432 Y-42.538 E1.25008
G1 X-25.135 Y-45.924 E1.32546
G1 X-24.901 Y-46.423 E1.33691
G1 X-24.597 Y-46.883 E1.34838
G1 X-24.23 Y-47.294 E1.35983
G1 X-23.897 Y-47.581 E1.36897
G1 X-19.792 Y-50.727 E1.47648
G1 X-16.372 Y-53.601 E1.56934
G1 X-15.781 Y-54.009 E1.58427
G1 X-14.833 Y-54.539 E1.60685
G1 X-14.334 Y-54.772 E1.6183
G1 X-13.929 Y-54.901 E1.62713
G1 X-13.003 Y-55.14 E1.64701
G1 X-12.471 Y-55.238 E1.65826
G1 X-5.419 Y-56.018 E1.80574
G1 X0.911 Y-57.131 E1.93935
G1 X1.459 Y-57.186 E1.9508
G1 X1.809 Y-57.18 E1.95807
G1 X6.726 Y-56.868 E2.06049
G1 X11.04 Y-56.773 E2.15019
G1 X26.945 Y-56.813 E2.48082
G1 X33.12 Y-57.174 E2.6094
G1 X33.811 Y-57.151 E2.62377
G1 X34.904 Y-57.015 E2.64667
G1 X35.445 Y-56.907 E2.65814
G1 X36.104 Y-56.658 E2.67278
G1 X36.56 Y-56.435 E2.68333
G1 X37.213 Y-56.029 E2.69932
G1 X37.63 Y-55.707 E2.71027
G1 X38.041 Y-55.339 E2.72174
G1 X38.405 Y-54.901 E2.73358
G1 X38.941 Y-54.147 E2.75281
G1 X39.227 Y-53.676 E2.76426
G1 X39.442 Y-53.168 E2.77573
G1 X39.534 Y-52.853 E2.78255
G1 X39.768 Y-51.902 E2.80291
G1 X39.86 Y-51.359 E2.81436
G1 X39.855 Y-50.572 E2.83072
G1 X39.148 Y-44.239 E2.96318
G1 X38.835 Y-38.803 E3.07637
G1 X38.793 Y9.88 E4.08837
G1 X38.948 Y15.351 E4.20215
G1 X39.412 Y20.813 E4.3161
G1 X39.846 Y24.446 E4.39216
G1 X39.872 Y24.997 E4.40362
G1 X39.85 Y25.31 E4.41015
G1 X39.073 Y32.415 E4.55872
G1 X38.81 Y37.885 E4.67256
G1 X38.777 Y53.4 E4.99508
G1 X38.736 Y53.949 E5.00653
G1 X38.616 Y54.487 E5.01799
G1 X38.419 Y55.002 E5.02945
G1 X38.15 Y55.483 E5.0409
G1 X37.814 Y55.92 E5.05236
G1 X37.419 Y56.303 E5.0638
G1 X36.972 Y56.626 E5.07526
G1 X36.484 Y56.881 E5.08671
G1 X35.963 Y57.062 E5.09818
G1 X35.422 Y57.166 E5.10963
G1 X34.976 Y57.192 E5.11891
G1 X-.528 Y57.187 E5.85696
G1 X-1.077 Y57.147 E5.8684
G1 X-1.432 Y57.078 E5.87592
G1 X-6.964 Y55.722 E5.99432
G1 X-9.585 Y55.199 E6.04988
G1 X-13.789 Y54.489 E6.13851
G1 X-14.469 Y54.308 E6.15313
G1 X-15.349 Y53.984 E6.17263
G1 X-15.851 Y53.757 E6.18408
G1 X-16.211 Y53.534 E6.19288
G1 X-17.105 Y52.91 E6.21555
G1 X-17.707 Y52.387 E6.23212
G1 X-18.116 Y51.949 E6.24458
G1 X-18.58 Y51.34 E6.2605
G1 X-19.102 Y50.487 E6.28128
G1 X-19.355 Y49.997 E6.29275
G1 X-19.505 Y49.581 E6.30194
G1 X-19.814 Y48.536 E6.32459
G1 X-19.944 Y47.904 E6.33801
G1 X-20.781 Y40.82 E6.48629
G1 X-21.753 Y35.472 E6.59928
G1 X-23.026 Y30.191 E6.71221
G1 X-24.597 Y24.977 E6.82541
G1 X-26.455 Y19.875 E6.93828
G1 X-27.492 Y17.365 E6.99473
G1 X-29.779 Y12.434 E7.10772
G0 F3600 X-29.431 Y12.235
G1 F1800 X-32.326 Y6.845 E7.23491
G1 X-32.6 Y6.171 E7.25003
G1 X-33.232 Y3.96 E7.29784
G1 X-34.964 Y-1.294 E7.41283
G1 X-35.916 Y-3.818 E7.46891
G1 X-36.95 Y-6.339 E7.52555
G1 X-39.026 Y-11.013 E7.63187
G1 X-39.238 Y-11.655 E7.64592
G1 X-39.345 Y-12.136 E7.65616
G1 X-39.423 Y-12.74 E7.66882
G1 X-39.461 Y-13.703 E7.68886
G1 X-39.442 Y-14.224 E7.6997
G1 X-39.381 Y-14.583 E7.70727
G1 X-39.138 Y-15.664 E7.7303
G1 X-38.982 Y-16.17 E7.7413
G1 X-36.743 Y-21.824 E7.86772
G1 X-36.444 Y-22.408 E7.88136
G1 X-34.238 Y-25.846 E7.96627
G1 X-31.501 Y-30.59 E8.08012
G1 X-29.047 Y-35.459 E8.19347
G1 X-26.062 Y-42.385 E8.35024
G1 X-24.761 Y-45.781 E8.42584
G1 X-24.538 Y-46.252 E8.43667
G1 X-24.245 Y-46.683 E8.44751
G1 X-23.89 Y-47.065 E8.45835
G1 X-23.654 Y-47.264 E8.46477
G1 X-19.538 Y-50.418 E8.57256
G1 X-16.115 Y-53.295 E8.66551
G1 X-15.586 Y-53.66 E8.67887
G1 X-14.638 Y-54.19 E8.70145
G1 X-14.165 Y-54.408 E8.71227
G1 X-13.829 Y-54.514 E8.7196
G1 X-12.903 Y-54.753 E8.73948
G1 X-12.427 Y-54.84 E8.74954
G1 X-5.369 Y-55.621 E8.89715
G1 X0.98 Y-56.737 E9.03116
G1 X1.499 Y-56.787 E9.04199
G1 X1.784 Y-56.781 E9.04792
G1 X6.717 Y-56.468 E9.15067
G1 X11.032 Y-56.373 E9.24039
G1 X26.969 Y-56.413 E9.57168
G1 X33.143 Y-56.774 E9.70025
G1 X33.762 Y-56.754 E9.71312
G1 X34.855 Y-56.618 E9.73602
G1 X35.366 Y-56.514 E9.74686
G1 X35.929 Y-56.298 E9.75939
G1 X36.385 Y-56.075 E9.76994
G1 X36.969 Y-55.712 E9.78424
G1 X37.386 Y-55.39 E9.79519
G1 X37.773 Y-55.041 E9.80602
G1 X38.079 Y-54.669 E9.81604
G1 X38.615 Y-53.915 E9.83527
G1 X38.884 Y-53.468 E9.84611
G1 X39.146 Y-52.757 E9.86186
G1 X39.38 Y-51.806 E9.88222
G1 X39.465 Y-51.292 E9.89305
G1 X39.457 Y-50.617 E9.90708
G1 X38.748 Y-44.271 E10.03982
G1 X38.435 Y-38.826 E10.1532
G1 X38.393 Y9.856 E11.16518
G1 X38.549 Y15.379 E11.28003
G1 X39.016 Y20.867 E11.39453
G1 X39.449 Y24.494 E11.47046
G1 X39.453 Y25.267 E11.48653
G1 X38.673 Y32.403 E11.63575
G1 X38.41 Y37.865 E11.74943
G1 X38.377 Y53.399 E12.07234
G1 X38.336 Y53.919 E12.08319
G1 X38.216 Y54.426 E12.09402
G1 X38.02 Y54.909 E12.10485
G1 X37.752 Y55.356 E12.11569
G1 X37.42 Y55.757 E12.12651
G1 X37.029 Y56.103 E12.13736
G1 X36.591 Y56.384 E12.14818
G1 X36.115 Y56.596 E12.15901
G1 X35.612 Y56.732 E12.16984
G1 X34.977 Y56.792 E12.1831
G1 X-.527 Y56.787 E12.92114
G1 X-1.047 Y56.747 E12.93199
G1 X-1.337 Y56.689 E12.93813
G1 X-6.882 Y55.33 E13.05681
G1 X-9.512 Y54.805 E13.11256
G1 X-13.722 Y54.094 E13.20132
G1 X-14.331 Y53.933 E13.21441
G1 X-15.211 Y53.609 E13.2339
G1 X-15.685 Y53.392 E13.24474
G1 X-15.982 Y53.206 E13.25203
G1 X-16.876 Y52.582 E13.27469
G1 X-17.415 Y52.114 E13.28953
G1 X-17.824 Y51.676 E13.30199
G1 X-18.239 Y51.131 E13.31623
G1 X-18.761 Y50.278 E13.33701
G1 X-18.998 Y49.814 E13.34784
G1 X-19.121 Y49.467 E13.3555
G1 X-19.43 Y48.422 E13.37815
G1 X-19.546 Y47.857 E13.39014
G1 X-20.384 Y40.768 E13.53853
G1 X-21.361 Y35.391 E13.65213
G1 X-22.639 Y30.086 E13.76557
G1 X-24.212 Y24.867 E13.87888
G1 X-26.092 Y19.705 E13.99308
G1 X-27.114 Y17.233 E14.04868
G1 X-29.431 Y12.235 E14.1632
G0 F3600 X-29.07 Y12.063
G1 F1800 X-31.974 Y6.656 E14.29079
G1 X-32.215 Y6.061 E14.30413
G1 X-32.849 Y3.844 E14.35206
G1 X-34.582 Y-1.413 E14.46713
G1 X-35.548 Y-3.975 E14.52405
G1 X-36.579 Y-6.487 E14.58049
G1 X-38.661 Y-11.176 E14.68714
G1 X-38.847 Y-11.742 E14.69953
G1 X-38.954 Y-12.223 E14.70977
G1 X-39.024 Y-12.756 E14.72095
G1 X-39.062 Y-13.719 E14.74098
G1 X-39.041 Y-14.208 E14.75115
G1 X-38.991 Y-14.495 E14.75721
G1 X-38.748 Y-15.576 E14.78024
G1 X-38.61 Y-16.023 E14.78997
G1 X-36.371 Y-21.677 E14.91638
G1 X-36.107 Y-22.192 E14.92841
G1 X-33.904 Y-25.626 E15.01322
G1 X-31.148 Y-30.403 E15.12786
G1 X-28.687 Y-35.286 E15.24153
G1 X-25.683 Y-42.253 E15.39925
G1 X-24.387 Y-45.638 E15.4746
G1 X-24.176 Y-46.079 E15.48476
G1 X-23.895 Y-46.48 E15.49494
G1 X-23.411 Y-46.946 E15.5089
G1 X-19.287 Y-50.106 E15.61691
G1 X-15.857 Y-52.989 E15.71005
G1 X-15.391 Y-53.311 E15.72182
G1 X-14.443 Y-53.841 E15.7444
G1 X-13.998 Y-54.044 E15.75457
G1 X-13.729 Y-54.127 E15.76042
G1 X-12.803 Y-54.366 E15.7803
G1 X-12.383 Y-54.443 E15.78918
G1 X-5.301 Y-55.226 E15.93729
G1 X1.05 Y-56.343 E16.07134
G1 X1.759 Y-56.382 E16.0861
G1 X6.707 Y-56.068 E16.18916
G1 X11.024 Y-55.973 E16.27893
G1 X26.976 Y-56.013 E16.61053
G1 X33.167 Y-56.375 E16.73945
G1 X33.712 Y-56.357 E16.75078
G1 X34.805 Y-56.221 E16.77368
G1 X35.285 Y-56.121 E16.78387
G1 X35.753 Y-55.939 E16.79431
G1 X36.209 Y-55.716 E16.80486
G1 X36.725 Y-55.395 E16.81749
G1 X37.142 Y-55.073 E16.82845
G1 X37.503 Y-54.744 E16.8386
G1 X37.753 Y-54.437 E16.84683
G1 X38.289 Y-53.683 E16.86606
G1 X38.539 Y-53.262 E16.87624
G1 X38.757 Y-52.662 E16.88951
G1 X38.991 Y-51.711 E16.90987
G1 X39.069 Y-51.228 E16.92004
G1 X39.059 Y-50.661 E16.93183
G1 X38.351 Y-44.318 E17.0645
G1 X38.035 Y-38.832 E17.17873
G1 X37.993 Y9.867 E18.19106
G1 X38.15 Y15.407 E18.30627
G1 X38.616 Y20.888 E18.42062
G1 X39.052 Y24.541 E18.4971
G1 X39.055 Y25.223 E18.51127
G1 X38.275 Y32.356 E18.66044
G1 X38.01 Y37.866 E18.77511
G1 X37.977 Y53.398 E19.09798
G1 X37.936 Y53.886 E19.10816
G1 X37.816 Y54.361 E19.11835
G1 X37.621 Y54.81 E19.12852
G1 X37.355 Y55.221 E19.1387
G1 X37.026 Y55.583 E19.14887
G1 X36.643 Y55.887 E19.15903
G1 X36.215 Y56.125 E19.16921
G1 X35.754 Y56.29 E19.17939
G1 X35.272 Y56.377 E19.18957
G1 X34.977 Y56.392 E19.19571
G1 X-.527 Y56.387 E19.93376
G1 X-1.241 Y56.301 E19.94871
G1 X-6.8 Y54.938 E20.06769
G1 X-9.427 Y54.415 E20.12337
G1 X-13.656 Y53.7 E20.21253
G1 X-14.193 Y53.557 E20.22408
G1 X-15.073 Y53.233 E20.24357
G1 X-15.517 Y53.027 E20.25375
G1 X-15.753 Y52.878 E20.25955
G1 X-16.647 Y52.254 E20.28221
G1 X-17.123 Y51.841 E20.29531
G1 X-17.532 Y51.403 E20.30777
G1 X-17.898 Y50.922 E20.32033
G1 X-18.42 Y50.069 E20.34112
G1 X-18.64 Y49.632 E20.35129
G1 X-18.738 Y49.354 E20.35742
G1 X-19.047 Y48.309 E20.38007
G1 X-19.149 Y47.81 E20.39066
G1 X-19.988 Y40.712 E20.53924
G1 X-20.968 Y35.318 E20.6532
G1 X-22.258 Y29.966 E20.76764
G1 X-23.834 Y24.736 E20.88119
G1 X-25.714 Y19.576 E20.99535
G1 X-26.752 Y17.061 E21.05191
G1 X-29.07 Y12.063 E21.16644
G0 F3600 X-28.712 Y11.884
G1 F1800 X-31.622 Y6.466 E21.29428
G1 X-31.831 Y5.951 E21.30583
G1 X-32.471 Y3.713 E21.35422
G1 X-34.202 Y-1.538 E21.46916
G1 X-35.18 Y-4.131 E21.52676
G1 X-36.214 Y-6.653 E21.58343
G1 X-38.295 Y-11.338 E21.68999
G1 X-38.457 Y-11.828 E21.70072
G1 X-38.564 Y-12.309 E21.71096
G1 X-38.624 Y-12.771 E21.72065
G1 X-38.662 Y-13.734 E21.74068
G1 X-38.601 Y-14.407 E21.75473
G1 X-38.358 Y-15.488 E21.77776
G1 X-38.238 Y-15.875 E21.78618
G1 X-35.999 Y-21.529 E21.9126
G1 X-35.77 Y-21.976 E21.92304
G1 X-33.559 Y-25.422 E22.00815
G1 X-30.801 Y-30.202 E22.12287
G1 X-28.323 Y-35.119 E22.23732
G1 X-25.318 Y-42.092 E22.39516
G1 X-24.014 Y-45.495 E22.47092
G1 X-23.814 Y-45.905 E22.4804
G1 X-23.546 Y-46.273 E22.48987
G1 X-23.167 Y-46.629 E22.50067
G1 X-19.031 Y-49.799 E22.609
G1 X-15.6 Y-52.682 E22.70216
G1 X-15.196 Y-52.961 E22.71237
G1 X-14.248 Y-53.491 E22.73494
G1 X-13.629 Y-53.739 E22.7488
G1 X-12.703 Y-53.978 E22.76868
G1 X-12.339 Y-54.045 E22.77638
G1 X-5.25 Y-54.829 E22.92464
G1 X1.119 Y-55.949 E23.05907
G1 X1.733 Y-55.983 E23.07185
G1 X6.696 Y-55.669 E23.17523
G1 X11.016 Y-55.573 E23.26505
G1 X26.982 Y-55.613 E23.59695
G1 X33.19 Y-55.976 E23.72622
G1 X33.663 Y-55.96 E23.73605
G1 X34.756 Y-55.824 E23.75895
G1 X35.202 Y-55.728 E23.76843
G1 X35.577 Y-55.58 E23.77681
G1 X36.033 Y-55.357 E23.78737
G1 X36.48 Y-55.079 E23.79831
G1 X36.897 Y-54.757 E23.80926
G1 X37.232 Y-54.448 E23.81873
G1 X37.427 Y-54.205 E23.82521
G1 X37.963 Y-53.451 E23.84444
G1 X38.194 Y-53.058 E23.85392
G1 X38.369 Y-52.566 E23.86477
G1 X38.603 Y-51.615 E23.88513
G1 X38.672 Y-51.165 E23.8946
G1 X38.662 Y-50.705 E23.90416
G1 X37.952 Y-44.348 E24.03713
G1 X37.635 Y-38.837 E24.15188
G1 X37.593 Y9.878 E25.16455
G1 X37.75 Y15.417 E25.27973
G1 X38.219 Y20.941 E25.39498
G1 X38.655 Y24.589 E25.47135
G1 X38.658 Y25.18 E25.48364
G1 X37.875 Y32.343 E25.63343
G1 X37.61 Y37.846 E25.74795
G1 X37.577 Y53.397 E26.07122
G1 X37.536 Y53.851 E26.0807
G1 X37.417 Y54.291 E26.09017
G1 X37.222 Y54.703 E26.09965
G1 X36.959 Y55.075 E26.10912
G1 X36.635 Y55.395 E26.11858
G1 X36.26 Y55.654 E26.12806
G1 X35.845 Y55.843 E26.13754
G1 X35.404 Y55.957 E26.14701
G1 X34.977 Y55.992 E26.15591
G1 X-.527 Y55.987 E26.89395
G1 X-1.146 Y55.912 E26.90692
G1 X-6.696 Y54.551 E27.0257
G1 X-9.353 Y54.022 E27.08202
G1 X-13.589 Y53.306 E27.17133
G1 X-14.054 Y53.182 E27.18133
G1 X-14.934 Y52.858 E27.20082
G1 X-15.524 Y52.55 E27.21466
G1 X-16.418 Y51.926 E27.23732
G1 X-16.83 Y51.568 E27.24867
G1 X-17.239 Y51.13 E27.26113
G1 X-17.557 Y50.713 E27.27203
G1 X-18.079 Y49.86 E27.29282
G1 X-18.354 Y49.24 E27.30692
G1 X-18.663 Y48.195 E27.32957
G1 X-18.752 Y47.763 E27.33874
G1 X-19.594 Y40.644 E27.48776
G1 X-20.576 Y35.238 E27.60197
G1 X-21.871 Y29.862 E27.71692
G1 X-23.454 Y24.609 E27.83097
G1 X-25.339 Y19.435 E27.94544
G1 X-26.386 Y16.901 E28.00244
G1 X-28.712 Y11.884 E28.11739
G0 F3600 X-28.354 Y11.705
G1 F1800 X-31.269 Y6.277 E28.24547
G1 X-31.446 Y5.841 E28.25525
G1 X-32.086 Y3.604 E28.30362
G1 X-33.823 Y-1.664 E28.41892
G1 X-34.814 Y-4.294 E28.47735
G1 X-35.835 Y-6.782 E28.53325
G1 X-37.93 Y-11.5 E28.64056
G1 X-38.067 Y-11.915 E28.64965
G1 X-38.174 Y-12.396 E28.65989
G1 X-38.224 Y-12.787 E28.66809
G1 X-38.262 Y-13.75 E28.68812
G1 X-38.21 Y-14.32 E28.70002
G1 X-37.967 Y-15.401 E28.72305
G1 X-37.866 Y-15.728 E28.73016
G1 X-35.627 Y-21.382 E28.85658
G1 X-35.434 Y-21.76 E28.8654
G1 X-33.215 Y-25.218 E28.95081
G1 X-30.448 Y-30.014 E29.06591
G1 X-27.956 Y-34.96 E29.18104
G1 X-24.947 Y-41.939 E29.33903
G1 X-23.64 Y-45.352 E29.415
G1 X-23.454 Y-45.727 E29.4237
G1 X-23.2 Y-46.06 E29.43241
G1 X-22.924 Y-46.311 E29.44016
G1 X-18.78 Y-49.487 E29.54869
G1 X-15.342 Y-52.376 E29.64205
G1 X-15.001 Y-52.612 E29.65067
G1 X-14.053 Y-53.142 E29.67324
G1 X-13.529 Y-53.352 E29.68498
G1 X-12.603 Y-53.591 E29.70486
G1 X-12.295 Y-53.648 E29.71137
G1 X-5.185 Y-54.434 E29.86007
G1 X1.188 Y-55.555 E29.99458
G1 X1.708 Y-55.584 E30.00541
G1 X6.687 Y-55.269 E30.10912
G1 X11.009 Y-55.173 E30.19898
G1 X27.007 Y-55.213 E30.53154
G1 X33.214 Y-55.576 E30.66079
G1 X33.614 Y-55.563 E30.66911
G1 X34.707 Y-55.427 E30.69201
G1 X35.116 Y-55.336 E30.70072
G1 X35.401 Y-55.22 E30.70711
G1 X35.857 Y-54.997 E30.71767
G1 X36.236 Y-54.762 E30.72694
G1 X36.653 Y-54.44 E30.73789
G1 X36.958 Y-54.154 E30.74658
G1 X37.101 Y-53.974 E30.75136
G1 X37.637 Y-53.22 E30.77059
G1 X37.846 Y-52.857 E30.7793
G1 X37.98 Y-52.471 E30.78779
G1 X38.214 Y-51.52 E30.80815
G1 X38.275 Y-51.105 E30.81687
G1 X38.264 Y-50.75 E30.82425
G1 X37.553 Y-44.379 E30.95751
G1 X37.235 Y-38.861 E31.07241
G1 X37.193 Y9.889 E32.0858
G1 X37.35 Y15.445 E32.20135
G1 X37.822 Y20.991 E32.31705
G1 X38.257 Y24.636 E32.39336
G1 X38.26 Y25.136 E32.40375
G1 X37.475 Y32.312 E32.55381
G1 X37.21 Y37.826 E32.66857
G1 X37.177 Y53.397 E32.99225
G1 X37.136 Y53.814 E33.00096
G1 X37.017 Y54.215 E33.00966
G1 X36.824 Y54.587 E33.01837
G1 X36.564 Y54.916 E33.02709
G1 X36.246 Y55.189 E33.0358
G1 X35.882 Y55.397 E33.04451
G1 X35.486 Y55.532 E33.05321
G1 X34.977 Y55.592 E33.06387
G1 X-.527 Y55.587 E33.80191
G1 X-1.051 Y55.524 E33.81288
G1 X-6.615 Y54.16 E33.93197
G1 X-9.307 Y53.623 E33.98903
G1 X-13.523 Y52.911 E34.07791
G1 X-13.916 Y52.807 E34.08636
G1 X-14.796 Y52.483 E34.10585
G1 X-15.295 Y52.222 E34.11756
G1 X-16.189 Y51.598 E34.14022
G1 X-16.538 Y51.295 E34.14983
G1 X-16.947 Y50.857 E34.16229
G1 X-17.216 Y50.504 E34.17152
G1 X-17.738 Y49.651 E34.1923
G1 X-17.971 Y49.127 E34.20422
G1 X-18.28 Y48.082 E34.22688
G1 X-18.355 Y47.716 E34.23464
G1 X-19.198 Y40.588 E34.38385
G1 X-20.187 Y35.144 E34.49887
G1 X-21.483 Y29.762 E34.61395
G1 X-23.076 Y24.478 E34.72867
G1 X-24.968 Y19.286 E34.84354
G1 X-26.019 Y16.74 E34.9008
G1 X-28.354 Y11.705 E35.01617
G1 F1500 E28.51617
G1 Z1.125
G0 F3600 X-13.125 Y-1.708 Z1.125
;TYPE:WALL-OUTER
G1 Z0.125
G1 F1500 E35.01617
G1 F1800 X-13.265 Y-1.89 E35.02095
G1 X-13.383 Y-2.077 E35.02554
G1 X-13.474 Y-2.257 E35.02974
G1 X-13.553 Y-2.459 E35.03425
G1 X-13.614 Y-2.672 E35.03885
G1 X-13.654 Y-2.878 E35.04321
G1 X-13.674 Y-3.094 E35.04772
G1 X-13.674 Y-3.312 E35.05225
G1 X-13.653 Y-3.534 E35.05689
G1 X-13.616 Y-3.728 E35.061
G1 X-13.553 Y-3.947 E35.06573
