; generated by Slic3r Prusa Edition 1.38.6-prusa3d-win64 on 2018-02-04 at 16:34:40

; 

; external perimeters extrusion width = 0.45mm
; perimeters extrusion width = 0.45mm
; infill extrusion width = 0.45mm
; solid infill extrusion width = 0.45mm
; top infill extrusion width = 0.45mm
; first layer extrusion width = 0.42mm

; external perimeters extrusion width = 0.45mm
; perimeters extrusion width = 0.45mm
; infill extrusion width = 0.45mm
; solid infill extrusion width = 0.45mm
; top infill extrusion width = 0.45mm
; first layer extrusion width = 0.42mm

; external perimeters extrusion width = 0.45mm
; perimeters extrusion width = 0.45mm
; infill extrusion width = 0.45mm
; solid infill extrusion width = 0.45mm
; top infill extrusion width = 0.45mm
; first layer extrusion width = 0.42mm

M107
M115 U3.1.0 ; tell printer latest fw version
; Start G-Code sequence START
T1
M104 S230 ; set extruder temp
M140 S60 ; set bed temp
M190 S60 ; wait for bed temp
M109 S230 ; wait for extruder temp
G21 ; set units to millimeters
G90 ; use absolute coordinates
M83 ; use relative distances for extrusion
G28 W
G80
G92 E0.0
M203 E100 ; set max feedrate
M92 E140 ; E-steps per filament milimeter

G92 E0.0
G21 ; set units to millimeters
G90 ; use absolute coordinates
M83 ; use relative distances for extrusion
T1
M900 K200; Filament gcode
G1 Z0.200 F7200.000
M900 K0
;--------------------
; CP PRIMING START
;--------------------
M220 S100
G1 X5.000 F7200
M907 E750
T1
M220 S100
G4 S0
; CP TOOLCHANGE LOAD
G1 X5.500 E20.0000 F1400
G1 X34.500 E40.0000 F3000
G1 X5.500 E20.0000 F1600
G1 X34.500 E10.0000 F1000
G1 X5.500 E0.8410 F1600
G1 Y0.425 F7200
G1 X34.500 E0.8410 F2200
G1 Y0.850 F7200
G1 X5.500 E0.8410 F2200
G1 Y1.275 F7200
G1 X34.500 E0.8410 F2200
G1 Y1.700 F7200
G1 X5.500 E0.8410 F2200
M907 E550
G1 Y2.200 F7200
; CP TOOLCHANGE UNLOAD
G1 X6.250 Y2.300 F4000
G1 X34.250 E1.3688
G1 Y2.900 E0.0145 F4600
G1 X5.750 E1.4116
G1 X6.250 Y3.500 E0.0145 F5200
G1 X33.750 E1.4886
G1 E-15.0000 F5000
G1 E-50.0000 F5400
G1 E-15.0000 F3000
G1 E-12.0000 F2000
M104 S230
G1 X34.750 Y3.900 F7200
G1 X5.250 E3.0000 F1600
G1 X34.750 E-5.0000
G1 X5.250 E5.0000 F2000
G1 X34.750 E-5.0000
G1 X5.250 E5.0000 F2400
G1 X34.750 E-5.0000
G1 X5.250 E5.0000
G1 X34.750 E-3.0000
G4 S0
G1 X35.000 Y0.000 F7200
T2
M220 S100
G4 S0
; CP TOOLCHANGE LOAD
G1 X35.500 E20.0000 F1400
G1 X64.500 E40.0000 F3000
G1 X35.500 E20.0000 F1600
G1 X64.500 E10.0000 F1000
G1 X35.500 E0.8410 F1600
G1 Y0.425 F7200
G1 X64.500 E0.8410 F2200
G1 Y0.850 F7200
G1 X35.500 E0.8410 F2200
G1 Y1.275 F7200
G1 X64.500 E0.8410 F2200
G1 Y1.700 F7200
G1 X35.500 E0.8410 F2200
M907 E550
G1 Y2.200 F7200
; CP TOOLCHANGE UNLOAD
G1 X36.250 Y2.300 F4000
G1 X64.250 E1.3688
G1 Y2.900 E0.0145 F4600
G1 X35.750 E1.4116
G1 X36.250 Y3.500 E0.0145 F5200
G1 X63.750 E1.4886
G1 E-15.0000 F5000
G1 E-50.0000 F5400
G1 E-15.0000 F3000
G1 E-12.0000 F2000
M104 S230
G1 X64.750 Y3.900 F7200
G1 X35.250 E3.0000 F1600
G1 X64.750 E-5.0000
G1 X35.250 E5.0000 F2000
G1 X64.750 E-5.0000
G1 X35.250 E5.0000 F2400
G1 X64.750 E-5.0000
G1 X35.250 E5.0000
G1 X64.750 E-3.0000
G4 S0
G1 X65.000 Y0.000 F7200
T0
M220 S100
G4 S0
; CP TOOLCHANGE LOAD
G1 X65.500 E20.0000 F1400
G1 X94.500 E40.0000 F3000
G1 X65.500 E20.0000 F1600
G1 X94.500 E10.0000 F1000
G1 X65.500 E0.8410 F1600
G1 Y0.425 F7200
G1 X94.500 E0.8410 F2200
G1 Y0.850 F7200
G1 X65.500 E0.8410 F2200
G1 Y1.275 F7200
G1 X94.500 E0.8410 F2200
G1 Y1.700 F7200
G1 X65.500 E0.8410 F2200
M907 E550
; CP TOOLCHANGE WIPE
G1 X65.750 Y2.100 E0.0161 F2125
G1 X94.500 E0.9838
G1 Y2.500 E0.0137 F2150
G1 X65.500 E0.9924
G1 Y2.900 E0.0137 F2175
G1 X95.000 E1.0095
G1 X94.500 Y3.300 E0.0219 F2200
G1 X65.500 E0.9924
G1 X65.750 Y3.700 E0.0161 F2225
G1 X94.500 E0.9838
M907 E550
G1 F6000
G4 S0
G92 E0
; CP PRIMING END
;------------------


G1 E-2.40000 F4800.00000
G1 F5760;_WIPE
G1 X96.420 Y3.700 E-1.52000
G1 E-0.08000 F4800.00000
G1 Z0.800 F7200.000
M300 S800 P500
M1 S10
;BEFORE_LAYER_CHANGE
;0.2


G1 Z0.200 F7200.000
;AFTER_LAYER_CHANGE
;0.2
M900 K0
G1 Z0.800 F7200.000
G1 X177.000 Y169.750 F7200.000
G1 Z0.200 F7200.000
G1 E4.00000 F3000.00000
;-------------------------------------
; CP WIPE TOWER FIRST LAYER BRIM START
G1 Y140.000 E1.2941 F2400
G1 X179.750 F7000
G1 Y170.250 E0.9650 F2100
G1 X210.250 E0.9729
G1 Y140.000 E0.9650
G1 X179.750 E0.9729
G1 X179.250 Y139.500 F7000
G1 Y170.750 E0.9969 F2100
G1 X210.750 E1.0049
G1 Y139.500 E0.9969
G1 X179.250 E1.0049
G1 X178.750 Y139.000 F7000
G1 Y171.250 E1.0288 F2100
G1 X211.250 E1.0367
G1 Y139.000 E1.0288
G1 X178.750 E1.0367
G1 X178.250 Y138.500 F7000
G1 Y171.750 E1.0607 F2100
G1 X211.750 E1.0687
G1 Y138.500 E1.0607
G1 X178.250 E1.0687
G1 X180.000 Y140.000 F7000
G1 X210.000
G1 X180.000
; CP WIPE TOWER FIRST LAYER BRIM END
;-----------------------------------
G1 X180.000 Y140.250 F7200
;--------------------
; CP EMPTY GRID START
; layer #0
G1 Y169.750 E0.8555 F1200
G1 X210.000 E0.8700
G1 Y140.250 E0.8555
G1 X180.250 E0.8627
G1 Y169.500 E0.8482 F1600
G1 X209.750 E0.8555
G1 Y140.500 E0.8410
G1 X180.500 E0.8482
G1 Y141.013 E0.0149
G1 X209.500 E0.8410
G1 Y141.527 E0.0149
G1 X180.500 E0.8410
G1 Y142.040 E0.0149
G1 X209.500 E0.8410
G1 Y142.554 E0.0149
G1 X180.500 E0.8410
G1 Y143.067 E0.0149
G1 X209.500 E0.8410
G1 Y143.580 E0.0149
G1 X180.500 E0.8410
G1 Y144.094 E0.0149
G1 X209.500 E0.8410
G1 Y144.607 E0.0149
G1 X180.500 E0.8410
G1 Y145.121 E0.0149
G1 X209.500 E0.8410
G1 Y145.634 E0.0149
G1 X180.500 E0.8410
G1 Y146.147 E0.0149
G1 X209.500 E0.8410
G1 Y146.661 E0.0149
G1 X180.500 E0.8410
G1 Y147.174 E0.0149
G1 X209.500 E0.8410
G1 Y147.688 E0.0149
G1 X180.500 E0.8410
G1 Y148.201 E0.0149
G1 X209.500 E0.8410
G1 Y148.714 E0.0149
G1 X180.500 E0.8410
G1 Y149.228 E0.0149
G1 X209.500 E0.8410
G1 Y149.741 E0.0149
G1 X180.500 E0.8410
G1 Y150.255 E0.0149
G1 X209.500 E0.8410
G1 Y150.768 E0.0149
G1 X180.500 E0.8410
G1 Y151.281 E0.0149
G1 X209.500 E0.8410
G1 Y151.795 E0.0149
G1 X180.500 E0.8410
G1 Y152.308 E0.0149
G1 X209.500 E0.8410
G1 Y152.822 E0.0149
G1 X180.500 E0.8410
G1 Y153.335 E0.0149
G1 X209.500 E0.8410
G1 Y153.848 E0.0149
G1 X180.500 E0.8410
G1 Y154.362 E0.0149
G1 X209.500 E0.8410
G1 Y154.875 E0.0149
G1 X180.500 E0.8410
G1 Y155.389 E0.0149
G1 X209.500 E0.8410
G1 Y155.902 E0.0149
G1 X180.500 E0.8410
G1 Y156.415 E0.0149
G1 X209.500 E0.8410
G1 Y156.929 E0.0149
G1 X180.500 E0.8410
G1 Y157.442 E0.0149
G1 X209.500 E0.8410
G1 Y157.956 E0.0149
G1 X180.500 E0.8410
G1 Y158.469 E0.0149
G1 X209.500 E0.8410
G1 Y158.982 E0.0149
G1 X180.500 E0.8410
G1 Y159.496 E0.0149
G1 X209.500 E0.8410
G1 Y160.009 E0.0149
G1 X180.500 E0.8410
G1 Y160.522 E0.0149
G1 X209.500 E0.8410
G1 Y161.036 E0.0149
G1 X180.500 E0.8410
G1 Y161.549 E0.0149
G1 X209.500 E0.8410
G1 Y162.063 E0.0149
G1 X180.500 E0.8410
G1 Y162.576 E0.0149
G1 X209.500 E0.8410
G1 Y163.089 E0.0149
G1 X180.500 E0.8410
G1 Y163.603 E0.0149
G1 X209.500 E0.8410
G1 Y164.116 E0.0149
G1 X180.500 E0.8410
G1 Y164.630 E0.0149
G1 X209.500 E0.8410
G1 Y165.143 E0.0149
G1 X180.500 E0.8410
G1 Y165.656 E0.0149
G1 X209.500 E0.8410
G1 Y166.170 E0.0149
G1 X180.500 E0.8410
G1 Y166.683 E0.0149
G1 X209.500 E0.8410
G1 Y167.197 E0.0149
G1 X180.500 E0.8410
G1 Y167.710 E0.0149
G1 X209.500 E0.8410
G1 Y168.223 E0.0149
G1 X180.500 E0.8410
G1 Y168.737 E0.0149
G1 X209.500 E0.8410
G1 Y169.250 E0.0149
G1 X180.500 E0.8410
G1 Y140.500 F7200
G1 X209.500
; CP EMPTY GRID END
;------------------






M900 K200; Filament gcode
G1 E-2.40000 F4800.00000
G1 F5760
G1 X207.580 Y140.500 E-1.52000
G1 E-0.08000 F4800.00000
G1 Z0.800 F7200.000
G1 X157.869 Y137.723 F7200.000
G1 Z0.200 F7200.000
G1 E4.00000 F3000.00000
M204 S1000
G1 F1800
G1 X157.699 Y140.886 E0.09932
G1 X157.299 Y143.562 E0.08483
G1 X156.449 Y146.985 E0.11058
G1 X155.541 Y149.565 E0.08578
G1 X154.058 Y152.766 E0.11059
G1 X152.239 Y155.792 E0.11070
G1 X150.616 Y157.990 E0.08567
G1 X148.257 Y160.617 E0.11070
G1 X145.901 Y162.752 E0.09970
G1 X143.455 Y164.585 E0.09583
G1 X140.434 Y166.404 E0.11058
G1 X137.966 Y167.587 E0.08578
G1 X134.655 Y168.802 E0.11059
G1 X131.229 Y169.655 E0.11070
G1 X128.524 Y170.061 E0.08577
G1 X124.998 Y170.251 E0.11072
G1 X122.332 Y170.142 E0.08364
G1 X119.681 Y169.818 E0.08376
G1 X117.064 Y169.279 E0.08376
G1 X114.529 Y168.539 E0.08280
G1 X112.110 Y167.618 E0.08117
G1 X110.359 Y166.812 E0.06045
G1 X108.042 Y165.542 E0.08282
G1 X105.814 Y164.075 E0.08364
G1 X103.710 Y162.430 E0.08376
G1 X101.767 Y160.640 E0.08281
G1 X100.009 Y158.740 E0.08117
G1 X98.798 Y157.240 E0.06046
G1 X97.288 Y155.073 E0.08282
G1 X95.942 Y152.766 E0.08376
G1 X94.789 Y150.360 E0.08364
G1 X93.834 Y147.865 E0.08376
G1 X93.084 Y145.301 E0.08376
G1 X92.550 Y142.715 E0.08280
G1 X92.301 Y140.886 E0.05786
G1 X92.123 Y138.243 E0.08306
G1 X92.112 Y72.638 E2.05701
G1 X92.301 Y69.114 E0.11065
G1 X92.707 Y66.409 E0.08578
G1 X93.560 Y62.986 E0.11059
G1 X94.776 Y59.671 E0.11070
G1 X95.956 Y57.207 E0.08567
G1 X97.778 Y54.183 E0.11070
G1 X99.860 Y51.435 E0.10811
G1 X101.746 Y49.381 E0.08742
G1 X104.370 Y47.024 E0.11058
G1 X106.567 Y45.400 E0.08567
G1 X109.593 Y43.581 E0.11070
G1 X112.797 Y42.097 E0.11070
G1 X115.374 Y41.190 E0.08567
G1 X118.801 Y40.339 E0.11070
G1 X122.299 Y39.861 E0.11070
G1 X125.002 Y39.749 E0.08483
G1 X127.667 Y39.858 E0.08364
G1 X130.308 Y40.180 E0.08340
G1 X132.924 Y40.718 E0.08376
G1 X135.136 Y41.353 E0.07216
G1 X137.189 Y42.092 E0.06840
G1 X139.628 Y43.182 E0.08376
G1 X141.954 Y44.456 E0.08316
G1 X144.186 Y45.925 E0.08376
G1 X146.290 Y47.570 E0.08376
G1 X148.233 Y49.360 E0.08280
G1 X149.502 Y50.699 E0.05787
G1 X151.202 Y52.760 E0.08376
G1 X152.712 Y54.927 E0.08282
G1 X154.058 Y57.234 E0.08376
G1 X155.211 Y59.640 E0.08364
G1 X156.166 Y62.135 E0.08376
G1 X156.916 Y64.699 E0.08376
G1 X157.450 Y67.285 E0.08281
G1 X157.699 Y69.114 E0.05786
G1 X157.877 Y71.757 E0.08306
G1 X157.888 Y137.362 E2.05701
G1 X157.872 Y137.663 E0.00945
G1 E-2.40000 F4800.00000
G1 F5760
G1 X157.769 Y139.580 E-1.52000
G1 E-0.08000 F4800.00000
G1 Z0.800 F7200.000
G1 X125.335 Y153.579 F7200.000
G1 Z0.200 F7200.000
G1 E4.00000 F3000.00000
G1 F1800
G1 X124.636 Y153.577 E0.02190
G1 X123.465 Y153.510 E0.03677
G1 X122.242 Y153.346 E0.03869
G1 X121.557 Y153.212 E0.02190
G1 X120.420 Y152.923 E0.03677
G1 X119.251 Y152.529 E0.03869
G1 X118.603 Y152.267 E0.02190
G1 X117.543 Y151.767 E0.03677
G1 X116.471 Y151.159 E0.03864
G1 X115.940 Y150.816 E0.01982
G1 X115.377 Y150.418 E0.02161
G1 X114.458 Y149.690 E0.03677
G1 X113.553 Y148.854 E0.03864
G1 X113.114 Y148.399 E0.01982
G1 X112.656 Y147.883 E0.02161
G1 X111.933 Y146.972 E0.03648
G1 X111.565 Y146.450 E0.02004
G1 X110.918 Y145.411 E0.03836
G1 X110.615 Y144.856 E0.01982
G1 X110.310 Y144.238 E0.02161
G1 X109.854 Y143.168 E0.03648
G1 X109.637 Y142.567 E0.02004
G1 X109.286 Y141.385 E0.03865
G1 X109.026 Y140.180 E0.03865
G1 X108.929 Y139.555 E0.01982
G1 X108.851 Y138.870 E0.02161
G1 X108.784 Y137.709 E0.03648
G1 X108.782 Y137.070 E0.02004
G1 X108.851 Y135.848 E0.03836
G1 X108.923 Y135.213 E0.02005
G1 X109.131 Y134.005 E0.03842
G1 X109.291 Y133.325 E0.02190
G1 X109.623 Y132.201 E0.03677
G1 X110.059 Y131.048 E0.03864
G1 X110.320 Y130.464 E0.02005
G1 X110.886 Y129.369 E0.03865
G1 X111.534 Y128.320 E0.03865
G1 X111.897 Y127.802 E0.01982
G1 X112.315 Y127.255 E0.02161
G1 X113.072 Y126.371 E0.03648
G1 X113.502 Y125.922 E0.01949
G1 X125.000 Y114.424 E0.50985
G1 X136.482 Y125.906 E0.50914
G1 X137.309 Y126.798 E0.03813
G1 X137.751 Y127.339 E0.02190
G1 X138.443 Y128.285 E0.03677
G1 X139.098 Y129.340 E0.03893
G1 X139.667 Y130.436 E0.03871
G1 X139.951 Y131.074 E0.02190
G1 X140.367 Y132.170 E0.03677
G1 X140.719 Y133.361 E0.03893
G1 X140.979 Y134.575 E0.03894
G1 X141.146 Y135.806 E0.03894
G1 X141.217 Y137.046 E0.03894
G1 X141.194 Y138.280 E0.03871
G1 X141.139 Y138.977 E0.02190
G1 X140.981 Y140.139 E0.03677
G1 X140.722 Y141.353 E0.03893
G1 X140.371 Y142.544 E0.03894
G1 X139.932 Y143.698 E0.03871
G1 X139.644 Y144.335 E0.02190
G1 X139.103 Y145.375 E0.03677
G1 X138.449 Y146.430 E0.03893
G1 X137.716 Y147.433 E0.03894
G1 X136.914 Y148.369 E0.03865
G1 X136.471 Y148.830 E0.02005
G1 X135.567 Y149.669 E0.03865
G1 X134.601 Y150.435 E0.03865
G1 X134.085 Y150.799 E0.01982
G1 X133.505 Y151.173 E0.02161
G1 X132.486 Y151.752 E0.03677
G1 X131.363 Y152.283 E0.03893
G1 X130.203 Y152.726 E0.03894
G1 X129.021 Y153.076 E0.03865
G1 X128.406 Y153.221 E0.01982
G1 X127.729 Y153.350 E0.02161
G1 X126.566 Y153.507 E0.03677
G1 X125.394 Y153.576 E0.03681
G1 X125.324 Y153.202 F7200.000
G1 F1800
G1 X124.647 Y153.200 E0.02121
G1 X123.501 Y153.134 E0.03600
G1 X122.304 Y152.974 E0.03788
G1 X121.640 Y152.844 E0.02121
G1 X120.527 Y152.561 E0.03600
G1 X119.382 Y152.176 E0.03788
G1 X118.755 Y151.921 E0.02121
G1 X117.716 Y151.432 E0.03600
G1 X116.666 Y150.836 E0.03785
G1 X116.151 Y150.503 E0.01923
G1 X115.603 Y150.116 E0.02104
G1 X114.703 Y149.403 E0.03600
G1 X113.816 Y148.584 E0.03785
G1 X113.391 Y148.143 E0.01923
G1 X112.945 Y147.641 E0.02104
G1 X112.235 Y146.746 E0.03582
G1 X111.879 Y146.241 E0.01936
G1 X111.244 Y145.221 E0.03768
G1 X110.950 Y144.683 E0.01923
G1 X110.653 Y144.081 E0.02104
G1 X110.205 Y143.030 E0.03582
G1 X109.996 Y142.449 E0.01937
G1 X109.652 Y141.291 E0.03786
G1 X109.397 Y140.111 E0.03786
G1 X109.303 Y139.505 E0.01923
G1 X109.227 Y138.838 E0.02104
G1 X109.161 Y137.698 E0.03582
G1 X109.160 Y137.080 E0.01937
G1 X109.227 Y135.880 E0.03768
G1 X109.296 Y135.266 E0.01937
G1 X109.501 Y134.081 E0.03772
G1 X109.656 Y133.422 E0.02121
G1 X109.980 Y132.321 E0.03600
G1 X110.408 Y131.192 E0.03785
G1 X110.660 Y130.627 E0.01937
G1 X111.214 Y129.555 E0.03786
G1 X111.849 Y128.528 E0.03786
G1 X112.201 Y128.025 E0.01923
G1 X112.608 Y127.492 E0.02104
G1 X113.351 Y126.624 E0.03582
G1 X113.771 Y126.186 E0.01903
G1 X125.000 Y114.957 E0.49790
G1 X136.210 Y126.168 E0.49709
G1 X137.024 Y127.046 E0.03754
G1 X137.453 Y127.570 E0.02121
G1 X138.130 Y128.496 E0.03600
G1 X138.770 Y129.527 E0.03803
G1 X139.327 Y130.599 E0.03789
G1 X139.602 Y131.218 E0.02121
G1 X140.010 Y132.291 E0.03600
G1 X140.354 Y133.454 E0.03803
G1 X140.608 Y134.640 E0.03804
G1 X140.770 Y135.842 E0.03804
G1 X140.840 Y137.054 E0.03804
G1 X140.817 Y138.262 E0.03789
G1 X140.764 Y138.936 E0.02121
G1 X140.609 Y140.074 E0.03600
G1 X140.356 Y141.260 E0.03803
G1 X140.013 Y142.424 E0.03804
G1 X139.583 Y143.553 E0.03789
G1 X139.305 Y144.170 E0.02121
G1 X138.775 Y145.189 E0.03600
G1 X138.136 Y146.219 E0.03803
G1 X137.420 Y147.199 E0.03804
G1 X136.634 Y148.116 E0.03786
G1 X136.206 Y148.561 E0.01937
G1 X135.321 Y149.382 E0.03786
G1 X134.375 Y150.133 E0.03786
G1 X133.874 Y150.487 E0.01923
G1 X133.310 Y150.850 E0.02104
G1 X132.312 Y151.417 E0.03600
G1 X131.215 Y151.935 E0.03803
G1 X130.082 Y152.368 E0.03804
G1 X128.924 Y152.712 E0.03786
G1 X128.327 Y152.852 E0.01923
G1 X127.668 Y152.978 E0.02104
G1 X126.530 Y153.131 E0.03600
G1 X125.384 Y153.198 E0.03600
G1 X125.313 Y152.825 F7200.000
G1 F1800
G1 X124.659 Y152.823 E0.02053
G1 X123.537 Y152.759 E0.03523
G1 X122.365 Y152.602 E0.03708
G1 X121.723 Y152.476 E0.02053
G1 X120.634 Y152.199 E0.03523
G1 X119.513 Y151.822 E0.03708
G1 X118.906 Y151.576 E0.02053
G1 X117.890 Y151.097 E0.03523
G1 X116.862 Y150.514 E0.03707
G1 X116.362 Y150.191 E0.01864
G1 X115.829 Y149.814 E0.02047
G1 X114.949 Y149.116 E0.03523
G1 X114.080 Y148.314 E0.03707
G1 X113.667 Y147.886 E0.01864
G1 X113.234 Y147.398 E0.02047
G1 X112.537 Y146.520 E0.03516
G1 X112.193 Y146.033 E0.01869
G1 X111.569 Y145.031 E0.03701
G1 X111.285 Y144.509 E0.01864
G1 X110.996 Y143.923 E0.02047
G1 X110.557 Y142.892 E0.03516
G1 X110.354 Y142.331 E0.01869
G1 X110.017 Y141.198 E0.03707
G1 X109.768 Y140.042 E0.03707
G1 X109.676 Y139.455 E0.01864
G1 X109.603 Y138.806 E0.02047
G1 X109.538 Y137.686 E0.03516
G1 X109.537 Y137.090 E0.01869
G1 X109.602 Y135.912 E0.03701
G1 X109.670 Y135.319 E0.01870
G1 X109.870 Y134.156 E0.03702
G1 X110.020 Y133.519 E0.02053
G1 X110.338 Y132.441 E0.03523
G1 X110.757 Y131.336 E0.03707
G1 X111.000 Y130.791 E0.01870
G1 X111.542 Y129.741 E0.03707
G1 X112.164 Y128.735 E0.03707
G1 X112.505 Y128.248 E0.01864
G1 X112.902 Y127.730 E0.02047
G1 X113.631 Y126.877 E0.03516
G1 X114.041 Y126.450 E0.01857
G1 X125.000 Y115.490 E0.48596
