; generated by Slic3r 1.37.1-prusa3d-win64 on 2018-02-04 at 13:51:47

; 

; external perimeters extrusion width = 0.45mm
; perimeters extrusion width = 0.45mm
; infill extrusion width = 0.45mm
; solid infill extrusion width = 0.45mm
; top infill extrusion width = 0.40mm
; first layer extrusion width = 0.42mm

M107
M115 U3.0.12 ; tell printer latest fw version
; Start G-Code sequence START
T0
M104 S230 ; set extruder temp
M140 S55 ; set bed temp
M190 S55 ; wait for bed temp
M109 S230 ; wait for extruder temp
G21 ; set units to millimeters
G90 ; use absolute coordinates
M83 ; use relative distances for extrusion
G28 W
G80
G92 E0.0
M203 E100
M92 E140
G1 Z0.250 F7200.000
G1 X50.0 E80.0  F1000.0
G1 X160.0 E20.0  F1000.0
G1 Z0.200 F7200.000
G1 X220.0 E13 F1000.0
G1 X240.0 E0 F1000.0
G1 E-4 F1000.0
G92 E0.0
; Filament gcode

; Filament gcode

; Filament gcode

; Filament gcode

G21 ; set units to millimeters
G90 ; use absolute coordinates
M83 ; use relative distances for extrusion
;BEFORE_LAYER_CHANGE
;0.2


G1 Z0.200 F7200.000
;AFTER_LAYER_CHANGE
;0.2
G1 E-4.00000 F3000.00000
G1 Z0.700 F7200.000
G1 X95.275 Y56.882 F7200.000
G1 Z0.200 F7200.000
G1 E4.00000 F3000.00000
M204 S1000
G1 F2100
G1 X97.127 Y53.798 E0.11278
G1 X98.812 Y51.519 E0.08886
G1 X101.206 Y48.854 E0.11236
G1 X103.883 Y46.449 E0.11282
G1 X106.161 Y44.765 E0.08881
G1 X109.250 Y42.910 E0.11298
G1 X112.498 Y41.405 E0.11224
G1 X115.174 Y40.462 E0.08895
G1 X118.666 Y39.597 E0.11279
G1 X122.214 Y39.111 E0.11229
G1 X125.011 Y38.995 E0.08777
G1 X127.738 Y39.107 E0.08557
G1 X130.447 Y39.439 E0.08558
G1 X133.120 Y39.990 E0.08557
G1 X135.686 Y40.738 E0.08381
G1 X137.492 Y41.401 E0.06033
G1 X139.986 Y42.518 E0.08570
G1 X142.354 Y43.817 E0.08468
G1 X144.633 Y45.318 E0.08556
G1 X146.783 Y47.000 E0.08560
G1 X148.753 Y48.813 E0.08394
G1 X150.075 Y50.209 E0.06028
G1 X151.812 Y52.318 E0.08566
G1 X153.351 Y54.526 E0.08440
G1 X154.726 Y56.884 E0.08560
G1 X155.907 Y59.350 E0.08573
G1 X156.879 Y61.888 E0.08520
G1 X157.649 Y64.521 E0.08601
G1 X158.189 Y67.137 E0.08376
G1 X158.450 Y69.041 E0.06027
G1 X158.631 Y71.740 E0.08479
G1 X158.643 Y137.361 E2.05752
G1 X158.526 Y140.154 E0.08763
G1 X158.040 Y143.701 E0.11226
G1 X157.173 Y147.197 E0.11295
G1 X156.231 Y149.869 E0.08882
G1 X154.725 Y153.117 E0.11226
G1 X152.870 Y156.205 E0.11295
G1 X151.188 Y158.481 E0.08873
G1 X148.793 Y161.147 E0.11235
G1 X146.738 Y163.038 E0.08759
G1 X143.886 Y165.203 E0.11226
G1 X140.805 Y167.061 E0.11282
G1 X138.246 Y168.287 E0.08895
G1 X134.866 Y169.526 E0.11290
G1 X131.403 Y170.389 E0.11189
G1 X128.583 Y170.813 E0.08943
G1 X125.003 Y171.005 E0.11240
G1 X122.277 Y170.894 E0.08554
G1 X119.599 Y170.568 E0.08458
G1 X116.926 Y170.021 E0.08554
G1 X115.070 Y169.505 E0.06043
G1 X112.551 Y168.617 E0.08374
G1 X110.055 Y167.503 E0.08568
G1 X107.659 Y166.191 E0.08568
G1 X105.380 Y164.691 E0.08554
G1 X103.227 Y163.009 E0.08568
G1 X101.245 Y161.185 E0.08445
G1 X99.390 Y159.178 E0.08568
G1 X98.183 Y157.676 E0.06043
G1 X96.656 Y155.485 E0.08374
G1 X95.278 Y153.124 E0.08568
G1 X94.099 Y150.664 E0.08554
G1 X93.126 Y148.125 E0.08527
G1 X92.364 Y145.528 E0.08486
G1 X91.951 Y143.652 E0.06024
G1 X91.554 Y140.996 E0.08420
G1 X91.369 Y138.262 E0.08592
G1 X91.357 Y72.645 E2.05735
G1 X91.473 Y69.853 E0.08762
G1 X91.959 Y66.304 E0.11231
G1 X92.824 Y62.814 E0.11276
G1 X93.766 Y60.138 E0.08895
G1 X95.250 Y56.936 E0.11063
G1 X95.592 Y57.095 F7200.000
G1 F2100
G1 X97.442 Y54.006 E0.11290
G1 X99.104 Y51.757 E0.08767
G1 X101.472 Y49.121 E0.11109
G1 X104.123 Y46.739 E0.11175
G1 X106.372 Y45.077 E0.08768
G1 X109.426 Y43.243 E0.11172
G1 X112.642 Y41.753 E0.11112
G1 X115.277 Y40.825 E0.08759
G1 X118.737 Y39.967 E0.11178
G1 X122.249 Y39.486 E0.11114
G1 X125.011 Y39.372 E0.08667
G1 X127.704 Y39.482 E0.08450
G1 X130.383 Y39.811 E0.08463
G1 X133.030 Y40.356 E0.08475
G1 X135.570 Y41.097 E0.08295
G1 X137.348 Y41.749 E0.05938
G1 X139.814 Y42.853 E0.08474
G1 X142.160 Y44.140 E0.08388
G1 X144.413 Y45.624 E0.08460
G1 X146.540 Y47.288 E0.08465
G1 X148.527 Y49.121 E0.08477
G1 X150.357 Y51.106 E0.08464
G1 X151.988 Y53.190 E0.08298
G1 X153.052 Y54.759 E0.05946
G1 X154.409 Y57.091 E0.08459
G1 X155.561 Y59.500 E0.08375
G1 X156.524 Y62.014 E0.08440
G1 X157.283 Y64.613 E0.08490
G1 X157.818 Y67.203 E0.08291
G1 X158.074 Y69.077 E0.05932
G1 X158.254 Y71.751 E0.08401
G1 X158.266 Y137.361 E2.05717
G1 X158.075 Y140.920 E0.11174
G1 X157.669 Y143.632 E0.08598
G1 X156.811 Y147.091 E0.11175
G1 X155.883 Y149.725 E0.08754
G1 X154.393 Y152.939 E0.11109
G1 X152.558 Y155.994 E0.11175
G1 X150.895 Y158.243 E0.08767
G1 X148.528 Y160.879 E0.11109
G1 X146.500 Y162.746 E0.08645
G1 X143.676 Y164.890 E0.11115
G1 X140.624 Y166.730 E0.11175
G1 X138.102 Y167.939 E0.08767
G1 X134.759 Y169.164 E0.11166
G1 X131.327 Y170.020 E0.11088
G1 X128.546 Y170.438 E0.08819
G1 X125.005 Y170.628 E0.11119
G1 X122.305 Y170.518 E0.08472
G1 X119.655 Y170.195 E0.08369
G1 X117.012 Y169.654 E0.08459
G1 X115.185 Y169.146 E0.05947
G1 X112.692 Y168.267 E0.08289
G1 X110.224 Y167.166 E0.08472
G1 X107.854 Y165.869 E0.08472
G1 X105.597 Y164.383 E0.08472
G1 X103.472 Y162.722 E0.08459
G1 X101.508 Y160.914 E0.08369
G1 X99.674 Y158.930 E0.08472
G1 X98.486 Y157.452 E0.05947
G1 X96.974 Y155.283 E0.08289
G1 X95.612 Y152.949 E0.08472
G1 X94.444 Y150.513 E0.08472
G1 X93.480 Y147.998 E0.08446
G1 X92.728 Y145.432 E0.08382
G1 X92.322 Y143.586 E0.05928
G1 X91.929 Y140.953 E0.08346
G1 X91.746 Y138.250 E0.08495
G1 X91.734 Y72.645 E2.05699
G1 X91.849 Y69.889 E0.08650
G1 X92.329 Y66.379 E0.11108
G1 X93.186 Y62.919 E0.11175
G1 X94.115 Y60.282 E0.08767
G1 X95.566 Y57.149 E0.10827
G1 X95.908 Y57.307 F7200.000
G1 F2100
G1 X97.757 Y54.213 E0.11302
G1 X99.393 Y52.000 E0.08629
G1 X101.738 Y49.389 E0.11003
G1 X103.742 Y47.543 E0.08544
G1 X106.537 Y45.420 E0.11005
G1 X109.557 Y43.601 E0.11055
G1 X112.042 Y42.410 E0.08639
G1 X115.353 Y41.196 E0.11057
G1 X118.758 Y40.347 E0.11003
G1 X121.483 Y39.938 E0.08639
G1 X125.008 Y39.749 E0.11068
G1 X127.675 Y39.858 E0.08367
G1 X130.323 Y40.183 E0.08368
G1 X132.941 Y40.722 E0.08379
G1 X135.454 Y41.456 E0.08210
G1 X137.206 Y42.098 E0.05849
G1 X139.642 Y43.189 E0.08370
G1 X141.966 Y44.463 E0.08308
G1 X144.194 Y45.931 E0.08365
G1 X146.299 Y47.578 E0.08382
G1 X148.261 Y49.388 E0.08369
G1 X150.070 Y51.350 E0.08369
G1 X151.685 Y53.414 E0.08215
G1 X152.731 Y54.956 E0.05843
G1 X154.075 Y57.266 E0.08381
G1 X155.214 Y59.647 E0.08274
G1 X156.168 Y62.140 E0.08370
G1 X156.917 Y64.702 E0.08369
G1 X157.447 Y67.269 E0.08218
G1 X157.699 Y69.114 E0.05838
G1 X157.877 Y71.758 E0.08311
G1 X157.888 Y137.361 E2.05694
G1 X157.775 Y140.082 E0.08538
G1 X157.299 Y143.559 E0.11004
G1 X156.450 Y146.982 E0.11055
G1 X155.534 Y149.580 E0.08639
G1 X154.061 Y152.761 E0.10992
G1 X152.243 Y155.787 E0.11067
G1 X150.607 Y158.000 E0.08630
G1 X148.262 Y160.611 E0.11002
G1 X146.258 Y162.457 E0.08544
G1 X143.462 Y164.580 E0.11007
G1 X140.443 Y166.399 E0.11053
G1 X137.958 Y167.590 E0.08639
G1 X134.647 Y168.804 E0.11056
G1 X131.251 Y169.651 E0.10974
G1 X128.508 Y170.063 E0.08699
G1 X125.002 Y170.251 E0.11006
G1 X122.337 Y170.143 E0.08364
G1 X119.715 Y169.823 E0.08280
G1 X117.098 Y169.287 E0.08376
G1 X115.301 Y168.788 E0.05851
G1 X112.829 Y167.916 E0.08217
G1 X110.390 Y166.827 E0.08376
G1 X108.050 Y165.546 E0.08364
G1 X105.819 Y164.078 E0.08376
G1 X103.714 Y162.433 E0.08376
G1 X101.771 Y160.644 E0.08280
G1 X99.958 Y158.682 E0.08376
G1 X98.789 Y157.227 E0.05851
G1 X97.291 Y155.078 E0.08217
G1 X95.944 Y152.771 E0.08376
G1 X94.791 Y150.365 E0.08364
G1 X93.836 Y147.871 E0.08376
G1 X93.086 Y145.307 E0.08376
G1 X92.553 Y142.733 E0.08240
G1 X92.301 Y140.888 E0.05840
G1 X92.123 Y138.242 E0.08314
G1 X92.112 Y72.645 E2.05675
G1 X92.224 Y69.925 E0.08538
G1 X92.699 Y66.447 E0.11004
G1 X93.548 Y63.025 E0.11054
G1 X94.463 Y60.426 E0.08639
G1 X95.883 Y57.362 E0.10590
G1 E-2.40000 F3000.00000
G1 F5760
G1 X97.454 Y54.722 E-1.52000
G1 E-0.08000 F3000.00000
G1 Z0.700 F7200.000
G1 X125.000 Y113.891 F7200.000
G1 Z0.200 F7200.000
G1 E4.00000 F3000.00000
G1 F1680
G1 X136.754 Y125.645 E0.52119
G1 X137.600 Y126.558 E0.03903
G1 X138.389 Y127.553 E0.03984
G1 X139.100 Y128.606 E0.03984
G1 X139.729 Y129.710 E0.03984
G1 X140.271 Y130.859 E0.03981
G1 X140.723 Y132.044 E0.03977
G1 X141.083 Y133.262 E0.03983
G1 X141.350 Y134.504 E0.03984
G1 X141.521 Y135.764 E0.03985
G1 X141.595 Y137.047 E0.04030
G1 X141.571 Y138.290 E0.03897
G1 X141.521 Y138.949 E0.02072
G1 X141.356 Y140.183 E0.03905
G1 X141.227 Y140.847 E0.02119
G1 X140.922 Y142.052 E0.03898
G1 X140.515 Y143.258 E0.03990
G1 X140.268 Y143.871 E0.02073
G1 X139.738 Y144.996 E0.03897
G1 X139.104 Y146.113 E0.04030
G1 X138.409 Y147.144 E0.03898
G1 X138.007 Y147.672 E0.02079
G1 X137.595 Y148.172 E0.02033
G1 X136.751 Y149.085 E0.03897
G1 X135.808 Y149.959 E0.04030
G1 X134.835 Y150.732 E0.03898
G1 X134.293 Y151.114 E0.02079
G1 X133.749 Y151.467 E0.02033
G1 X132.669 Y152.082 E0.03897
G1 X131.507 Y152.631 E0.04029
G1 X130.352 Y153.073 E0.03878
G1 X129.708 Y153.278 E0.02117
G1 X128.490 Y153.589 E0.03942
G1 X127.224 Y153.810 E0.04031
G1 X125.986 Y153.930 E0.03897
G1 X125.326 Y153.956 E0.02074
G1 X124.053 Y153.933 E0.03991
G1 X122.816 Y153.815 E0.03897
G1 X122.162 Y153.715 E0.02074
G1 X120.917 Y153.450 E0.03991
G1 X119.724 Y153.099 E0.03897
G1 X119.102 Y152.876 E0.02074
G1 X117.930 Y152.379 E0.03991
G1 X116.826 Y151.807 E0.03898
G1 X116.268 Y151.477 E0.02033
G1 X115.711 Y151.117 E0.02079
G1 X114.707 Y150.383 E0.03899
G1 X113.731 Y149.548 E0.04030
G1 X112.850 Y148.670 E0.03897
G1 X112.418 Y148.186 E0.02033
G1 X111.996 Y147.675 E0.02079
G1 X111.260 Y146.673 E0.03899
G1 X110.580 Y145.582 E0.04030
G1 X110.006 Y144.479 E0.03898
G1 X109.734 Y143.876 E0.02074
G1 X109.279 Y142.686 E0.03995
G1 X108.927 Y141.501 E0.03876
G1 X108.774 Y140.855 E0.02083
G1 X108.650 Y140.220 E0.02029
G1 X108.482 Y138.988 E0.03897
G1 X108.406 Y137.705 E0.04030
G1 X108.428 Y136.434 E0.03985
G1 X108.548 Y135.169 E0.03986
G1 X108.764 Y133.917 E0.03982
G1 X109.075 Y132.685 E0.03984
G1 X109.479 Y131.481 E0.03984
G1 X109.975 Y130.311 E0.03984
G1 X110.558 Y129.182 E0.03984
G1 X111.219 Y128.112 E0.03944
G1 X111.598 Y127.571 E0.02072
G1 X112.369 Y126.595 E0.03897
G1 X113.223 Y125.668 E0.03953
G1 X124.958 Y113.933 E0.52034
G1 X125.000 Y114.424 F7200.000
G1 F1680
G1 X136.482 Y125.906 E0.50914
G1 X137.313 Y126.803 E0.03835
G1 X138.085 Y127.776 E0.03893
G1 X138.780 Y128.805 E0.03893
G1 X139.394 Y129.884 E0.03893
G1 X139.924 Y131.007 E0.03891
G1 X140.365 Y132.165 E0.03887
G1 X140.718 Y133.355 E0.03893
G1 X140.978 Y134.569 E0.03894
G1 X141.145 Y135.800 E0.03894
G1 X141.218 Y137.055 E0.03940
G1 X141.195 Y138.272 E0.03818
G1 X141.146 Y138.910 E0.02004
G1 X140.984 Y140.122 E0.03836
G1 X140.859 Y140.765 E0.02051
G1 X140.560 Y141.945 E0.03819
G1 X140.161 Y143.127 E0.03911
G1 X139.922 Y143.720 E0.02005
G1 X139.403 Y144.822 E0.03818
G1 X138.783 Y145.914 E0.03939
G1 X138.102 Y146.924 E0.03819
G1 X137.711 Y147.437 E0.02022
G1 X137.310 Y147.924 E0.01976
G1 X136.484 Y148.818 E0.03818
G1 X135.563 Y149.672 E0.03939
G1 X134.609 Y150.430 E0.03819
G1 X134.082 Y150.801 E0.02022
G1 X133.553 Y151.144 E0.01976
G1 X132.495 Y151.747 E0.03818
G1 X131.359 Y152.284 E0.03939
G1 X130.227 Y152.717 E0.03799
G1 X129.604 Y152.915 E0.02049
G1 X128.411 Y153.220 E0.03862
G1 X127.173 Y153.436 E0.03940
G1 X125.961 Y153.554 E0.03819
G1 X125.322 Y153.579 E0.02006
G1 X124.074 Y153.556 E0.03911
G1 X122.862 Y153.441 E0.03819
G1 X122.230 Y153.344 E0.02006
G1 X121.010 Y153.084 E0.03911
G1 X119.841 Y152.740 E0.03819
G1 X119.239 Y152.525 E0.02006
G1 X118.091 Y152.037 E0.03911
G1 X117.009 Y151.477 E0.03819
G1 X116.467 Y151.156 E0.01977
G1 X115.925 Y150.806 E0.02023
G1 X114.941 Y150.087 E0.03819
G1 X113.987 Y149.271 E0.03940
G1 X113.124 Y148.410 E0.03819
G1 X112.704 Y147.941 E0.01977
G1 X112.293 Y147.443 E0.02023
G1 X111.572 Y146.462 E0.03819
G1 X110.908 Y145.395 E0.03940
G1 X110.345 Y144.315 E0.03819
G1 X110.083 Y143.732 E0.02005
G1 X109.637 Y142.565 E0.03915
G1 X109.292 Y141.404 E0.03798
G1 X109.143 Y140.775 E0.02026
G1 X109.023 Y140.158 E0.01972
G1 X108.858 Y138.951 E0.03818
G1 X108.783 Y137.697 E0.03939
G1 X108.805 Y136.455 E0.03894
G1 X108.922 Y135.219 E0.03895
G1 X109.133 Y133.995 E0.03892
G1 X109.437 Y132.792 E0.03893
G1 X109.832 Y131.614 E0.03893
G1 X110.316 Y130.471 E0.03893
G1 X110.886 Y129.368 E0.03893
G1 X111.534 Y128.319 E0.03864
G1 X111.901 Y127.796 E0.02005
G1 X112.656 Y126.840 E0.03818
G1 X113.495 Y125.929 E0.03884
G1 X124.958 Y114.466 E0.50827
G1 X125.000 Y114.957 F7200.000
G1 F1680
G1 X136.210 Y126.168 E0.49709
G1 X137.027 Y127.049 E0.03767
G1 X137.781 Y127.999 E0.03802
G1 X138.459 Y129.004 E0.03802
G1 X139.059 Y130.058 E0.03802
G1 X139.576 Y131.154 E0.03800
G1 X140.008 Y132.286 E0.03796
G1 X140.352 Y133.448 E0.03802
G1 X140.607 Y134.634 E0.03803
G1 X140.770 Y135.836 E0.03803
G1 X140.840 Y137.062 E0.03849
G1 X140.818 Y138.254 E0.03739
G1 X140.771 Y138.870 E0.01937
G1 X140.611 Y140.061 E0.03768
G1 X140.491 Y140.682 E0.01983
G1 X140.198 Y141.838 E0.03740
G1 X139.807 Y142.996 E0.03831
G1 X139.576 Y143.569 E0.01937
G1 X139.068 Y144.648 E0.03739
G1 X138.462 Y145.716 E0.03848
G1 X137.795 Y146.705 E0.03740
G1 X137.416 Y147.203 E0.01965
G1 X137.026 Y147.676 E0.01920
G1 X136.216 Y148.551 E0.03739
G1 X135.317 Y149.386 E0.03848
G1 X134.383 Y150.128 E0.03740
G1 X133.870 Y150.489 E0.01965
G1 X133.357 Y150.822 E0.01920
G1 X132.321 Y151.413 E0.03739
G1 X131.211 Y151.937 E0.03848
G1 X130.102 Y152.361 E0.03721
G1 X129.500 Y152.553 E0.01981
G1 X128.332 Y152.851 E0.03782
G1 X127.122 Y153.062 E0.03849
G1 X125.935 Y153.178 E0.03740
G1 X125.318 Y153.202 E0.01938
G1 X124.096 Y153.179 E0.03832
G1 X122.908 Y153.067 E0.03740
G1 X122.298 Y152.973 E0.01938
G1 X121.102 Y152.718 E0.03832
G1 X119.958 Y152.382 E0.03740
G1 X119.376 Y152.173 E0.01938
G1 X118.251 Y151.696 E0.03832
G1 X117.192 Y151.148 E0.03740
G1 X116.665 Y150.835 E0.01920
G1 X116.139 Y150.495 E0.01966
G1 X115.176 Y149.791 E0.03740
G1 X114.243 Y148.993 E0.03849
G1 X113.398 Y148.151 E0.03740
G1 X112.990 Y147.695 E0.01920
G1 X112.591 Y147.211 E0.01966
G1 X111.885 Y146.250 E0.03740
G1 X111.236 Y145.208 E0.03849
G1 X110.685 Y144.150 E0.03740
G1 X110.431 Y143.587 E0.01937
G1 X109.994 Y142.444 E0.03836
G1 X109.656 Y141.307 E0.03719
G1 X109.512 Y140.696 E0.01969
G1 X109.395 Y140.096 E0.01916
G1 X109.233 Y138.915 E0.03739
G1 X109.160 Y137.689 E0.03848
G1 X109.182 Y136.477 E0.03803
G1 X109.296 Y135.269 E0.03804
G1 X109.502 Y134.074 E0.03801
G1 X109.799 Y132.898 E0.03803
G1 X110.185 Y131.748 E0.03803
G1 X110.658 Y130.631 E0.03803
G1 X111.215 Y129.554 E0.03803
G1 X111.849 Y128.527 E0.03785
G1 X112.204 Y128.021 E0.01937
G1 X112.943 Y127.085 E0.03739
G1 X113.767 Y126.190 E0.03815
G1 X124.958 Y115.000 E0.49621
G1 X125.000 Y115.490 F7200.000
G1 F1260
G1 X135.939 Y126.429 E0.48504
G1 X136.740 Y127.295 E0.03699
G1 X137.476 Y128.222 E0.03712
G1 X138.139 Y129.203 E0.03712
G1 X138.724 Y130.232 E0.03712
G1 X139.229 Y131.302 E0.03710
G1 X139.650 Y132.407 E0.03706
G1 X139.986 Y133.542 E0.03711
G1 X140.235 Y134.699 E0.03712
G1 X140.394 Y135.873 E0.03713
G1 X140.463 Y137.069 E0.03758
G1 X140.441 Y138.236 E0.03660
G1 X140.396 Y138.831 E0.01869
G1 X140.239 Y140.000 E0.03700
G1 X140.123 Y140.600 E0.01915
G1 X139.836 Y141.732 E0.03661
G1 X139.453 Y142.865 E0.03752
G1 X139.231 Y143.418 E0.01869
G1 X138.733 Y144.475 E0.03661
G1 X138.141 Y145.517 E0.03758
G1 X137.489 Y146.485 E0.03661
G1 X137.120 Y146.969 E0.01908
G1 X136.742 Y147.428 E0.01863
G1 X135.949 Y148.285 E0.03661
G1 X135.071 Y149.100 E0.03758
G1 X134.157 Y149.826 E0.03661
G1 X133.659 Y150.177 E0.01908
G1 X133.161 Y150.500 E0.01863
G1 X132.146 Y151.078 E0.03661
G1 X131.063 Y151.590 E0.03758
G1 X129.978 Y152.005 E0.03642
G1 X129.396 Y152.190 E0.01913
G1 X128.252 Y152.482 E0.03702
G1 X127.072 Y152.689 E0.03759
G1 X125.909 Y152.801 E0.03661
G1 X125.314 Y152.825 E0.01869
G1 X124.117 Y152.803 E0.03752
G1 X122.955 Y152.692 E0.03661
G1 X122.365 Y152.602 E0.01869
G1 X121.195 Y152.353 E0.03752
G1 X120.075 Y152.023 E0.03661
G1 X119.513 Y151.822 E0.01869
G1 X118.412 Y151.355 E0.03752
G1 X117.375 Y150.818 E0.03661
