; generated by Slic3r Prusa Edition 1.38.6-prusa3d-win64 on 2018-02-04 at 19:52:55

; 

; external perimeters extrusion width = 0.45mm
; perimeters extrusion width = 0.45mm
; infill extrusion width = 0.45mm
; solid infill extrusion width = 0.45mm
; top infill extrusion width = 0.45mm
; first layer extrusion width = 0.42mm

M107
M115 U3.1.0 ; tell printer latest fw version
; Start G-Code sequence START
T0
M104 S230 ; set extruder temp
M140 S60 ; set bed temp
M190 S60 ; wait for bed temp
M109 S230 ; wait for extruder temp
G21 ; set units to millimeters
G90 ; use absolute coordinates
M83 ; use relative distances for extrusion
G28 W
G80
G92 E0.0
M203 E100 ; set max feedrate
M92 E140 ; E-steps per filament milimeter

G1 Z0.250 F7200.000
G1 X50.0 E80.0  F1000.0
G1 X160.0 E20.0  F1000.0
G1 Z0.200 F7200.000
G1 X220.0 E13 F1000.0
G1 X240.0 E0 F1000.0
G1 E-4 F1000.0

G92 E0.0
M900 K200; Filament gcode
G21 ; set units to millimeters
G90 ; use absolute coordinates
M83 ; use relative distances for extrusion
;BEFORE_LAYER_CHANGE
;0.2


G1 Z0.200 F7200.000
;AFTER_LAYER_CHANGE
;0.2
G1 E-4.00000 F4800.00000
G1 Z0.800 F7200.000
G1 X58.412 Y87.002 F7200.000
G1 Z0.200 F7200.000
G1 E4.00000 F3000.00000
M204 S1000
G1 F1800
G1 X59.096 Y86.701 E0.02343
G1 X59.700 Y86.623 E0.01909
G1 X190.304 Y86.623 E4.09499
G1 X191.202 Y86.801 E0.02872
G1 X191.970 Y87.308 E0.02884
G1 X192.485 Y88.065 E0.02872
G1 X192.677 Y88.961 E0.02872
G1 X192.674 Y121.122 E1.00839
G1 X192.520 Y121.849 E0.02331
G1 X192.147 Y122.497 E0.02343
G1 X191.591 Y122.996 E0.02343
G1 X190.908 Y123.298 E0.02343
G1 X190.300 Y123.377 E0.01921
G1 X59.670 Y123.377 E4.09583
G1 X58.912 Y123.243 E0.02414
G1 X58.236 Y122.873 E0.02414
G1 X57.714 Y122.307 E0.02414
G1 X57.401 Y121.604 E0.02414
G1 X57.323 Y121.005 E0.01894
G1 X57.326 Y88.886 E1.00707
G1 X57.478 Y88.154 E0.02343
G1 X57.853 Y87.503 E0.02355
G1 X58.368 Y87.042 E0.02167
G1 E-2.40000 F4800.00000
G1 F5760
G1 X59.096 Y86.701 E-0.63690
G1 F5760
G1 X59.700 Y86.623 E-0.48200
G1 F5760
G1 X60.207 Y86.623 E-0.40110
G1 E-0.08000 F4800.00000
G1 Z0.800 F7200.000
G1 X60.664 Y111.964 F7200.000
G1 Z0.200 F7200.000
G1 E4.00000 F3000.00000
G1 F1800
G1 X174.959 Y111.975 E3.58364
G1 X175.520 Y112.049 E0.01775
G1 X175.750 Y112.104 E0.00742
G1 X176.275 Y112.286 E0.01740
G1 X176.770 Y112.537 E0.01740
G1 X176.970 Y112.665 E0.00745
G1 X177.411 Y113.012 E0.01759
G1 X177.601 Y113.195 E0.00829
G1 X177.771 Y113.383 E0.00792
G1 X178.100 Y113.830 E0.01740
G1 X178.367 Y114.316 E0.01740
G1 X178.459 Y114.535 E0.00744
G1 X178.629 Y115.080 E0.01791
G1 X178.676 Y115.313 E0.00744
G1 X178.733 Y115.881 E0.01791
G1 X178.733 Y116.119 E0.00744
G1 X178.676 Y116.687 E0.01791
G1 X178.629 Y116.920 E0.00745
G1 X178.467 Y117.440 E0.01708
G1 X178.230 Y117.954 E0.01774
G1 X178.110 Y118.157 E0.00742
G1 X177.780 Y118.604 E0.01741
G1 X177.402 Y118.996 E0.01709
G1 X177.200 Y119.168 E0.00829
G1 X176.997 Y119.317 E0.00792
G1 X176.505 Y119.608 E0.01791
G1 X176.290 Y119.708 E0.00744
G1 X175.765 Y119.890 E0.01741
G1 X175.231 Y119.999 E0.01709
G1 X174.985 Y120.025 E0.00778
G1 X60.664 Y120.036 E3.58443
G1 X60.664 Y112.024 E0.25120
G1 X60.287 Y111.587 F7200.000
G1 F1800
G1 X174.984 Y111.598 E3.59624
G1 X175.589 Y111.678 E0.01914
G1 X175.856 Y111.742 E0.00861
G1 X176.422 Y111.938 E0.01879
G1 X176.957 Y112.209 E0.01879
G1 X177.189 Y112.357 E0.00864
G1 X177.659 Y112.728 E0.01877
G1 X177.872 Y112.933 E0.00928
G1 X178.063 Y113.144 E0.00892
G1 X178.419 Y113.626 E0.01879
G1 X178.706 Y114.152 E0.01879
G1 X178.814 Y114.405 E0.00863
G1 X178.994 Y114.987 E0.01910
G1 X179.049 Y115.256 E0.00863
G1 X179.110 Y115.862 E0.01910
G1 X179.110 Y116.138 E0.00863
G1 X179.049 Y116.744 E0.01910
G1 X178.994 Y117.013 E0.00864
G1 X178.820 Y117.576 E0.01845
G1 X178.564 Y118.129 E0.01913
G1 X178.424 Y118.366 E0.00861
G1 X178.069 Y118.848 E0.01879
G1 X177.660 Y119.272 E0.01846
G1 X177.434 Y119.463 E0.00928
G1 X177.205 Y119.632 E0.00892
G1 X176.681 Y119.942 E0.01910
G1 X176.432 Y120.058 E0.00863
G1 X175.865 Y120.255 E0.01879
G1 X175.289 Y120.373 E0.01846
G1 X175.004 Y120.402 E0.00897
G1 X60.287 Y120.413 E3.59686
G1 X60.287 Y111.647 E0.27484
G1 X59.910 Y111.210 F7200.000
G1 F1800
G1 X175.009 Y111.221 E3.60885
G1 X175.658 Y111.307 E0.02052
G1 X175.962 Y111.379 E0.00981
G1 X176.570 Y111.591 E0.02017
G1 X177.144 Y111.881 E0.02017
G1 X177.408 Y112.049 E0.00982
G1 X177.907 Y112.443 E0.01994
G1 X178.143 Y112.670 E0.01027
G1 X178.355 Y112.905 E0.00992
G1 X178.737 Y113.423 E0.02017
G1 X179.046 Y113.987 E0.02017
G1 X179.168 Y114.275 E0.00982
G1 X179.360 Y114.893 E0.02028
G1 X179.422 Y115.200 E0.00982
G1 X179.487 Y115.843 E0.02028
G1 X179.487 Y116.157 E0.00982
G1 X179.422 Y116.800 E0.02028
G1 X179.360 Y117.107 E0.00982
G1 X179.173 Y117.711 E0.01983
G1 X178.899 Y118.305 E0.02052
G1 X178.739 Y118.574 E0.00981
G1 X178.358 Y119.092 E0.02017
G1 X177.918 Y119.547 E0.01983
G1 X177.668 Y119.759 E0.01027
G1 X177.414 Y119.947 E0.00992
G1 X176.857 Y120.277 E0.02028
G1 X176.573 Y120.408 E0.00982
G1 X175.965 Y120.619 E0.02017
G1 X175.346 Y120.746 E0.01983
G1 X175.023 Y120.779 E0.01016
G1 X59.910 Y120.790 E3.60929
G1 X59.910 Y111.270 E0.29849
G1 X60.310 Y111.221 F7200.000
G1 E-2.40000 F4800.00000
G1 F5760
G1 X61.830 Y111.269 E-1.52000
G1 E-0.08000 F4800.00000
G1 Z0.800 F7200.000
G1 X60.777 Y119.159 F7200.000
G1 Z0.200 F7200.000
G1 E4.00000 F3000.00000
G1 F1800
G1 X61.371 Y119.753 E0.02641
G1 X61.906 Y119.753 E0.01679
G1 X60.947 Y118.794 E0.04261
G1 X60.947 Y118.260 E0.01679
G1 X62.440 Y119.753 E0.06636
G1 X62.975 Y119.753 E0.01679
G1 X60.947 Y117.725 E0.09011
G1 X60.947 Y117.191 E0.01679
G1 X63.509 Y119.753 E0.11386
G1 X64.043 Y119.753 E0.01679
G1 X60.947 Y116.656 E0.13760
G1 X60.947 Y116.122 E0.01679
G1 X64.578 Y119.753 E0.16135
G1 X65.112 Y119.753 E0.01679
G1 X60.947 Y115.587 E0.18510
G1 X60.947 Y115.053 E0.01679
G1 X65.647 Y119.752 E0.20885
G1 X66.181 Y119.752 E0.01679
G1 X60.947 Y114.518 E0.23259
G1 X60.947 Y113.984 E0.01679
G1 X66.715 Y119.752 E0.25634
G1 X67.250 Y119.752 E0.01679
G1 X60.947 Y113.450 E0.28009
G1 X60.947 Y112.915 E0.01679
G1 X67.784 Y119.752 E0.30384
G1 X68.319 Y119.752 E0.01679
G1 X60.947 Y112.381 E0.32758
G1 X60.947 Y112.247 E0.00420
G1 X61.348 Y112.247 E0.01260
G1 X68.853 Y119.752 E0.33352
G1 X69.387 Y119.752 E0.01679
G1 X61.882 Y112.247 E0.33351
G1 X62.417 Y112.247 E0.01680
G1 X69.922 Y119.752 E0.33351
G1 X70.456 Y119.752 E0.01679
G1 X62.951 Y112.247 E0.33350
G1 X63.486 Y112.247 E0.01680
G1 X70.990 Y119.752 E0.33350
G1 X71.525 Y119.752 E0.01679
G1 X64.020 Y112.247 E0.33349
G1 X64.555 Y112.247 E0.01680
G1 X72.059 Y119.752 E0.33349
G1 X72.594 Y119.752 E0.01679
G1 X65.089 Y112.247 E0.33349
G1 X65.624 Y112.247 E0.01680
G1 X73.128 Y119.752 E0.33348
G1 X73.662 Y119.752 E0.01679
G1 X66.158 Y112.248 E0.33348
G1 X66.693 Y112.248 E0.01680
G1 X74.197 Y119.752 E0.33347
G1 X74.731 Y119.752 E0.01679
G1 X67.227 Y112.248 E0.33347
G1 X67.762 Y112.248 E0.01680
G1 X75.266 Y119.752 E0.33346
G1 X75.800 Y119.751 E0.01679
G1 X68.296 Y112.248 E0.33346
G1 X68.831 Y112.248 E0.01680
G1 X76.334 Y119.751 E0.33345
G1 X76.869 Y119.751 E0.01679
G1 X69.365 Y112.248 E0.33345
G1 X69.900 Y112.248 E0.01680
G1 X77.403 Y119.751 E0.33344
G1 X77.937 Y119.751 E0.01679
G1 X70.434 Y112.248 E0.33344
G1 X70.969 Y112.248 E0.01680
G1 X78.472 Y119.751 E0.33344
G1 X79.006 Y119.751 E0.01679
G1 X71.503 Y112.248 E0.33343
G1 X72.038 Y112.248 E0.01680
G1 X79.541 Y119.751 E0.33343
G1 X80.075 Y119.751 E0.01679
G1 X72.572 Y112.248 E0.33342
G1 X73.107 Y112.248 E0.01680
G1 X80.609 Y119.751 E0.33342
G1 X81.144 Y119.751 E0.01679
G1 X73.641 Y112.248 E0.33341
G1 X74.176 Y112.248 E0.01680
G1 X81.678 Y119.751 E0.33341
G1 X82.213 Y119.751 E0.01679
G1 X74.710 Y112.248 E0.33340
G1 X75.245 Y112.248 E0.01680
G1 X82.747 Y119.751 E0.33340
G1 X83.281 Y119.751 E0.01679
G1 X75.779 Y112.248 E0.33339
G1 X76.314 Y112.248 E0.01680
G1 X83.816 Y119.751 E0.33339
G1 X84.350 Y119.751 E0.01679
G1 X76.848 Y112.249 E0.33339
G1 X77.383 Y112.249 E0.01680
G1 X84.885 Y119.751 E0.33338
G1 X85.419 Y119.751 E0.01679
G1 X77.917 Y112.249 E0.33338
G1 X78.451 Y112.249 E0.01680
G1 X85.953 Y119.751 E0.33337
G1 X86.488 Y119.750 E0.01679
G1 X78.986 Y112.249 E0.33337
G1 X79.520 Y112.249 E0.01680
G1 X87.022 Y119.750 E0.33336
G1 X87.556 Y119.750 E0.01679
G1 X80.055 Y112.249 E0.33336
G1 X80.589 Y112.249 E0.01680
G1 X88.091 Y119.750 E0.33335
G1 X88.625 Y119.750 E0.01679
G1 X81.124 Y112.249 E0.33335
G1 X81.658 Y112.249 E0.01680
G1 X89.160 Y119.750 E0.33334
G1 X89.694 Y119.750 E0.01679
G1 X82.193 Y112.249 E0.33334
G1 X82.727 Y112.249 E0.01680
G1 X90.228 Y119.750 E0.33334
G1 X90.763 Y119.750 E0.01679
G1 X83.262 Y112.249 E0.33333
G1 X83.796 Y112.249 E0.01680
G1 X91.297 Y119.750 E0.33333
G1 X91.832 Y119.750 E0.01679
G1 X84.331 Y112.249 E0.33332
G1 X84.865 Y112.249 E0.01680
G1 X92.366 Y119.750 E0.33332
G1 X92.900 Y119.750 E0.01679
G1 X85.400 Y112.249 E0.33331
G1 X85.934 Y112.249 E0.01680
G1 X93.435 Y119.750 E0.33331
G1 X93.969 Y119.750 E0.01679
G1 X86.469 Y112.249 E0.33330
G1 X87.003 Y112.249 E0.01680
G1 X94.504 Y119.750 E0.33330
G1 X95.038 Y119.750 E0.01679
G1 X87.538 Y112.250 E0.33330
G1 X88.072 Y112.250 E0.01680
G1 X95.572 Y119.750 E0.33329
G1 X96.107 Y119.750 E0.01679
G1 X88.607 Y112.250 E0.33329
G1 X89.141 Y112.250 E0.01680
G1 X96.641 Y119.749 E0.33328
G1 X97.175 Y119.749 E0.01679
G1 X89.676 Y112.250 E0.33328
G1 X90.210 Y112.250 E0.01680
G1 X97.710 Y119.749 E0.33327
G1 X98.244 Y119.749 E0.01679
G1 X90.745 Y112.250 E0.33327
G1 X91.279 Y112.250 E0.01680
G1 X98.779 Y119.749 E0.33326
G1 X99.313 Y119.749 E0.01679
G1 X91.814 Y112.250 E0.33326
G1 X92.348 Y112.250 E0.01680
G1 X99.847 Y119.749 E0.33325
G1 X100.382 Y119.749 E0.01679
G1 X92.883 Y112.250 E0.33325
G1 X93.417 Y112.250 E0.01680
G1 X100.916 Y119.749 E0.33325
G1 X101.451 Y119.749 E0.01679
G1 X93.952 Y112.250 E0.33324
G1 X94.486 Y112.250 E0.01680
G1 X101.985 Y119.749 E0.33324
G1 X102.519 Y119.749 E0.01679
G1 X95.021 Y112.250 E0.33323
G1 X95.555 Y112.250 E0.01680
G1 X103.054 Y119.749 E0.33323
G1 X103.588 Y119.749 E0.01679
G1 X96.090 Y112.250 E0.33322
G1 X96.624 Y112.250 E0.01680
G1 X104.123 Y119.749 E0.33322
G1 X104.657 Y119.749 E0.01679
G1 X97.159 Y112.250 E0.33321
G1 X97.693 Y112.250 E0.01680
G1 X105.191 Y119.749 E0.33321
G1 X105.726 Y119.749 E0.01679
G1 X98.228 Y112.251 E0.33320
G1 X98.762 Y112.251 E0.01680
G1 X106.260 Y119.749 E0.33320
G1 X106.794 Y119.748 E0.01679
G1 X99.297 Y112.251 E0.33320
G1 X99.831 Y112.251 E0.01680
G1 X107.329 Y119.748 E0.33319
G1 X107.863 Y119.748 E0.01679
G1 X100.366 Y112.251 E0.33319
G1 X100.900 Y112.251 E0.01680
G1 X108.398 Y119.748 E0.33318
G1 X108.932 Y119.748 E0.01679
G1 X101.435 Y112.251 E0.33318
G1 X101.969 Y112.251 E0.01680
G1 X109.466 Y119.748 E0.33317
G1 X110.001 Y119.748 E0.01679
G1 X102.504 Y112.251 E0.33317
G1 X103.038 Y112.251 E0.01680
G1 X110.535 Y119.748 E0.33316
G1 X111.070 Y119.748 E0.01679
G1 X103.573 Y112.251 E0.33316
G1 X104.107 Y112.251 E0.01680
G1 X111.604 Y119.748 E0.33316
G1 X112.138 Y119.748 E0.01679
G1 X104.641 Y112.251 E0.33315
G1 X105.176 Y112.251 E0.01680
G1 X112.673 Y119.748 E0.33315
G1 X113.207 Y119.748 E0.01679
G1 X105.710 Y112.251 E0.33314
G1 X106.245 Y112.251 E0.01680
G1 X113.741 Y119.748 E0.33314
G1 X114.276 Y119.748 E0.01679
G1 X106.779 Y112.251 E0.33313
G1 X107.314 Y112.251 E0.01680
G1 X114.810 Y119.748 E0.33313
G1 X115.345 Y119.748 E0.01679
G1 X107.848 Y112.251 E0.33312
G1 X108.383 Y112.251 E0.01680
G1 X115.879 Y119.748 E0.33312
G1 X116.413 Y119.748 E0.01679
G1 X108.917 Y112.252 E0.33311
G1 X109.452 Y112.252 E0.01680
G1 X116.948 Y119.748 E0.33311
G1 X117.482 Y119.747 E0.01679
G1 X109.986 Y112.252 E0.33311
G1 X110.521 Y112.252 E0.01680
G1 X118.017 Y119.747 E0.33310
G1 X118.551 Y119.747 E0.01679
G1 X111.055 Y112.252 E0.33310
G1 X111.590 Y112.252 E0.01680
G1 X119.085 Y119.747 E0.33309
G1 X119.620 Y119.747 E0.01679
G1 X112.124 Y112.252 E0.33309
G1 X112.659 Y112.252 E0.01680
G1 X120.154 Y119.747 E0.33308
G1 X120.689 Y119.747 E0.01679
G1 X113.193 Y112.252 E0.33308
G1 X113.728 Y112.252 E0.01680
G1 X121.223 Y119.747 E0.33307
G1 X121.757 Y119.747 E0.01679
G1 X114.262 Y112.252 E0.33307
G1 X114.797 Y112.252 E0.01680
G1 X122.292 Y119.747 E0.33306
G1 X122.826 Y119.747 E0.01679
G1 X115.331 Y112.252 E0.33306
G1 X115.866 Y112.252 E0.01680
G1 X123.360 Y119.747 E0.33306
G1 X123.895 Y119.747 E0.01679
G1 X116.400 Y112.252 E0.33305
G1 X116.935 Y112.252 E0.01680
G1 X124.429 Y119.747 E0.33305
G1 X124.964 Y119.747 E0.01679
G1 X117.469 Y112.252 E0.33304
G1 X118.004 Y112.252 E0.01680
G1 X125.498 Y119.747 E0.33304
G1 X126.032 Y119.747 E0.01679
G1 X118.538 Y112.252 E0.33303
G1 X119.073 Y112.253 E0.01680
G1 X126.567 Y119.747 E0.33303
G1 X127.101 Y119.747 E0.01679
G1 X119.607 Y112.253 E0.33302
G1 X120.142 Y112.253 E0.01680
G1 X127.636 Y119.746 E0.33302
G1 X128.170 Y119.746 E0.01679
G1 X120.676 Y112.253 E0.33301
G1 X121.211 Y112.253 E0.01680
G1 X128.704 Y119.746 E0.33301
G1 X129.239 Y119.746 E0.01679
G1 X121.745 Y112.253 E0.33301
G1 X122.280 Y112.253 E0.01680
G1 X129.773 Y119.746 E0.33300
G1 X130.308 Y119.746 E0.01679
G1 X122.814 Y112.253 E0.33300
G1 X123.349 Y112.253 E0.01680
G1 X130.842 Y119.746 E0.33299
G1 X131.376 Y119.746 E0.01679
G1 X123.883 Y112.253 E0.33299
G1 X124.418 Y112.253 E0.01680
G1 X131.911 Y119.746 E0.33298
G1 X132.445 Y119.746 E0.01679
G1 X124.952 Y112.253 E0.33298
G1 X125.487 Y112.253 E0.01680
G1 X132.979 Y119.746 E0.33297
G1 X133.514 Y119.746 E0.01679
G1 X126.021 Y112.253 E0.33297
G1 X126.556 Y112.253 E0.01680
G1 X134.048 Y119.746 E0.33297
G1 X134.583 Y119.746 E0.01679
G1 X127.090 Y112.253 E0.33296
G1 X127.625 Y112.253 E0.01680
G1 X135.117 Y119.746 E0.33296
G1 X135.651 Y119.746 E0.01679
G1 X128.159 Y112.253 E0.33295
G1 X128.694 Y112.253 E0.01680
G1 X136.186 Y119.746 E0.33295
G1 X136.720 Y119.746 E0.01679
G1 X129.228 Y112.253 E0.33294
G1 X129.763 Y112.254 E0.01680
G1 X137.255 Y119.746 E0.33294
G1 X137.789 Y119.745 E0.01679
G1 X130.297 Y112.254 E0.33293
G1 X130.831 Y112.254 E0.01680
G1 X138.323 Y119.745 E0.33293
G1 X138.858 Y119.745 E0.01679
G1 X131.366 Y112.254 E0.33292
G1 X131.900 Y112.254 E0.01680
G1 X139.392 Y119.745 E0.33292
G1 X139.927 Y119.745 E0.01679
G1 X132.435 Y112.254 E0.33292
G1 X132.969 Y112.254 E0.01680
G1 X140.461 Y119.745 E0.33291
G1 X140.995 Y119.745 E0.01679
G1 X133.504 Y112.254 E0.33291
G1 X134.038 Y112.254 E0.01680
G1 X141.530 Y119.745 E0.33290
G1 X142.064 Y119.745 E0.01679
G1 X134.573 Y112.254 E0.33290
G1 X135.107 Y112.254 E0.01680
G1 X142.598 Y119.745 E0.33289
G1 X143.133 Y119.745 E0.01679
G1 X135.642 Y112.254 E0.33289
G1 X136.176 Y112.254 E0.01680
G1 X143.667 Y119.745 E0.33288
G1 X144.202 Y119.745 E0.01679
G1 X136.711 Y112.254 E0.33288
G1 X137.245 Y112.254 E0.01680
G1 X144.736 Y119.745 E0.33287
G1 X145.270 Y119.745 E0.01679
G1 X137.780 Y112.254 E0.33287
G1 X138.314 Y112.254 E0.01680
G1 X145.805 Y119.745 E0.33287
G1 X146.339 Y119.745 E0.01679
G1 X138.849 Y112.254 E0.33286
G1 X139.383 Y112.254 E0.01680
G1 X146.874 Y119.745 E0.33286
G1 X147.408 Y119.745 E0.01679
G1 X139.918 Y112.254 E0.33285
G1 X140.452 Y112.255 E0.01680
G1 X147.942 Y119.745 E0.33285
G1 X148.477 Y119.744 E0.01679
G1 X140.987 Y112.255 E0.33284
G1 X141.521 Y112.255 E0.01680
G1 X149.011 Y119.744 E0.33284
G1 X149.545 Y119.744 E0.01679
G1 X142.056 Y112.255 E0.33283
G1 X142.590 Y112.255 E0.01680
G1 X150.080 Y119.744 E0.33283
G1 X150.614 Y119.744 E0.01679
G1 X143.125 Y112.255 E0.33282
G1 X143.659 Y112.255 E0.01680
G1 X151.149 Y119.744 E0.33282
G1 X151.683 Y119.744 E0.01679
G1 X144.194 Y112.255 E0.33282
G1 X144.728 Y112.255 E0.01680
G1 X152.217 Y119.744 E0.33281
G1 X152.752 Y119.744 E0.01679
G1 X145.263 Y112.255 E0.33281
G1 X145.797 Y112.255 E0.01680
G1 X153.286 Y119.744 E0.33280
G1 X153.821 Y119.744 E0.01679
G1 X146.332 Y112.255 E0.33280
G1 X146.866 Y112.255 E0.01680
G1 X154.355 Y119.744 E0.33279
G1 X154.889 Y119.744 E0.01679
G1 X147.401 Y112.255 E0.33279
G1 X147.935 Y112.255 E0.01680
G1 X155.424 Y119.744 E0.33278
G1 X155.958 Y119.744 E0.01679
G1 X148.470 Y112.255 E0.33278
G1 X149.004 Y112.255 E0.01680
G1 X156.493 Y119.744 E0.33278
G1 X157.027 Y119.744 E0.01679
G1 X149.539 Y112.255 E0.33277
G1 X150.073 Y112.255 E0.01680
