;FLAVOR:RepRap
;TIME:922
;Filament used: 0.607584m
;Layer height: 0.2
;Generated with Cura_SteamEngine 2.5.0


;------------------ Start Gcode
G21 ;metric values
G90 ;absolute positioning
M82 ;set extruder to absolute mode
M107 ;start with the fan off

G28 ;Home all axes (max endstops)
M0 Add PROBE
;-------
; move bed heater here
M190 S105
;-------

M117 Auto leveling...
G29   ; DAQ -- auto level
M500
G1 x0 y0
M0 Remove PROBE
;-------
; move extruder heater here
M104 S240
M109 S240
;-------

G1 Z75.0 F9000 ;move the platform down 15mm
G92 E0 ;zero the extruded length
G1 F200 E3 ;extrude 3mm of feed stock
G92 E0 ;zero the extruded length again

G1 Z100 F9000
M0 CLEAN ME...

M106 S191 ;	Turn fan on 50% power

G1 F9000
M117 Printing...
;LAYER_COUNT:40
;LAYER:0
M107
G0 F3000 X-10.689 Y1.451 Z0.15
;TYPE:SKIRT
G1 F1800 X-10.762 Y-4.051 E0.13726
G1 X-10.975 Y-7.613 E0.22627
G1 X-10.981 Y-7.827 E0.23161
G1 X-10.964 Y-12.922 E0.35871
G1 X-10.962 Y-13.033 E0.36148
G1 X-10.689 Y-20.611 E0.55064
G1 X-10.762 Y-26.11 E0.68782
G1 X-10.976 Y-29.674 E0.77689
G1 X-10.973 Y-30.124 E0.78811
G1 X-10.789 Y-32.662 E0.85159
G1 X-10.712 Y-33.177 E0.86458
G1 X-10.556 Y-33.675 E0.87759
G1 X-10.327 Y-34.143 E0.89059
G1 X-10.029 Y-34.57 E0.90358
G1 X-9.669 Y-34.947 E0.91658
G1 X-9.255 Y-35.264 E0.92959
G1 X-8.798 Y-35.514 E0.94259
G1 X-8.308 Y-35.692 E0.95559
G1 X-7.615 Y-35.809 E0.97312
G1 X-5.549 Y-35.941 E1.02476
G1 X-5.27 Y-35.947 E1.03172
G1 X1.653 Y-35.82 E1.20445
G1 X2.172 Y-35.771 E1.21745
G1 X2.677 Y-35.643 E1.23045
G1 X3.157 Y-35.439 E1.24346
G1 X3.6 Y-35.164 E1.25647
G1 X3.864 Y-34.95 E1.26494
G1 X9.299 Y-30.065 E1.44723
G1 X9.659 Y-29.688 E1.46024
G1 X10 Y-29.184 E1.47542
G1 X10.421 Y-28.424 E1.49709
G1 X10.638 Y-27.95 E1.51009
G1 X10.759 Y-27.543 E1.52069
G1 X10.876 Y-27.038 E1.53362
G1 X10.964 Y-26.272 E1.55285
G1 X10.978 Y23.714 E2.79976
G1 X10.97 Y23.953 E2.80572
G1 X10.908 Y24.838 E2.82785
G1 X10.832 Y25.353 E2.84084
G1 X10.675 Y25.856 E2.85398
G1 X10.405 Y26.535 E2.87221
G1 X10.176 Y27.003 E2.88521
G1 X9.897 Y27.408 E2.89747
G1 X6.839 Y31.214 E3.01926
G1 X4.306 Y34.596 E3.12467
G1 X3.963 Y34.988 E3.13766
G1 X3.563 Y35.323 E3.15068
G1 X3.118 Y35.593 E3.16366
G1 X2.636 Y35.792 E3.17667
G1 X2.129 Y35.914 E3.18968
G1 X1.585 Y35.958 E3.20329
G1 X-7.397 Y35.958 E3.42735
G1 X-7.917 Y35.918 E3.44036
G1 X-8.424 Y35.799 E3.45335
G1 X-8.907 Y35.604 E3.46634
G1 X-9.355 Y35.338 E3.47934
G1 X-9.757 Y35.006 E3.49234
G1 X-10.103 Y34.616 E3.50535
G1 X-10.386 Y34.178 E3.51836
G1 X-10.599 Y33.703 E3.53134
G1 X-10.736 Y33.2 E3.54435
G1 X-10.786 Y32.827 E3.55374
G1 X-10.97 Y30.509 E3.61174
G1 X-10.978 Y30.092 E3.62214
G1 X-10.689 Y23.474 E3.78739
G1 X-10.762 Y17.989 E3.92422
G1 X-10.976 Y14.425 E4.01329
G1 X-10.982 Y14.209 E4.01868
G1 X-10.965 Y9.19 E4.14388
G1 X-10.963 Y9.08 E4.14662
G1 X-10.689 Y1.451 E4.33705
G0 F3000 X-10.289 Y1.46
G1 F1800 X-10.362 Y-4.059 E4.47474
G1 X-10.576 Y-7.637 E4.56415
G1 X-10.581 Y-7.826 E4.56887
G1 X-10.564 Y-12.921 E4.69596
G1 X-10.562 Y-13.019 E4.69841
G1 X-10.289 Y-20.603 E4.88771
G1 X-10.362 Y-26.118 E5.0253
G1 X-10.577 Y-29.698 E5.11476
G1 X-10.574 Y-30.095 E5.12467
G1 X-10.39 Y-32.633 E5.18814
G1 X-10.315 Y-33.117 E5.20036
G1 X-10.162 Y-33.582 E5.21257
G1 X-9.936 Y-34.016 E5.22478
G1 X-9.642 Y-34.407 E5.23698
G1 X-9.288 Y-34.746 E5.24921
G1 X-8.884 Y-35.022 E5.26141
G1 X-8.441 Y-35.229 E5.27361
G1 X-7.969 Y-35.361 E5.28583
G1 X-7.589 Y-35.41 E5.29539
G1 X-5.523 Y-35.542 E5.34703
G1 X-5.277 Y-35.547 E5.35317
G1 X1.646 Y-35.42 E5.5259
G1 X2.133 Y-35.372 E5.5381
G1 X2.606 Y-35.244 E5.55033
G1 X3.051 Y-35.042 E5.56252
G1 X3.596 Y-34.652 E5.57923
G1 X9.031 Y-29.767 E5.76153
G1 X9.368 Y-29.411 E5.77375
G1 X9.65 Y-28.99 E5.78639
G1 X10.071 Y-28.23 E5.80807
G1 X10.273 Y-27.784 E5.82028
G1 X10.37 Y-27.453 E5.82888
G1 X10.487 Y-26.948 E5.84182
G1 X10.564 Y-26.272 E5.85879
G1 X10.578 Y23.714 E7.10569
G1 X10.571 Y23.925 E7.11096
G1 X10.509 Y24.81 E7.13309
G1 X10.435 Y25.294 E7.1453
G1 X10.304 Y25.709 E7.15616
G1 X10.034 Y26.388 E7.17439
G1 X9.816 Y26.826 E7.18659
G1 X9.585 Y27.158 E7.19668
G1 X6.531 Y30.96 E7.31833
G1 X3.986 Y34.357 E7.42421
G1 X3.662 Y34.723 E7.43641
G1 X3.282 Y35.032 E7.44862
G1 X2.857 Y35.275 E7.46084
G1 X2.398 Y35.446 E7.47305
G1 X1.918 Y35.539 E7.48525
G1 X1.585 Y35.558 E7.49357
G1 X-7.397 Y35.558 E7.71763
G1 X-7.885 Y35.518 E7.72984
G1 X-8.36 Y35.399 E7.74206
G1 X-8.809 Y35.205 E7.75426
G1 X-9.221 Y34.94 E7.76648
G1 X-9.584 Y34.612 E7.77868
G1 X-9.889 Y34.229 E7.7909
G1 X-10.127 Y33.801 E7.80311
G1 X-10.293 Y33.341 E7.81531
G1 X-10.388 Y32.795 E7.82913
G1 X-10.572 Y30.477 E7.88714
G1 X-10.578 Y30.109 E7.89632
G1 X-10.289 Y23.486 E8.06169
G1 X-10.362 Y17.981 E8.19902
G1 X-10.577 Y14.401 E8.28849
G1 X-10.582 Y14.211 E8.29323
G1 X-10.565 Y9.192 E8.41843
G1 X-10.563 Y9.094 E8.42087
G1 X-10.289 Y1.46 E8.61143
G0 F3000 X-9.889 Y1.469
G1 F1800 X-9.962 Y-4.088 E8.75006
G1 X-10.176 Y-7.661 E8.83935
G1 X-10.181 Y-7.825 E8.84344
G1 X-10.164 Y-12.92 E8.97054
G1 X-10.162 Y-13.005 E8.97266
G1 X-9.889 Y-20.594 E9.16209
G1 X-9.962 Y-26.147 E9.30062
G1 X-10.177 Y-29.722 E9.38996
G1 X-10.175 Y-30.066 E9.39854
G1 X-9.991 Y-32.604 E9.46202
G1 X-9.919 Y-33.054 E9.47339
G1 X-9.769 Y-33.484 E9.48475
G1 X-9.546 Y-33.881 E9.49611
G1 X-9.257 Y-34.234 E9.50749
G1 X-8.911 Y-34.53 E9.51885
G1 X-8.519 Y-34.762 E9.53021
G1 X-8.092 Y-34.922 E9.54158
G1 X-7.564 Y-35.011 E9.55494
G1 X-5.498 Y-35.143 E9.60658
G1 X-5.284 Y-35.148 E9.61192
G1 X1.639 Y-35.021 E9.78464
G1 X2.092 Y-34.972 E9.79601
G1 X2.529 Y-34.846 E9.80736
G1 X2.938 Y-34.645 E9.81872
G1 X3.329 Y-34.355 E9.83087
G1 X8.764 Y-29.47 E10.01316
G1 X9.075 Y-29.137 E10.02452
G1 X9.3 Y-28.796 E10.03472
G1 X9.721 Y-28.036 E10.05639
G1 X9.906 Y-27.619 E10.06777
G1 X9.98 Y-27.363 E10.07442
G1 X10.097 Y-26.858 E10.08735
G1 X10.164 Y-26.272 E10.10206
G1 X10.178 Y23.714 E11.34897
G1 X10.172 Y23.897 E11.35353
G1 X10.11 Y24.782 E11.37566
G1 X10.038 Y25.232 E11.38703
G1 X9.932 Y25.561 E11.39565
G1 X9.662 Y26.24 E11.41388
G1 X9.457 Y26.647 E11.42525
G1 X9.273 Y26.907 E11.4332
G1 X6.222 Y30.704 E11.5547
G1 X3.666 Y34.117 E11.66107
G1 X3.362 Y34.456 E11.67243
G1 X3.003 Y34.737 E11.6838
G1 X2.601 Y34.951 E11.69516
G1 X2.168 Y35.092 E11.70652
G1 X1.585 Y35.158 E11.72115
G1 X-7.397 Y35.158 E11.94521
G1 X-7.851 Y35.118 E11.95658
G1 X-8.291 Y35 E11.96794
G1 X-8.703 Y34.806 E11.9793
G1 X-9.076 Y34.543 E11.99069
G1 X-9.397 Y34.22 E12.00205
G1 X-9.656 Y33.845 E12.01342
G1 X-9.846 Y33.431 E12.02478
G1 X-9.961 Y32.99 E12.03615
G1 X-9.989 Y32.764 E12.04183
G1 X-10.173 Y30.446 E12.09983
G1 X-10.179 Y30.127 E12.10779
G1 X-9.889 Y23.48 E12.27376
G1 X-9.962 Y17.952 E12.41167
G1 X-10.177 Y14.377 E12.50101
G1 X-10.182 Y14.212 E12.50513
G1 X-10.165 Y9.193 E12.63033
G1 X-10.163 Y9.109 E12.63242
G1 X-9.889 Y1.469 E12.82312
G0 F3000 X-9.489 Y1.457
G1 F1800 X-9.562 Y-4.096 E12.96166
G1 X-9.777 Y-7.685 E13.05135
G1 X-9.781 Y-7.823 E13.05479
G1 X-9.764 Y-12.918 E13.18189
G1 X-9.763 Y-12.99 E13.18368
G1 X-9.489 Y-20.605 E13.37376
G1 X-9.562 Y-26.155 E13.51222
G1 X-9.778 Y-29.746 E13.60196
G1 X-9.776 Y-30.037 E13.60922
G1 X-9.592 Y-32.575 E13.67269
G1 X-9.522 Y-32.988 E13.68314
G1 X-9.375 Y-33.381 E13.69361
G1 X-9.156 Y-33.738 E13.70406
G1 X-8.874 Y-34.047 E13.71449
G1 X-8.538 Y-34.298 E13.72496
G1 X-8.16 Y-34.48 E13.73542
G1 X-7.755 Y-34.587 E13.74587
G1 X-7.538 Y-34.612 E13.75132
G1 X-5.472 Y-34.744 E13.80296
G1 X-5.292 Y-34.748 E13.80745
G1 X1.631 Y-34.621 E13.98018
G1 X2.048 Y-34.573 E13.99065
G1 X2.447 Y-34.447 E14.00108
G1 X2.816 Y-34.248 E14.01154
G1 X3.062 Y-34.057 E14.01931
G1 X8.497 Y-29.172 E14.2016
G1 X8.78 Y-28.864 E14.21204
G1 X8.95 Y-28.602 E14.21983
G1 X9.371 Y-27.842 E14.2415
G1 X9.59 Y-27.273 E14.25671
G1 X9.707 Y-26.768 E14.26964
G1 X9.764 Y-26.272 E14.28209
G1 X9.778 Y23.714 E15.529
G1 X9.773 Y23.869 E15.53287
G1 X9.711 Y24.754 E15.555
G1 X9.642 Y25.167 E15.56544
G1 X9.56 Y25.413 E15.57191
G1 X9.29 Y26.092 E15.59014
G1 X9.099 Y26.465 E15.60059
G1 X8.961 Y26.657 E15.60649
G1 X5.903 Y30.464 E15.7283
G1 X3.346 Y33.877 E15.83468
G1 X3.064 Y34.187 E15.84514
G1 X2.728 Y34.438 E15.8556
G1 X2.351 Y34.62 E15.86604
G1 X1.946 Y34.728 E15.8765
G1 X1.585 Y34.758 E15.88553
G1 X-7.397 Y34.758 E16.10959
G1 X-7.814 Y34.718 E16.12004
G1 X-8.216 Y34.6 E16.13049
G1 X-8.588 Y34.407 E16.14094
G1 X-8.917 Y34.148 E16.15139
G1 X-9.191 Y33.831 E16.16184
G1 X-9.4 Y33.468 E16.17229
G1 X-9.536 Y33.071 E16.18276
G1 X-9.59 Y32.732 E16.19132
G1 X-9.774 Y30.414 E16.24933
G1 X-9.779 Y30.144 E16.25606
G1 X-9.489 Y23.492 E16.42215
G1 X-9.562 Y17.944 E16.56056
G1 X-9.778 Y14.353 E16.6503
G1 X-9.782 Y14.214 E16.65377
G1 X-9.765 Y9.195 E16.77897
G1 X-9.764 Y9.123 E16.78077
G1 X-9.489 Y1.457 E16.97212
G1 F1500 E10.47212
G1 Z1.15
G0 F3000 X-5.998 Y6.425 Z1.15
;TYPE:WALL-INNER
G1 Z0.15
G1 F1500 E16.97212
G1 F1800 X-5.391 Y6.289 E17.0015
G1 X-4.748 Y6.109 E17.01815
G1 X-4.12 Y5.896 E17.0347
G1 X-3.795 Y5.769 E17.0434
G1 X-3.192 Y5.501 E17.05986
G1 X-2.645 Y5.215 E17.07526
G1 X-2.346 Y5.04 E17.0839
G1 X-2.058 Y4.855 E17.09244
G1 X-1.781 Y4.66 E17.10089
G1 X-1.508 Y4.451 E17.10947
G1 X-1.245 Y4.228 E17.11807
G1 X-.99 Y3.993 E17.12672
G1 X-.747 Y3.744 E17.1354
G1 X-.516 Y3.483 E17.14409
G1 X-.303 Y3.215 E17.15263
G1 X-.102 Y2.93 E17.16133
G1 X0.089 Y2.62 E17.17041
G1 X0.197 Y2.42 E17.17608
G1 X0.255 Y2.313 E17.17912
G1 X0.408 Y1.974 E17.1884
G1 X0.533 Y1.64 E17.19729
G1 X0.593 Y1.435 E17.20262
G1 X0.593 Y1.64
G1 X0.593 Y1.974
G1 X0.593 Y2.313 E17.20635
G1 X0.593 Y2.435 E17.20917
G1 X0.593 Y19.677 E17.63927
G1 X0.593 Y19.753 E17.64117
G1 X0.593 Y20.077 E17.64925
G1 X0.593 Y20.409 E17.65753
G1 X0.593 Y20.677 E17.66421
G1 X0.511 Y20.409
G1 X0.381 Y20.077
G1 X0.232 Y19.753 E17.67047
G1 X0.196 Y19.687 E17.67225
G1 X0.062 Y19.443 E17.6792
G1 X-.124 Y19.148 E17.6879
G1 X-.326 Y18.865 E17.69657
G1 X-.542 Y18.596 E17.70518
G1 X-.773 Y18.337 E17.71383
G1 X-1.037 Y18.07 E17.7232
G1 X-1.298 Y17.832 E17.73201
G1 X-1.574 Y17.604 E17.74094
G1 X-1.863 Y17.388 E17.74994
G1 X-2.164 Y17.181 E17.75905
G1 X-2.482 Y16.983 E17.7684
G1 X-2.81 Y16.798 E17.77779
G1 X-3.151 Y16.621 E17.78738
G1 X-3.504 Y16.456 E17.7971
G1 X-3.894 Y16.29 E17.80767
G1 X-4.262 Y16.152 E17.81747
G1 X-4.628 Y16.026 E17.82713
G1 X-5.001 Y15.91 E17.83687
G1 X-5.38 Y15.805 E17.84668
G1 X-5.765 Y15.714 E17.85655
G1 X-6.406 Y15.589 E17.87284
G1 X-6.406 Y14.82 E17.89203
G1 X-6.533 Y14.473 E17.90124
G1 X-6.56 Y14.372 E17.90385
G1 X-6.589 Y14.205 E17.90808
G1 X-6.598 Y14.109 E17.91048
G1 X-6.598 Y13.945 E17.91458
G1 X-6.563 Y13.704 E17.92065
G1 X-6.526 Y13.569 E17.92414
G1 X-6.406 Y13.243 E17.93281
G1 X-6.406 Y8.77 E18.04439
G1 X-6.533 Y8.423 E18.0536
G1 X-6.56 Y8.322 E18.05621
G1 X-6.589 Y8.155 E18.06044
G1 X-6.598 Y8.059 E18.06285
G1 X-6.598 Y7.895 E18.06694
G1 X-6.563 Y7.654 E18.07301
G1 X-6.526 Y7.519 E18.0765
G1 X-6.406 Y7.193 E18.08517
G1 X-6.406 Y6.496 E18.10256
G1 X-5.998 Y6.425 E18.11289
G0 F3000 X-2.82 Y4.899
G0 X-1.734 Y4.17
G0 X-.793 Y3.251
G0 X-.224 Y2.439
G0 X0.19 Y1.525
G0 X0.406 Y0.543
G0 X0.511 Y-1.59
G1 F1800 X0.381 Y-1.922 E18.12178
G1 X0.232 Y-2.246 E18.13068
G1 X0.196 Y-2.312 E18.13255
G1 X0.062 Y-2.556 E18.1395
G1 X-.124 Y-2.851 E18.1482
G1 X-.326 Y-3.134 E18.15687
G1 X-.542 Y-3.403 E18.16547
G1 X-.773 Y-3.662 E18.17413
G1 X-1.037 Y-3.929 E18.1835
G1 X-1.298 Y-4.167 E18.19231
G1 X-1.574 Y-4.395 E18.20124
G1 X-1.863 Y-4.611 E18.21024
G1 X-2.164 Y-4.818 E18.21935
G1 X-2.482 Y-5.016 E18.2287
G1 X-2.81 Y-5.201 E18.23809
G1 X-3.151 Y-5.378 E18.24767
G1 X-3.504 Y-5.543 E18.25739
G1 X-3.894 Y-5.709 E18.26797
G1 X-4.262 Y-5.847 E18.27777
G1 X-4.628 Y-5.973 E18.28743
G1 X-5.001 Y-6.089 E18.29717
G1 X-5.38 Y-6.194 E18.30698
G1 X-5.765 Y-6.285 E18.31685
G1 X-6.406 Y-6.41 E18.33314
G1 X-6.406 Y-7.229 E18.35357
G1 X-6.533 Y-7.576 E18.36279
G1 X-6.56 Y-7.677 E18.3654
G1 X-6.589 Y-7.844 E18.36962
G1 X-6.598 Y-7.94 E18.37203
G1 X-6.598 Y-8.104 E18.37612
G1 X-6.563 Y-8.345 E18.3822
G1 X-6.526 Y-8.48 E18.38569
G1 X-6.406 Y-8.806 E18.39435
G1 X-6.406 Y-13.279 E18.50593
G1 X-6.533 Y-13.626 E18.51515
G1 X-6.56 Y-13.727 E18.51776
G1 X-6.589 Y-13.894 E18.52199
G1 X-6.598 Y-13.99 E18.52439
G1 X-6.598 Y-14.154 E18.52848
G1 X-6.563 Y-14.395 E18.53456
G1 X-6.526 Y-14.53 E18.53805
G1 X-6.406 Y-14.856 E18.54671
G1 X-6.406 Y-15.503 E18.56285
G1 X-5.998 Y-15.574 E18.57318
G1 X-5.391 Y-15.71 E18.5887
G1 X-4.748 Y-15.89 E18.60536
G1 X-4.12 Y-16.103 E18.6219
G1 X-3.795 Y-16.23 E18.6306
G1 X-3.192 Y-16.498 E18.64706
G1 X-2.645 Y-16.784 E18.66246
G1 X-2.346 Y-16.959 E18.6711
G1 X-2.058 Y-17.144 E18.67964
G1 X-1.781 Y-17.339 E18.68809
G1 X-1.508 Y-17.548 E18.69667
G1 X-1.245 Y-17.771 E18.70527
G1 X-.99 Y-18.006 E18.71392
G1 X-.747 Y-18.255 E18.7226
G1 X-.516 Y-18.516 E18.73129
G1 X-.303 Y-18.784 E18.73983
G1 X-.102 Y-19.069 E18.74853
G1 X0.089 Y-19.379 E18.75762
G1 X0.197 Y-19.579 E18.76329
G1 X0.255 Y-19.686 E18.76632
G1 X0.408 Y-20.025 E18.7756
G1 X0.533 Y-20.359 E18.7845
G1 X0.593 Y-20.564 E18.78983
G1 X0.593 Y-20.359
G1 X0.593 Y-20.025
G1 X0.593 Y-19.686 E18.79356
G1 X0.593 Y-19.564 E18.79637
G1 X0.593 Y-2.322 E19.22647
G1 X0.593 Y-2.246 E19.22799
G1 X0.593 Y-1.922 E19.23125
G1 X0.593 Y-1.59 E19.23319
G1 X0.593 Y-1.322 E19.23866
G1 X0.511 Y-1.59
G0 F3000 X0.511 Y-23.59
G1 F1800 X0.381 Y-23.922 E19.24756
G1 X0.232 Y-24.246 E19.25645
G1 X0.196 Y-24.312 E19.25833
G1 X0.062 Y-24.556 E19.26527
G1 X-.124 Y-24.851 E19.27397
G1 X-.326 Y-25.134 E19.28265
G1 X-.542 Y-25.403 E19.29125
G1 X-.773 Y-25.662 E19.29991
G1 X-1.037 Y-25.929 E19.30927
G1 X-1.298 Y-26.167 E19.31809
G1 X-1.574 Y-26.395 E19.32702
G1 X-1.863 Y-26.611 E19.33602
G1 X-2.164 Y-26.818 E19.34513
G1 X-2.482 Y-27.016 E19.35447
G1 X-2.81 Y-27.201 E19.36387
G1 X-3.151 Y-27.378 E19.37345
G1 X-3.504 Y-27.543 E19.38317
G1 X-3.894 Y-27.709 E19.39374
G1 X-4.262 Y-27.847 E19.40355
G1 X-4.628 Y-27.973 E19.4132
G1 X-5.001 Y-28.089 E19.42295
G1 X-5.38 Y-28.194 E19.43276
G1 X-5.765 Y-28.285 E19.44263
G1 X-6.406 Y-28.41 E19.45892
G1 X-6.406 Y-29.279 E19.4806
G1 X-6.533 Y-29.626 E19.48981
G1 X-6.56 Y-29.727 E19.49242
G1 X-6.589 Y-29.894 E19.49665
G1 X-6.598 Y-29.99 E19.49905
G1 X-6.598 Y-30.154 E19.50314
G1 X-6.563 Y-30.395 E19.50922
G1 X-6.526 Y-30.53 E19.51271
G1 X-6.406 Y-30.856 E19.52138
G1 X-6.406 Y-31.432 E19.53575
G1 X-5.77 Y-31.432 E19.55161
G1 X-5.448 Y-31.526 E19.55998
G1 X-5.321 Y-31.55 E19.5632
G1 X-5.171 Y-31.564 E19.56696
G1 X-5.029 Y-31.566 E19.5705
G1 X-4.89 Y-31.552 E19.57399
G1 X-4.745 Y-31.524 E19.57767
G1 X-4.433 Y-31.434 E19.58577
G1 X0.593 Y-31.432 E19.71115
G1 X0.593 Y-24.322 E19.88851
G1 X0.593 Y-24.246 E19.89002
G1 X0.593 Y-23.922 E19.89328
G1 X0.593 Y-23.59 E19.89522
G1 X0.593 Y-23.322 E19.90069
G1 X0.511 Y-23.59
G0 F3000 X0.533 Y23.64
G1 F1800 X0.593 Y23.435 E19.90602
G1 X0.593 Y23.64
G1 X0.593 Y23.974 E19.91429
G1 X0.593 Y24.313 E19.92275
G1 X0.593 Y24.435 E19.92579
G1 X0.593 Y31.567 E20.1037
G1 X-6.406 Y31.567 E20.27829
G1 X-6.406 Y30.82 E20.29692
G1 X-6.533 Y30.473 E20.30614
G1 X-6.56 Y30.372 E20.30875
G1 X-6.589 Y30.205 E20.31298
G1 X-6.598 Y30.109 E20.31538
G1 X-6.598 Y29.945 E20.31947
G1 X-6.563 Y29.704 E20.32555
G1 X-6.526 Y29.569 E20.32904
G1 X-6.406 Y29.243 E20.33771
G1 X-6.406 Y28.496 E20.35634
G1 X-5.998 Y28.425 E20.36667
G1 X-5.391 Y28.289 E20.38219
G1 X-4.748 Y28.109 E20.39884
G1 X-4.12 Y27.896 E20.41539
G1 X-3.795 Y27.769 E20.42409
G1 X-3.192 Y27.501 E20.44055
G1 X-2.645 Y27.215 E20.45595
G1 X-2.346 Y27.04 E20.46459
G1 X-2.058 Y26.855 E20.47313
G1 X-1.781 Y26.66 E20.48158
G1 X-1.508 Y26.451 E20.49016
G1 X-1.245 Y26.228 E20.49876
G1 X-.99 Y25.993 E20.50741
G1 X-.747 Y25.744 E20.51609
G1 X-.516 Y25.483 E20.52478
G1 X-.303 Y25.215 E20.53332
G1 X-.102 Y24.93 E20.54202
G1 X0.089 Y24.62 E20.5511
G1 X0.197 Y24.42 E20.55677
G1 X0.255 Y24.313 E20.55958
G1 X0.408 Y23.974 E20.56297
G1 X0.533 Y23.64
G0 F3000 X0.153 Y23.513
G1 F1800 X0.245 Y23.201 E20.57109
G1 X0.32 Y22.865 E20.57967
G1 X0.367 Y22.539 E20.58789
G1 X0.391 Y22.192 E20.59657
G1 X0.389 Y21.861 E20.60482
G1 X0.36 Y21.518 E20.61341
G1 X0.31 Y21.194 E20.62159
G1 X0.236 Y20.876 E20.62973
G1 X0.133 Y20.541 E20.63848
G1 X0.013 Y20.233 E20.64672
