; generated by PrusaSlicer 2.1.0+win64 on 2019-11-15 at 18:53:33 UTC

; 

; external perimeters extrusion width = 0.60mm
; perimeters extrusion width = 0.43mm
; infill extrusion width = 0.45mm
; solid infill extrusion width = 0.70mm
; top infill extrusion width = 0.43mm
; first layer extrusion width = 0.42mm

M73 P0 R167
M201 X9000 Y9000 Z500 E10000 ; sets maximum accelerations, mm/sec^2
M203 X500 Y500 Z12 E120 ; sets maximum feedrates, mm/sec
M204 P2000 R1500 T2000 ; sets acceleration (P, T) and retract acceleration (R), mm/sec^2
M205 X10.00 Y10.00 Z0.20 E2.50 ; sets the jerk limits, mm/sec
M205 S0 T0 ; sets the minimum extruding and travel feed rate, mm/sec
M107
M862.3 P "MK2SMM" ; printer model check
M862.1 P0.4 ; nozzle diameter check
M115 U3.2.3 ; tell printer latest fw version
M204 S2000 T1500 ; MK2 firmware only supports the old M204 format
; Start G-Code sequence START
T3
M104 S215 ; set extruder temp
M140 S60 ; set bed temp
M190 S60 ; wait for bed temp
M109 S215 ; wait for extruder temp
G21 ; set units to millimeters
G90 ; use absolute coordinates
M83 ; use relative distances for extrusion
G28 W
G80
G92 E0.0
M203 E100 ; set max feedrate
M92 E140 ; E-steps per filament milimeter

G1 Z0.250 F7200.000
G1 X50.0 E80.0 F1000.0
M73 P0 R167
G1 X160.0 E20.0 F1000.0
G1 Z0.200 F7200.000
G1 X220.0 E13 F1000.0
G1 X240.0 E0 F1000.0

G92 E0.0
G21 ; set units to millimeters
G90 ; use absolute coordinates
M83 ; use relative distances for extrusion
T3
M900 K200 ; Filament gcode
;BEFORE_LAYER_CHANGE
G92 E0.0
;0.2


G1 E-4.00000 F4800.00000
G1 Z0.600 F10800.000
;AFTER_LAYER_CHANGE
;0.2
G1 X68.543 Y64.177
G1 Z0.200
G1 E4.00000 F3000.00000
M204 S1000
G1 F1200
G1 X68.787 Y63.644 E0.01839
G1 X69.165 Y63.195 E0.01839
G1 X111.096 Y25.531 E1.76723
G1 X112.054 Y24.748 E0.03879
G1 X113.079 Y24.045 E0.03896
G1 X114.163 Y23.430 E0.03908
G1 X115.261 Y22.923 E0.03793
G1 X116.470 Y22.485 E0.04033
G1 X117.714 Y22.154 E0.04033
G1 X119.473 Y21.879 E0.05585
G1 X120.732 Y21.813 E0.03953
G1 X166.962 Y21.812 E1.44950
G1 X168.226 Y21.875 E0.03967
G1 X169.501 Y22.051 E0.04036
G1 X170.722 Y22.328 E0.03927
G1 X172.409 Y22.899 E0.05584
G1 X173.579 Y23.437 E0.04036
G1 X174.666 Y24.055 E0.03922
G1 X175.696 Y24.764 E0.03922
G1 X176.687 Y25.580 E0.04025
G1 X177.582 Y26.457 E0.03927
G1 X178.718 Y27.828 E0.05584
G1 X179.432 Y28.899 E0.04036
G1 X180.034 Y29.996 E0.03922
G1 X180.539 Y31.140 E0.03922
G1 X180.956 Y32.359 E0.04041
G1 X181.353 Y34.091 E0.05572
G1 X181.508 Y35.355 E0.03990
G1 X181.051 Y172.850 E4.31110
G1 X180.880 Y175.244 E0.07525
G1 X180.459 Y177.133 E0.06068
G1 X179.813 Y178.905 E0.05912
G1 X178.672 Y181.017 E0.07530
G1 X177.530 Y182.544 E0.05977
G1 X176.196 Y183.913 E0.05992
G1 X174.290 Y185.367 E0.07519
G1 X172.618 Y186.291 E0.05988
G1 X170.844 Y186.989 E0.05977
G1 X168.500 Y187.533 E0.07546
G1 X166.596 Y187.687 E0.05988
G1 X120.664 Y188.188 E1.44028
G1 X118.734 Y188.034 E0.06070
G1 X116.389 Y187.491 E0.07545
G1 X114.625 Y186.798 E0.05945
G1 X112.991 Y185.901 E0.05842
G1 X111.485 Y184.805 E0.05842
G1 X110.130 Y183.527 E0.05842
G1 X69.151 Y137.275 E1.93749
G1 X68.751 Y136.617 E0.02417
G1 X68.603 Y135.842 E0.02473
G1 X68.448 Y93.323 E1.33316
G1 X68.448 Y64.807 E0.89408
G1 X68.534 Y64.237 E0.01810
G1 E-2.40000 F4800.00000
G1 F8640
G1 X68.787 Y63.644 E-0.34017
G1 X69.165 Y63.195 E-0.30962
G1 X70.391 Y62.093 E-0.87021
G1 E-0.08000 F4800.00000
G1 Z0.800 F10800.000
G1 X132.759 Y35.408
G1 Z0.200
G1 E4.00000 F3000.00000
G1 F1200
G1 X154.969 Y35.408 E0.69636
G1 X155.238 Y33.904 E0.04790
G1 X155.500 Y32.927 E0.03171
G1 X155.844 Y31.976 E0.03171
G1 X156.268 Y31.058 E0.03171
G1 X156.768 Y30.178 E0.03171
G1 X157.341 Y29.345 E0.03171
G1 X157.982 Y28.563 E0.03171
G1 X158.687 Y27.838 E0.03171
G1 X159.456 Y27.171 E0.03191
G1 X159.849 Y26.873 E0.01547
G1 X160.696 Y26.309 E0.03191
G1 X161.583 Y25.823 E0.03171
G1 X162.508 Y25.413 E0.03171
G1 X163.464 Y25.084 E0.03171
G1 X164.445 Y24.836 E0.03171
G1 X165.443 Y24.673 E0.03171
G1 X166.452 Y24.595 E0.03171
G1 X167.469 Y24.603 E0.03191
G1 X167.961 Y24.639 E0.01547
G1 X168.970 Y24.776 E0.03191
G1 X169.957 Y24.997 E0.03171
G1 X170.921 Y25.300 E0.03171
G1 X171.857 Y25.685 E0.03171
G1 X172.756 Y26.148 E0.03171
G1 X173.613 Y26.685 E0.03171
G1 X174.422 Y27.293 E0.03171
G1 X175.176 Y27.967 E0.03171
G1 X175.870 Y28.703 E0.03171
G1 X176.499 Y29.495 E0.03171
G1 X177.058 Y30.337 E0.03171
G1 X177.544 Y31.224 E0.03171
G1 X177.953 Y32.149 E0.03171
G1 X178.285 Y33.112 E0.03191
G1 X178.415 Y33.587 E0.01547
G1 X178.621 Y34.584 E0.03191
G1 X178.741 Y35.588 E0.03171
G1 X178.776 Y36.605 E0.03191
G1 X178.762 Y37.098 E0.01547
G1 X178.666 Y38.118 E0.03210
G1 X178.589 Y38.607 E0.01553
G1 X178.427 Y39.353 E0.02392
G1 X178.224 Y40.088 E0.02392
G1 X177.882 Y41.031 E0.03145
G1 X177.567 Y41.725 E0.02392
G1 X177.213 Y42.401 E0.02392
G1 X176.959 Y42.826 E0.01553
G1 X176.378 Y43.670 E0.03210
G1 X176.073 Y44.058 E0.01547
G1 X175.390 Y44.820 E0.03210
G1 X175.038 Y45.166 E0.01547
G1 X174.269 Y45.832 E0.03191
G1 X173.445 Y46.430 E0.03191
G1 X173.029 Y46.694 E0.01547
G1 X172.136 Y47.183 E0.03191
G1 X171.205 Y47.594 E0.03191
G1 X170.742 Y47.764 E0.01547
G1 X169.766 Y48.054 E0.03191
G1 X168.770 Y48.260 E0.03191
G1 X167.757 Y48.402 E0.03205
G1 X167.757 Y161.138 E3.53474
G1 X169.240 Y161.441 E0.04745
G1 X170.209 Y161.726 E0.03165
G1 X171.149 Y162.092 E0.03165
G1 X172.061 Y162.539 E0.03184
G1 X172.489 Y162.783 E0.01544
G1 X173.336 Y163.342 E0.03184
G1 X174.129 Y163.967 E0.03165
G1 X174.866 Y164.656 E0.03165
G1 X175.542 Y165.406 E0.03165
G1 X176.152 Y166.210 E0.03165
G1 X176.691 Y167.063 E0.03165
G1 X177.157 Y167.959 E0.03165
G1 X177.545 Y168.890 E0.03165
G1 X177.853 Y169.852 E0.03165
G1 X178.078 Y170.835 E0.03165
G1 X178.219 Y171.835 E0.03165
G1 X178.275 Y172.843 E0.03165
G1 X178.246 Y173.851 E0.03165
G1 X178.131 Y174.854 E0.03165
G1 X177.932 Y175.844 E0.03165
G1 X177.648 Y176.819 E0.03184
G1 X177.481 Y177.282 E0.01544
G1 X177.076 Y178.213 E0.03184
G1 X176.596 Y179.101 E0.03165
G1 X176.043 Y179.945 E0.03165
G1 X175.420 Y180.740 E0.03165
G1 X174.733 Y181.478 E0.03165
G1 X173.980 Y182.161 E0.03184
G1 X173.595 Y182.467 E0.01544
G1 X172.763 Y183.049 E0.03184
G1 X171.889 Y183.554 E0.03165
G1 X170.976 Y183.984 E0.03165
G1 X170.029 Y184.335 E0.03165
G1 X169.057 Y184.605 E0.03165
G1 X168.059 Y184.792 E0.03184
G1 X167.570 Y184.852 E0.01544
G1 X166.550 Y184.912 E0.03204
G1 X166.058 Y184.909 E0.01544
G1 X165.038 Y184.839 E0.03204
G1 X164.550 Y184.774 E0.01544
G1 X163.554 Y184.577 E0.03184
G1 X162.578 Y184.296 E0.03184
G1 X162.109 Y184.128 E0.01563
G1 X161.647 Y183.940 E0.01563
G1 X160.733 Y183.498 E0.03184
G1 X159.859 Y182.980 E0.03184
G1 X159.452 Y182.703 E0.01544
G1 X158.651 Y182.079 E0.03184
G1 X157.906 Y181.389 E0.03184
G1 X157.566 Y181.033 E0.01544
G1 X156.914 Y180.254 E0.03184
G1 X156.334 Y179.428 E0.03165
G1 X155.826 Y178.556 E0.03165
G1 X155.391 Y177.638 E0.03184
G1 X155.207 Y177.175 E0.01563
G1 X155.042 Y176.704 E0.01563
G1 X154.768 Y175.727 E0.03184
G1 X154.483 Y174.234 E0.04766
G1 X132.788 Y174.234 E0.68022
G1 X132.561 Y175.755 E0.04824
G1 X132.329 Y176.736 E0.03160
G1 X132.014 Y177.693 E0.03160
G1 X131.620 Y178.621 E0.03160
G1 X131.149 Y179.511 E0.03160
G1 X130.604 Y180.359 E0.03160
G1 X129.990 Y181.158 E0.03160
G1 X129.306 Y181.906 E0.03179
G1 X128.952 Y182.247 E0.01541
G1 X128.178 Y182.903 E0.03179
G1 X127.358 Y183.488 E0.03160
G1 X126.490 Y184.001 E0.03160
G1 X125.583 Y184.439 E0.03160
G1 X124.641 Y184.798 E0.03160
G1 X123.673 Y185.077 E0.03160
G1 X122.685 Y185.273 E0.03160
G1 X121.683 Y185.385 E0.03160
G1 X120.676 Y185.412 E0.03160
G1 X119.670 Y185.353 E0.03160
G1 X118.672 Y185.210 E0.03160
G1 X117.691 Y184.982 E0.03160
G1 X116.731 Y184.673 E0.03160
G1 X115.802 Y184.284 E0.03160
G1 X114.909 Y183.818 E0.03160
G1 X114.058 Y183.277 E0.03160
G1 X113.256 Y182.667 E0.03160
G1 X112.509 Y181.991 E0.03160
G1 X111.821 Y181.255 E0.03160
G1 X111.198 Y180.463 E0.03160
G1 X110.644 Y179.621 E0.03160
G1 X110.163 Y178.735 E0.03160
G1 X109.759 Y177.812 E0.03160
G1 X109.433 Y176.852 E0.03179
G1 X109.304 Y176.378 E0.01541
G1 X109.102 Y175.384 E0.03179
G1 X108.984 Y174.377 E0.03179
G1 X108.957 Y173.880 E0.01561
G1 X108.952 Y173.383 E0.01561
G1 X109.005 Y172.370 E0.03179
G1 X109.144 Y171.366 E0.03179
G1 X109.242 Y170.884 E0.01541
G1 X109.507 Y169.905 E0.03179
G1 X109.854 Y168.952 E0.03179
G1 X110.051 Y168.502 E0.01541
G1 X110.515 Y167.601 E0.03179
G1 X111.051 Y166.747 E0.03160
G1 X111.657 Y165.942 E0.03160
G1 X112.333 Y165.186 E0.03179
G1 X112.687 Y164.837 E0.01561
G1 X113.057 Y164.503 E0.01561
G1 X113.850 Y163.872 E0.03179
G1 X114.689 Y163.314 E0.03160
G1 X115.577 Y162.825 E0.03179
G1 X116.022 Y162.616 E0.01541
G1 X116.966 Y162.244 E0.03179
G1 X117.931 Y161.955 E0.03160
G1 X118.923 Y161.747 E0.03179
G1 X119.932 Y161.602 E0.03194
G1 X119.932 Y48.410 E3.54905
G1 X118.413 Y48.158 E0.04827
M73 P0 R166
G1 X117.930 Y48.046 E0.01552
G1 X117.199 Y47.832 E0.02390
G1 X116.481 Y47.578 E0.02390
G1 X116.024 Y47.386 E0.01552
G1 X115.108 Y46.930 E0.03208
G1 X114.681 Y46.683 E0.01546
G1 X113.835 Y46.119 E0.03189
G1 X113.045 Y45.488 E0.03169
G1 X112.312 Y44.793 E0.03169
G1 X111.640 Y44.038 E0.03169
G1 X111.034 Y43.229 E0.03169
G1 X110.499 Y42.372 E0.03169
G1 X110.039 Y41.472 E0.03169
G1 X109.654 Y40.530 E0.03189
G1 X109.497 Y40.063 E0.01546
G1 X109.234 Y39.081 E0.03189
G1 X109.057 Y38.079 E0.03189
G1 X109.001 Y37.589 E0.01546
G1 X108.952 Y36.574 E0.03189
G1 X108.989 Y35.564 E0.03169
G1 X109.111 Y34.560 E0.03169
G1 X109.319 Y33.565 E0.03189
G1 X109.450 Y33.090 E0.01546
G1 X109.783 Y32.129 E0.03189
G1 X110.193 Y31.205 E0.03169
G1 X110.681 Y30.320 E0.03169
G1 X111.241 Y29.479 E0.03169
G1 X111.871 Y28.688 E0.03169
G1 X112.570 Y27.949 E0.03189
G1 X113.315 Y27.285 E0.03130
G1 X114.129 Y26.675 E0.03189
G1 X114.986 Y26.139 E0.03169
G1 X115.886 Y25.678 E0.03169
G1 X116.821 Y25.295 E0.03169
G1 X117.785 Y24.993 E0.03169
G1 X118.772 Y24.773 E0.03169
G1 X119.780 Y24.637 E0.03189
G1 X120.274 Y24.603 E0.01552
G1 X121.036 Y24.592 E0.02390
G1 X121.797 Y24.625 E0.02390
G1 X122.290 Y24.674 E0.01552
G1 X123.293 Y24.839 E0.03189
G1 X124.273 Y25.086 E0.03169
G1 X125.229 Y25.417 E0.03169
G1 X126.152 Y25.826 E0.03169
G1 X127.038 Y26.313 E0.03169
G1 X127.880 Y26.873 E0.03169
G1 X128.670 Y27.503 E0.03169
G1 X129.405 Y28.197 E0.03169
G1 X130.082 Y28.955 E0.03189
G1 X130.388 Y29.345 E0.01552
G1 X130.824 Y29.970 E0.02390
G1 X131.224 Y30.619 E0.02390
G1 X131.459 Y31.055 E0.01552
G1 X131.885 Y31.978 E0.03189
G1 X132.228 Y32.929 E0.03169
G1 X132.490 Y33.905 E0.03169
G1 X132.749 Y35.349 E0.04599
G1 X133.075 Y35.031 F10800.000
G1 F1200
G1 X154.653 Y35.031 E0.67657
G1 X154.870 Y33.822 E0.03851
G1 X155.140 Y32.814 E0.03272
G1 X155.495 Y31.833 E0.03272
G1 X155.932 Y30.885 E0.03272
G1 X156.448 Y29.978 E0.03272
G1 X157.039 Y29.118 E0.03272
G1 X157.700 Y28.311 E0.03272
G1 X158.428 Y27.563 E0.03272
G1 X159.218 Y26.879 E0.03279
G1 X159.630 Y26.565 E0.01622
G1 X160.501 Y25.986 E0.03279
G1 X161.416 Y25.484 E0.03272
G1 X162.370 Y25.062 E0.03272
G1 X163.357 Y24.722 E0.03272
G1 X164.368 Y24.467 E0.03272
G1 X165.398 Y24.299 E0.03272
G1 X166.439 Y24.218 E0.03272
G1 X167.484 Y24.226 E0.03279
G1 X168.000 Y24.263 E0.01622
G1 X169.036 Y24.404 E0.03279
G1 X170.055 Y24.632 E0.03272
G1 X171.050 Y24.946 E0.03272
G1 X172.015 Y25.342 E0.03272
G1 X172.943 Y25.820 E0.03272
G1 X173.827 Y26.374 E0.03272
G1 X174.661 Y27.001 E0.03272
G1 X175.439 Y27.697 E0.03272
G1 X176.155 Y28.456 E0.03272
G1 X176.804 Y29.273 E0.03272
G1 X177.381 Y30.142 E0.03272
G1 X177.883 Y31.057 E0.03272
G1 X178.305 Y32.011 E0.03272
G1 X178.645 Y33.000 E0.03279
G1 X178.782 Y33.499 E0.01622
G1 X178.994 Y34.523 E0.03279
G1 X179.118 Y35.559 E0.03272
G1 X179.154 Y36.604 E0.03279
G1 X179.138 Y37.121 E0.01622
G1 X179.041 Y38.165 E0.03286
G1 X178.960 Y38.677 E0.01625
G1 X178.794 Y39.443 E0.02459
G1 X178.584 Y40.199 E0.02459
G1 X178.230 Y41.177 E0.03262
G1 X177.906 Y41.891 E0.02459
G1 X177.542 Y42.586 E0.02459
G1 X177.276 Y43.030 E0.01625
G1 X176.682 Y43.893 E0.03286
G1 X176.362 Y44.300 E0.01622
G1 X175.663 Y45.081 E0.03286
G1 X175.294 Y45.444 E0.01622
G1 X174.503 Y46.128 E0.03279
G1 X173.657 Y46.742 E0.03279
G1 X173.220 Y47.019 E0.01622
G1 X172.303 Y47.521 E0.03279
G1 X171.346 Y47.944 E0.03279
G1 X170.861 Y48.123 E0.01622
G1 X169.858 Y48.420 E0.03279
G1 X168.834 Y48.632 E0.03279
G1 X168.135 Y48.730 E0.02215
G1 X168.135 Y160.830 E3.51481
G1 X169.331 Y161.074 E0.03830
G1 X170.330 Y161.368 E0.03265
G1 X171.301 Y161.746 E0.03265
G1 X172.238 Y162.205 E0.03272
G1 X172.686 Y162.461 E0.01619
G1 X173.557 Y163.036 E0.03272
G1 X174.375 Y163.681 E0.03265
G1 X175.135 Y164.392 E0.03265
G1 X175.832 Y165.165 E0.03265
G1 X176.462 Y165.995 E0.03265
G1 X177.019 Y166.875 E0.03265
G1 X177.499 Y167.799 E0.03265
G1 X177.899 Y168.760 E0.03265
G1 X178.217 Y169.752 E0.03265
G1 X178.449 Y170.767 E0.03265
G1 X178.595 Y171.798 E0.03265
G1 X178.653 Y172.838 E0.03265
G1 X178.623 Y173.878 E0.03265
G1 X178.504 Y174.913 E0.03265
G1 X178.299 Y175.934 E0.03265
G1 X178.007 Y176.936 E0.03272
G1 X177.831 Y177.421 E0.01619
G1 X177.415 Y178.378 E0.03272
G1 X176.920 Y179.294 E0.03265
G1 X176.349 Y180.165 E0.03265
G1 X175.707 Y180.985 E0.03265
G1 X174.998 Y181.747 E0.03265
G1 X174.225 Y182.448 E0.03272
G1 X173.821 Y182.770 E0.01619
G1 X172.965 Y183.367 E0.03272
G1 X172.064 Y183.889 E0.03265
G1 X171.122 Y184.332 E0.03265
G1 X170.146 Y184.694 E0.03265
G1 X169.142 Y184.972 E0.03265
G1 X168.117 Y185.165 E0.03272
G1 X167.604 Y185.228 E0.01619
G1 X166.560 Y185.289 E0.03279
G1 X166.044 Y185.286 E0.01619
G1 X165.001 Y185.215 E0.03279
G1 X164.489 Y185.147 E0.01619
G1 X163.465 Y184.944 E0.03272
G1 X162.462 Y184.655 E0.03272
G1 X161.974 Y184.480 E0.01626
G1 X161.494 Y184.284 E0.01626
G1 X160.554 Y183.831 E0.03272
G1 X159.657 Y183.299 E0.03272
G1 X159.230 Y183.008 E0.01619
G1 X158.407 Y182.367 E0.03272
G1 X157.641 Y181.658 E0.03272
G1 X157.285 Y181.284 E0.01619
G1 X156.615 Y180.484 E0.03272
G1 X156.017 Y179.631 E0.03265
G1 X155.492 Y178.732 E0.03265
G1 X155.045 Y177.789 E0.03272
G1 X154.853 Y177.307 E0.01626
G1 X154.682 Y176.818 E0.01626
G1 X154.400 Y175.813 E0.03272
G1 X154.171 Y174.611 E0.03838
G1 X133.113 Y174.611 E0.66025
G1 X132.932 Y175.827 E0.03855
G1 X132.692 Y176.838 E0.03260
G1 X132.368 Y177.826 E0.03260
G1 X131.961 Y178.783 E0.03260
G1 X131.475 Y179.702 E0.03260
G1 X130.913 Y180.576 E0.03260
G1 X130.279 Y181.400 E0.03260
G1 X129.576 Y182.169 E0.03267
G1 X129.205 Y182.527 E0.01616
G1 X128.410 Y183.201 E0.03267
G1 X127.563 Y183.804 E0.03260
G1 X126.669 Y184.333 E0.03260
G1 X125.732 Y184.785 E0.03260
G1 X124.761 Y185.156 E0.03260
G1 X123.762 Y185.444 E0.03260
G1 X122.742 Y185.646 E0.03260
G1 X121.709 Y185.761 E0.03260
G1 X120.670 Y185.789 E0.03260
G1 X119.632 Y185.729 E0.03260
G1 X118.603 Y185.581 E0.03260
G1 X117.590 Y185.346 E0.03260
G1 X116.601 Y185.027 E0.03260
G1 X115.642 Y184.626 E0.03260
G1 X114.720 Y184.144 E0.03260
G1 X113.842 Y183.587 E0.03260
G1 X113.015 Y182.958 E0.03260
G1 X112.244 Y182.260 E0.03260
G1 X111.534 Y181.500 E0.03260
G1 X110.892 Y180.683 E0.03260
G1 X110.320 Y179.815 E0.03260
G1 X109.824 Y178.901 E0.03260
G1 X109.407 Y177.949 E0.03260
G1 X109.072 Y176.962 E0.03267
G1 X108.937 Y176.465 E0.01616
G1 X108.729 Y175.444 E0.03267
G1 X108.608 Y174.409 E0.03267
G1 X108.580 Y173.892 E0.01623
G1 X108.575 Y173.375 E0.01623
G1 X108.630 Y172.334 E0.03267
G1 X108.772 Y171.302 E0.03267
G1 X108.875 Y170.797 E0.01616
G1 X109.147 Y169.791 E0.03267
G1 X109.504 Y168.812 E0.03267
G1 X109.710 Y168.340 E0.01616
G1 X110.187 Y167.414 E0.03267
G1 X110.740 Y166.533 E0.03260
G1 X111.365 Y165.703 E0.03260
G1 X112.060 Y164.926 E0.03267
G1 X112.429 Y164.563 E0.01623
G1 X112.812 Y164.216 E0.01623
G1 X113.628 Y163.567 E0.03267
G1 X114.493 Y162.991 E0.03260
G1 X115.406 Y162.489 E0.03267
G1 X115.873 Y162.270 E0.01616
G1 X116.842 Y161.888 E0.03267
G1 X117.838 Y161.589 E0.03260
G1 X118.858 Y161.376 E0.03267
G1 X119.555 Y161.275 E0.02208
G1 X119.555 Y48.730 E3.52878
G1 X118.339 Y48.528 E0.03863
G1 X117.835 Y48.411 E0.01623
G1 X117.083 Y48.191 E0.02457
G1 X116.344 Y47.929 E0.02457
G1 X115.867 Y47.729 E0.01623
