; generated by PrusaSlicer 2.1.0+win64 on 2019-11-08 at 17:08:20 UTC

; 

; external perimeters extrusion width = 0.60mm
; perimeters extrusion width = 0.43mm
; infill extrusion width = 0.45mm
; solid infill extrusion width = 0.70mm
; top infill extrusion width = 0.43mm
; first layer extrusion width = 0.42mm

M73 P0 R251
M201 X9000 Y9000 Z500 E10000 ; sets maximum accelerations, mm/sec^2
M203 X500 Y500 Z12 E120 ; sets maximum feedrates, mm/sec
M204 P2000 R1500 T2000 ; sets acceleration (P, T) and retract acceleration (R), mm/sec^2
M205 X10.00 Y10.00 Z0.20 E2.50 ; sets the jerk limits, mm/sec
M205 S0 T0 ; sets the minimum extruding and travel feed rate, mm/sec
M107
M862.3 P "MK2SMM" ; printer model check
M862.1 P0.4 ; nozzle diameter check
M115 U3.2.3 ; tell printer latest fw version
M204 S2000 T1500 ; MK2 firmware only supports the old M204 format
; Start G-Code sequence START
T3
M104 S230 ; set extruder temp
M140 S40 ; set bed temp
M190 S40 ; wait for bed temp
M109 S230 ; wait for extruder temp
G21 ; set units to millimeters
G90 ; use absolute coordinates
M83 ; use relative distances for extrusion
G28 W
G80
G92 E0.0
M203 E100 ; set max feedrate
M92 E140 ; E-steps per filament milimeter

G1 Z0.250 F7200.000
G1 X50.0 E80.0 F1000.0
M73 P0 R251
G1 X160.0 E20.0 F1000.0
G1 Z0.200 F7200.000
G1 X220.0 E13 F1000.0
G1 X240.0 E0 F1000.0

G92 E0.0
G21 ; set units to millimeters
G90 ; use absolute coordinates
M83 ; use relative distances for extrusion
T3
M900 K200 ; Filament gcode
;BEFORE_LAYER_CHANGE
G92 E0.0
;0.2


G1 Z0.200 F10800.000
;AFTER_LAYER_CHANGE
;0.2
G1 E-4.00000 F4800.00000
G1 Z0.800 F10800.000
G1 X48.730 Y31.173
G1 Z0.200
G1 E4.00000 F3000.00000
M204 S1000
G1 F1200
G1 X49.706 Y30.501 E0.03714
G1 X50.810 Y30.072 E0.03714
G1 X51.984 Y29.910 E0.03714
G1 X155.092 Y29.909 E3.23291
G1 X196.809 Y33.609 E1.31312
G1 X197.516 Y33.786 E0.02288
G1 X198.186 Y34.060 E0.02270
G1 X198.811 Y34.427 E0.02270
G1 X199.377 Y34.878 E0.02270
G1 X200.954 Y36.660 E0.07460
G1 X201.365 Y37.342 E0.02497
G1 X201.665 Y38.079 E0.02497
G1 X201.902 Y39.442 E0.04338
G1 X203.004 Y76.395 E1.15915
G1 X203.003 Y174.453 E3.07452
G1 X202.938 Y175.224 E0.02427
G1 X202.756 Y175.976 E0.02427
G1 X202.462 Y176.692 E0.02427
G1 X202.063 Y177.356 E0.02427
G1 X201.307 Y178.202 E0.03558
G1 X200.383 Y178.859 E0.03558
G1 X199.335 Y179.296 E0.03558
G1 X198.211 Y179.490 E0.03575
G1 X155.146 Y180.090 E1.35041
G1 X52.042 Y180.090 E3.23275
G1 X51.271 Y180.025 E0.02427
G1 X50.519 Y179.843 E0.02427
G1 X49.803 Y179.549 E0.02427
G1 X49.139 Y179.150 E0.02427
G1 X48.252 Y178.348 E0.03749
G1 X47.575 Y177.357 E0.03766
G1 X47.148 Y176.234 E0.03766
G1 X46.997 Y175.042 E0.03766
G1 X46.996 Y34.967 E4.39197
G1 X47.061 Y34.190 E0.02444
G1 X47.242 Y33.437 E0.02427
G1 X47.535 Y32.721 E0.02427
G1 X47.937 Y32.052 E0.02444
G1 X48.690 Y31.217 E0.03526
G1 E-2.40000 F4800.00000
G1 F8640
G1 X49.706 Y30.501 E-0.65605
G1 X50.810 Y30.072 E-0.62520
G1 X51.258 Y30.010 E-0.23875
G1 E-0.08000 F4800.00000
G1 Z0.800 F10800.000
G1 X201.236 Y73.099
G1 Z0.200
G1 E4.00000 F3000.00000
G1 F1200
G1 X201.668 Y73.524 E0.01901
G1 X202.226 Y74.422 E0.03317
G1 X202.627 Y75.897 E0.04789
G1 X202.627 Y174.806 E3.10124
G1 X202.534 Y175.527 E0.02280
G1 X201.963 Y176.878 E0.04597
G1 X200.981 Y178.010 E0.04699
G1 X199.797 Y178.765 E0.04403
G1 X198.423 Y179.121 E0.04451
G1 X169.159 Y179.121 E0.91756
G1 X168.351 Y179.019 E0.02552
G1 X166.378 Y178.039 E0.06909
G1 X163.352 Y175.013 E0.13416
G1 X162.572 Y173.751 E0.04653
G1 X162.200 Y172.285 E0.04742
G1 X162.200 Y78.635 E2.93634
G1 X162.446 Y77.396 E0.03961
G1 X163.115 Y76.104 E0.04561
G1 X164.548 Y74.620 E0.06466
G1 X163.983 Y73.813 E0.03090
G1 X163.437 Y72.077 E0.05707
G1 X163.491 Y55.559 E0.51790
G1 X163.749 Y54.681 E0.02871
G1 X164.146 Y53.903 E0.02738
G1 X165.057 Y52.879 E0.04297
G1 X166.123 Y52.165 E0.04024
G1 X167.615 Y51.742 E0.04863
G1 X197.270 Y51.746 E0.92981
G1 X198.218 Y51.929 E0.03028
G1 X199.127 Y52.320 E0.03101
G1 X200.343 Y53.342 E0.04982
G1 X201.054 Y54.383 E0.03951
G1 X201.450 Y55.610 E0.04045
G1 X201.497 Y72.046 E0.51532
M73 P0 R250
G1 X201.250 Y73.041 E0.03214
G1 X200.816 Y73.219 F10800.000
G1 F1200
G1 X201.361 Y73.743 E0.02372
G1 X201.891 Y74.598 E0.03153
G1 X202.250 Y75.921 E0.04299
G1 X202.250 Y174.794 E3.10007
G1 X202.163 Y175.452 E0.02082
G1 X201.628 Y176.701 E0.04260
G1 X200.717 Y177.741 E0.04336
G1 X199.622 Y178.430 E0.04057
G1 X198.400 Y178.744 E0.03957
G1 X169.171 Y178.744 E0.91644
G1 X168.431 Y178.649 E0.02340
G1 X166.623 Y177.750 E0.06330
G1 X163.635 Y174.762 E0.13249
G1 X162.909 Y173.578 E0.04355
G1 X162.577 Y172.262 E0.04257
G1 X162.577 Y78.652 E2.93505
G1 X162.794 Y77.545 E0.03539
G1 X163.437 Y76.302 E0.04388
G1 X165.095 Y74.600 E0.07449
G1 X164.773 Y74.284 E0.01414
G1 X164.332 Y73.669 E0.02373
G1 X163.814 Y72.048 E0.05336
G1 X163.860 Y55.640 E0.51446
G1 X164.106 Y54.805 E0.02730
G1 X164.470 Y54.098 E0.02494
G1 X165.322 Y53.148 E0.03999
G1 X166.256 Y52.518 E0.03534
G1 X167.642 Y52.119 E0.04522
G1 X197.251 Y52.123 E0.92837
G1 X198.124 Y52.295 E0.02791
G1 X198.950 Y52.655 E0.02823
G1 X200.079 Y53.612 E0.04642
G1 X200.726 Y54.570 E0.03624
G1 X201.081 Y55.696 E0.03702
G1 X201.120 Y72.022 E0.51190
G1 X200.830 Y73.161 E0.03685
G1 X200.356 Y73.306 F10800.000
G1 F1200
G1 X201.054 Y73.964 E0.03009
G1 X201.556 Y74.773 E0.02987
G1 X201.872 Y75.946 E0.03809
G1 X201.872 Y174.781 E3.09890
G1 X201.793 Y175.376 E0.01881
G1 X201.295 Y176.522 E0.03920
G1 X200.453 Y177.470 E0.03975
G1 X199.497 Y178.073 E0.03542
G1 X198.375 Y178.367 E0.03639
G1 X169.183 Y178.367 E0.91527
G1 X168.511 Y178.279 E0.02127
G1 X166.868 Y177.462 E0.05754
G1 X163.917 Y174.511 E0.13085
G1 X163.267 Y173.456 E0.03885
G1 X162.954 Y172.238 E0.03946
G1 X162.954 Y78.670 E2.93375
G1 X163.141 Y77.694 E0.03117
G1 X163.759 Y76.501 E0.04212
G1 X165.632 Y74.592 E0.08386
G1 X165.066 Y74.047 E0.02465
G1 X164.681 Y73.522 E0.02041
G1 X164.191 Y72.018 E0.04959
G1 X164.230 Y55.721 E0.51100
G1 X164.463 Y54.929 E0.02587
G1 X164.793 Y54.294 E0.02245
G1 X165.586 Y53.418 E0.03704
G1 X166.392 Y52.872 E0.03052
G1 X167.670 Y52.496 E0.04176
G1 X197.232 Y52.500 E0.92691
G1 X198.029 Y52.661 E0.02550
G1 X198.772 Y52.988 E0.02545
G1 X199.813 Y53.881 E0.04302
G1 X200.397 Y54.756 E0.03297
G1 X200.713 Y55.780 E0.03361
G1 X200.743 Y71.998 E0.50852
G1 X200.459 Y73.092 E0.03542
G1 X200.382 Y73.252 E0.00557
G1 X199.881 Y73.381 F10800.000
G1 F1200
G1 X200.747 Y74.185 E0.03705
G1 X201.221 Y74.948 E0.02818
G1 X201.495 Y75.971 E0.03319
G1 X201.495 Y174.768 E3.09772
G1 X201.423 Y175.298 E0.01677
G1 X200.963 Y176.341 E0.03576
G1 X200.191 Y177.197 E0.03612
G1 X199.323 Y177.737 E0.03206
G1 X198.351 Y177.990 E0.03150
G1 X169.196 Y177.990 E0.91413
G1 X168.592 Y177.910 E0.01912
G1 X167.113 Y177.174 E0.05179
G1 X164.200 Y174.261 E0.12918
G1 X163.603 Y173.285 E0.03586
G1 X163.331 Y172.214 E0.03463
G1 X163.331 Y78.687 E2.93248
G1 X163.489 Y77.842 E0.02695
G1 X164.080 Y76.700 E0.04033
G1 X166.171 Y74.584 E0.09327
G1 X165.360 Y73.810 E0.03516
G1 X165.003 Y73.323 E0.01893
G1 X164.568 Y71.989 E0.04399
G1 X164.599 Y55.801 E0.50755
G1 X164.819 Y55.054 E0.02443
G1 X165.115 Y54.492 E0.01992
G1 X165.849 Y53.689 E0.03412
G1 X166.529 Y53.224 E0.02581
G1 X167.698 Y52.873 E0.03826
G1 X197.212 Y52.877 E0.92541
G1 X197.932 Y53.025 E0.02304
G1 X198.592 Y53.320 E0.02266
G1 X199.546 Y54.148 E0.03960
G1 X200.066 Y54.939 E0.02968
G1 X200.344 Y55.861 E0.03021
G1 X200.366 Y71.974 E0.50518
G1 X200.101 Y72.969 E0.03231
G1 X199.909 Y73.328 E0.01276
G1 X199.371 Y73.519 F10800.000
G1 F1200
G1 X199.632 Y73.665 E0.00938
G1 X200.471 Y74.443 E0.03588
G1 X200.885 Y75.121 E0.02489
G1 X201.118 Y75.995 E0.02837
G1 X201.118 Y174.755 E3.09654
G1 X201.054 Y175.219 E0.01468
G1 X200.632 Y176.158 E0.03230
G1 X199.931 Y176.923 E0.03252
G1 X199.198 Y177.381 E0.02709
G1 X198.326 Y177.613 E0.02831
G1 X169.209 Y177.613 E0.91293
G1 X168.673 Y177.540 E0.01695
G1 X167.358 Y176.886 E0.04607
G1 X164.482 Y174.009 E0.12754
G1 X163.961 Y173.162 E0.03119
G1 X163.708 Y172.190 E0.03149
G1 X163.708 Y78.703 E2.93120
M73 P0 R249
G1 X163.837 Y77.990 E0.02273
G1 X164.402 Y76.899 E0.03852
G1 X166.802 Y74.486 E0.10672
G1 X166.307 Y74.192 E0.01804
G1 X165.633 Y73.549 E0.02921
G1 X165.325 Y73.126 E0.01641
G1 X164.945 Y71.959 E0.03846
G1 X164.968 Y55.882 E0.50410
G1 X165.175 Y55.179 E0.02296
G1 X165.435 Y54.691 E0.01734
G1 X166.112 Y53.960 E0.03124
G1 X166.668 Y53.575 E0.02120
G1 X167.726 Y53.250 E0.03471
G1 X197.193 Y53.254 E0.92391
G1 X197.797 Y53.378 E0.01932
G1 X198.411 Y53.653 E0.02110
G1 X199.277 Y54.413 E0.03612
G1 X199.734 Y55.119 E0.02639
G1 X199.974 Y55.941 E0.02683
G1 X199.989 Y71.948 E0.50189
G1 X199.744 Y72.846 E0.02920
G1 X199.400 Y73.466 E0.02223
G1 X198.693 Y73.624 F10800.000
G1 F1200
G1 X199.403 Y73.966 E0.02471
G1 X200.166 Y74.665 E0.03247
G1 X200.529 Y75.248 E0.02154
G1 X200.741 Y76.021 E0.02512
G1 X200.741 Y174.741 E3.09529
G1 X200.685 Y175.137 E0.01256
G1 X200.302 Y175.972 E0.02879
G1 X199.673 Y176.648 E0.02895
G1 X199.071 Y177.025 E0.02226
G1 X198.300 Y177.236 E0.02508
G1 X169.223 Y177.236 E0.91170
G1 X168.756 Y177.171 E0.01477
G1 X167.603 Y176.597 E0.04038
G1 X164.764 Y173.758 E0.12590
G1 X164.318 Y173.037 E0.02658
G1 X164.085 Y172.165 E0.02831
G1 X164.085 Y78.719 E2.92993
G1 X164.186 Y78.137 E0.01851
G1 X164.723 Y77.098 E0.03667
G1 X167.511 Y74.311 E0.12361
G1 X166.962 Y74.139 E0.01802
G1 X166.550 Y73.903 E0.01491
G1 X165.906 Y73.289 E0.02788
G1 X165.649 Y72.930 E0.01386
G1 X165.322 Y71.930 E0.03298
G1 X165.338 Y55.962 E0.50065
G1 X165.531 Y55.305 E0.02147
G1 X165.755 Y54.893 E0.01470
G1 X166.374 Y54.232 E0.02841
G1 X166.810 Y53.926 E0.01672
G1 X167.756 Y53.627 E0.03109
G1 X197.173 Y53.631 E0.92234
G1 X197.697 Y53.742 E0.01681
G1 X198.228 Y53.984 E0.01829
G1 X199.005 Y54.676 E0.03263
G1 X199.400 Y55.297 E0.02309
G1 X199.604 Y56.018 E0.02348
G1 X199.612 Y71.922 E0.49865
G1 X199.387 Y72.723 E0.02609
G1 X199.180 Y73.097 E0.01342
G1 X198.733 Y73.580 E0.02060
G1 X197.702 Y73.937 F10800.000
G1 F1200
G1 X198.319 Y73.965 E0.01935
G1 X198.724 Y74.058 E0.01303
G1 X199.172 Y74.266 E0.01551
G1 X199.863 Y74.891 E0.02920
G1 X200.175 Y75.379 E0.01818
G1 X200.364 Y76.048 E0.02179
G1 X200.364 Y174.727 E3.09400
G1 X200.316 Y175.054 E0.01037
G1 X199.975 Y175.784 E0.02525
G1 X199.416 Y176.370 E0.02540
G1 X198.942 Y176.670 E0.01760
G1 X198.273 Y176.859 E0.02179
G1 X169.236 Y176.859 E0.91043
G1 X168.839 Y176.802 E0.01257
G1 X167.848 Y176.309 E0.03472
G1 X165.045 Y173.506 E0.12428
G1 X164.674 Y172.910 E0.02203
G1 X164.462 Y172.139 E0.02508
G1 X164.462 Y78.733 E2.92867
G1 X164.536 Y78.280 E0.01439
G1 X165.011 Y77.343 E0.03294
G1 X167.816 Y74.539 E0.12435
G1 X168.252 Y74.258 E0.01626
G1 X168.176 Y73.990 E0.00873
G1 X167.740 Y73.979 E0.01367
G1 X167.129 Y73.799 E0.01998
G1 X166.757 Y73.587 E0.01343
G1 X166.198 Y73.050 E0.02431
G1 X165.995 Y72.779 E0.01061
G1 X165.699 Y71.898 E0.02912
G1 X165.707 Y56.043 E0.49714
G1 X165.887 Y55.433 E0.01995
G1 X166.072 Y55.098 E0.01199
G1 X166.635 Y54.504 E0.02567
G1 X166.956 Y54.275 E0.01237
G1 X167.786 Y54.004 E0.02738
G1 X197.152 Y54.008 E0.92072
G1 X197.595 Y54.106 E0.01423
G1 X198.043 Y54.313 E0.01548
G1 X198.733 Y54.938 E0.02920
G1 X199.045 Y55.427 E0.01818
G1 X199.234 Y56.095 E0.02179
G1 X199.234 Y71.895 E0.49540
G1 X199.047 Y72.559 E0.02162
G1 X198.862 Y72.893 E0.01196
G1 X198.297 Y73.488 E0.02574
G1 X197.750 Y73.901 E0.02149
G1 X197.116 Y73.609 F10800.000
G1 F1200
G1 X167.818 Y73.609 E0.91859
G1 X167.256 Y73.444 E0.01838
G1 X167.001 Y73.299 E0.00919
G1 X166.471 Y72.789 E0.02305
G1 X166.317 Y72.579 E0.00819
G1 X166.076 Y71.868 E0.02355
G1 X166.076 Y56.123 E0.49365
G1 X166.242 Y55.561 E0.01838
G1 X166.387 Y55.306 E0.00919
G1 X166.896 Y54.776 E0.02305
G1 X167.107 Y54.621 E0.00819
G1 X167.818 Y54.381 E0.02355
G1 X197.129 Y54.385 E0.91902
G1 X197.489 Y54.468 E0.01157
G1 X197.854 Y54.641 E0.01268
G1 X198.460 Y55.198 E0.02580
G1 X198.692 Y55.560 E0.01347
G1 X198.857 Y56.123 E0.01841
G1 X198.857 Y71.867 E0.49364
G1 X198.692 Y72.430 E0.01838
G1 X198.547 Y72.684 E0.00919
G1 X198.037 Y73.214 E0.02305
G1 X197.827 Y73.369 E0.00819
G1 X197.173 Y73.590 E0.02166
G1 X197.630 Y73.047 F10800.000
G1 F1200
G1 X197.085 Y73.232 E0.01806
G1 X167.848 Y73.232 E0.91669
G1 X167.391 Y73.091 E0.01500
G1 X167.214 Y72.987 E0.00643
G1 X166.747 Y72.532 E0.02044
G1 X166.639 Y72.382 E0.00580
G1 X166.454 Y71.836 E0.01806
G1 X166.454 Y56.153 E0.49174
G1 X166.595 Y55.696 E0.01500
G1 X166.699 Y55.519 E0.00643
G1 X167.154 Y55.052 E0.02044
G1 X167.304 Y54.944 E0.00580
G1 X167.849 Y54.758 E0.01806
G1 X197.107 Y54.762 E0.91737
G1 X197.346 Y54.817 E0.00767
G1 X197.666 Y54.969 E0.01109
G1 X198.184 Y55.457 E0.02233
G1 X198.340 Y55.697 E0.00898
G1 X198.480 Y56.153 E0.01495
G1 X198.480 Y71.838 E0.49178
G1 X198.339 Y72.295 E0.01500
G1 X198.235 Y72.472 E0.00643
G1 X197.780 Y72.938 E0.02044
G1 X197.678 Y73.012 E0.00392
G1 X197.435 Y72.723 F10800.000
G1 F1200
G1 X197.053 Y72.855 E0.01270
G1 X167.880 Y72.855 E0.91470
G1 X167.533 Y72.741 E0.01144
G1 X167.433 Y72.679 E0.00371
G1 X167.026 Y72.277 E0.01795
G1 X166.963 Y72.187 E0.00343
G1 X166.831 Y71.805 E0.01270
G1 X166.831 Y56.185 E0.48975
G1 X166.944 Y55.838 E0.01144
G1 X167.007 Y55.738 E0.00371
G1 X167.409 Y55.330 E0.01795
G1 X167.498 Y55.268 E0.00343
G1 X167.881 Y55.136 E0.01270
G1 X197.085 Y55.139 E0.91568
G1 X197.202 Y55.167 E0.00377
G1 X197.475 Y55.296 E0.00947
G1 X197.907 Y55.713 E0.01880
G1 X197.990 Y55.840 E0.00479
G1 X198.103 Y56.185 E0.01136
G1 X198.103 Y71.806 E0.48980
G1 X197.989 Y72.153 E0.01144
G1 X197.927 Y72.253 E0.00371
G1 X197.485 Y72.689 E0.01947
G1 X197.246 Y72.397 F10800.000
G1 F1200
G1 X197.019 Y72.478 E0.00757
G1 X167.915 Y72.478 E0.91254
G1 X167.687 Y72.397 E0.00757
G1 X167.307 Y72.025 E0.01666
G1 X167.208 Y71.771 E0.00856
G1 X167.208 Y56.220 E0.48760
G1 X167.289 Y55.992 E0.00757
G1 X167.660 Y55.612 E0.01666
G1 X167.915 Y55.513 E0.00856
G1 X197.033 Y55.513 E0.91299
G1 X197.283 Y55.622 E0.00856
G1 X197.627 Y55.965 E0.01522
G1 X197.726 Y56.220 E0.00856
G1 X197.726 Y71.771 E0.48760
G1 X197.627 Y72.025 E0.00856
G1 X197.293 Y72.359 E0.01480
G1 X197.046 Y72.072 F10800.000
G1 F1200
G1 X196.977 Y72.101 E0.00235
G1 X167.957 Y72.101 E0.90992
G1 X167.887 Y72.072 E0.00235
G1 X167.613 Y71.798 E0.01215
G1 X167.585 Y71.729 E0.00235
G1 X167.585 Y56.262 E0.48497
G1 X167.613 Y56.192 E0.00235
G1 X167.887 Y55.918 E0.01215
G1 X167.957 Y55.890 E0.00235
G1 X196.977 Y55.890 E0.90992
G1 X197.046 Y55.918 E0.00235
G1 X197.320 Y56.192 E0.01215
G1 X197.349 Y56.262 E0.00235
G1 X197.349 Y71.729 E0.48497
G1 X197.320 Y71.798 E0.00235
G1 X197.089 Y72.030 E0.01027
G1 X196.862 Y71.724 F10800.000
G1 F1200
G1 X168.072 Y71.724 E0.90267
M73 P1 R247
G1 X167.962 Y71.613 E0.00490
G1 X167.962 Y56.377 E0.47772
G1 X168.072 Y56.267 E0.00490
G1 X196.862 Y56.267 E0.90267
G1 X196.972 Y56.377 E0.00490
G1 X196.972 Y71.613 E0.47772
G1 X196.904 Y71.681 E0.00302
G1 E-2.40000 F4800.00000
G1 F8640
G1 X194.024 Y71.686 E-1.52000
G1 E-0.08000 F4800.00000
G1 Z0.800 F10800.000
G1 X198.984 Y74.593
G1 Z0.200
G1 E4.00000 F3000.00000
G1 F1200
G1 X199.589 Y75.151 E0.02580
G1 X199.821 Y75.513 E0.01347
G1 X199.987 Y76.076 E0.01841
G1 X199.987 Y174.712 E3.09266
G1 X199.948 Y174.968 E0.00812
G1 X199.649 Y175.591 E0.02167
G1 X199.162 Y176.091 E0.02188
G1 X198.809 Y176.316 E0.01314
G1 X198.245 Y176.482 E0.01842
G1 X169.250 Y176.482 E0.90910
G1 X168.924 Y176.434 E0.01034
G1 X168.093 Y176.021 E0.02911
G1 X165.326 Y173.254 E0.12267
G1 X165.029 Y172.780 E0.01755
G1 X164.839 Y172.112 E0.02179
G1 X164.839 Y78.745 E2.92744
G1 X164.887 Y78.419 E0.01034
G1 X165.300 Y77.588 E0.02911
G1 X168.067 Y74.821 E0.12267
G1 X168.541 Y74.523 E0.01755
G1 X169.209 Y74.334 E0.02179
G1 X198.259 Y74.338 E0.91082
G1 X198.618 Y74.421 E0.01157
G1 X198.930 Y74.568 E0.01080
G1 E-2.40000 F4800.00000
G1 F8640
G1 X199.589 Y75.151 E-0.46461
G1 X199.821 Y75.513 E-0.22672
G1 X199.987 Y76.076 E-0.30997
G1 X199.987 Y77.059 E-0.51869
G1 E-0.08000 F4800.00000
G1 Z0.800 F10800.000
G1 X199.580 Y174.878
G1 Z0.200
G1 E4.00000 F3000.00000
G1 F1200
G1 X199.326 Y175.395 E0.01806
G1 X198.911 Y175.810 E0.01841
G1 X198.671 Y175.964 E0.00892
