; generated by PrusaSlicer 2.1.0+win64 on 2019-11-15 at 18:54:07 UTC

; 

; external perimeters extrusion width = 0.60mm
; perimeters extrusion width = 0.43mm
; infill extrusion width = 0.45mm
; solid infill extrusion width = 0.70mm
; top infill extrusion width = 0.43mm
; first layer extrusion width = 0.42mm

M73 P0 R241
M201 X9000 Y9000 Z500 E10000 ; sets maximum accelerations, mm/sec^2
M203 X500 Y500 Z12 E120 ; sets maximum feedrates, mm/sec
M204 P2000 R1500 T2000 ; sets acceleration (P, T) and retract acceleration (R), mm/sec^2
M205 X10.00 Y10.00 Z0.20 E2.50 ; sets the jerk limits, mm/sec
M205 S0 T0 ; sets the minimum extruding and travel feed rate, mm/sec
M107
M862.3 P "MK2SMM" ; printer model check
M862.1 P0.4 ; nozzle diameter check
M115 U3.2.3 ; tell printer latest fw version
M204 S2000 T1500 ; MK2 firmware only supports the old M204 format
; Start G-Code sequence START
T3
M104 S215 ; set extruder temp
M140 S60 ; set bed temp
M190 S60 ; wait for bed temp
M109 S215 ; wait for extruder temp
G21 ; set units to millimeters
G90 ; use absolute coordinates
M83 ; use relative distances for extrusion
G28 W
G80
G92 E0.0
M203 E100 ; set max feedrate
M92 E140 ; E-steps per filament milimeter

G1 Z0.250 F7200.000
G1 X50.0 E80.0 F1000.0
M73 P0 R241
G1 X160.0 E20.0 F1000.0
G1 Z0.200 F7200.000
G1 X220.0 E13 F1000.0
G1 X240.0 E0 F1000.0

G92 E0.0
G21 ; set units to millimeters
G90 ; use absolute coordinates
M83 ; use relative distances for extrusion
T3
M900 K200 ; Filament gcode
;BEFORE_LAYER_CHANGE
G92 E0.0
;0.2


G1 E-4.00000 F4800.00000
G1 Z0.600 F10800.000
;AFTER_LAYER_CHANGE
;0.2
G1 X38.336 Y37.348
G1 Z0.200
G1 E4.00000 F3000.00000
M204 S1000
G1 F1200
G1 X38.818 Y36.640 E0.02687
G1 X39.275 Y36.296 E0.01794
G1 X39.803 Y36.083 E0.01783
G1 X93.422 Y22.294 E1.73590
G1 X94.622 Y22.032 E0.03852
G1 X95.849 Y21.870 E0.03880
G1 X97.113 Y21.813 E0.03966
G1 X197.190 Y21.813 E3.13786
G1 X198.445 Y21.870 E0.03938
G1 X199.724 Y22.041 E0.04046
G1 X201.457 Y22.459 E0.05590
G1 X202.671 Y22.890 E0.04041
G1 X203.813 Y23.411 E0.03938
G1 X204.932 Y24.044 E0.04029
G1 X205.966 Y24.753 E0.03931
G1 X207.324 Y25.908 E0.05590
G1 X208.214 Y26.840 E0.04040
G1 X208.996 Y27.818 E0.03926
G1 X209.693 Y28.858 E0.03926
G1 X210.315 Y29.989 E0.04046
G1 X211.006 Y31.628 E0.05578
G1 X211.371 Y32.830 E0.03937
G1 X211.639 Y34.090 E0.04041
G1 X211.794 Y35.366 E0.04029
G1 X211.832 Y173.924 E4.34438
G1 X211.739 Y175.202 E0.04017
G1 X211.427 Y176.948 E0.05561
G1 X211.072 Y178.183 E0.04029
G1 X210.626 Y179.345 E0.03904
G1 X210.065 Y180.497 E0.04017
G1 X209.127 Y182.002 E0.05561
G1 X208.339 Y183.017 E0.04029
G1 X207.485 Y183.938 E0.03937
G1 X206.541 Y184.795 E0.03998
G1 X205.115 Y185.842 E0.05546
G1 X204.006 Y186.491 E0.04029
G1 X202.885 Y187.024 E0.03892
G1 X201.720 Y187.461 E0.03903
G1 X200.486 Y187.806 E0.04018
G1 X198.737 Y188.103 E0.05561
G1 X197.492 Y188.186 E0.03914
G1 X96.254 Y188.162 E3.17424
G1 X94.998 Y188.031 E0.03960
G1 X93.803 Y187.804 E0.03811
G1 X41.849 Y176.121 E1.66968
G1 X41.267 Y175.898 E0.01953
G1 X40.775 Y175.522 E0.01942
G1 X39.599 Y174.156 E0.05651
G1 X39.369 Y173.668 E0.01692
G1 X39.266 Y173.135 E0.01703
G1 X38.162 Y136.235 E1.15750
G1 X38.162 Y38.188 E3.07420
G1 X38.324 Y37.407 E0.02499
G1 E-2.40000 F4800.00000
G1 F8640
G1 X38.818 Y36.640 E-0.48168
G1 X39.275 Y36.296 E-0.30198
G1 X39.803 Y36.083 E-0.30006
G1 X40.603 Y35.877 E-0.43628
G1 E-0.08000 F4800.00000
G1 Z0.800 F10800.000
G1 X109.052 Y35.489
G1 Z0.200
G1 E4.00000 F3000.00000
G1 F1200
G1 X185.247 Y35.489 E2.38903
G1 X185.507 Y33.979 E0.04803
G1 X185.763 Y32.999 E0.03175
G1 X186.102 Y32.045 E0.03175
G1 X186.520 Y31.123 E0.03175
G1 X187.015 Y30.240 E0.03175
G1 X187.587 Y29.397 E0.03194
G1 X187.890 Y29.006 E0.01549
G1 X188.564 Y28.243 E0.03194
G1 X189.297 Y27.544 E0.03175
G1 X190.086 Y26.909 E0.03175
G1 X190.926 Y26.344 E0.03175
G1 X191.816 Y25.849 E0.03194
G1 X192.263 Y25.637 E0.01549
G1 X193.209 Y25.260 E0.03194
G1 X194.178 Y24.966 E0.03175
G1 X195.168 Y24.755 E0.03175
G1 X196.179 Y24.628 E0.03194
G1 X196.674 Y24.598 E0.01555
G1 X197.438 Y24.595 E0.02394
G1 X198.200 Y24.635 E0.02394
G1 X198.693 Y24.689 E0.01555
G1 X199.697 Y24.864 E0.03194
G1 X200.676 Y25.123 E0.03175
G1 X201.635 Y25.466 E0.03194
G1 X202.089 Y25.661 E0.01549
G1 X202.997 Y26.123 E0.03194
G1 X203.857 Y26.657 E0.03175
G1 X204.669 Y27.262 E0.03175
G1 X205.426 Y27.934 E0.03175
G1 X206.124 Y28.668 E0.03175
G1 X206.757 Y29.458 E0.03175
G1 X207.320 Y30.300 E0.03175
G1 X207.810 Y31.186 E0.03175
G1 X208.226 Y32.116 E0.03194
G1 X208.398 Y32.579 E0.01549
G1 X208.692 Y33.554 E0.03194
G1 X208.900 Y34.545 E0.03175
G1 X209.024 Y35.550 E0.03175
G1 X209.062 Y36.564 E0.03181
G1 X209.031 Y37.321 E0.02375
G1 X208.958 Y38.075 E0.02375
G1 X208.781 Y39.074 E0.03181
G1 X208.520 Y40.052 E0.03175
G1 X208.178 Y41.005 E0.03175
G1 X207.755 Y41.925 E0.03175
G1 X207.256 Y42.806 E0.03175
G1 X206.681 Y43.647 E0.03194
G1 X206.377 Y44.036 E0.01549
G1 X205.699 Y44.797 E0.03194
G1 X204.959 Y45.497 E0.03194
G1 X204.579 Y45.813 E0.01549
G1 X203.756 Y46.414 E0.03194
G1 X202.891 Y46.939 E0.03175
G1 X201.984 Y47.389 E0.03175
G1 X201.036 Y47.762 E0.03194
G1 X200.566 Y47.914 E0.01549
G1 X199.578 Y48.164 E0.03194
G1 X198.062 Y48.412 E0.04816
G1 X198.062 Y161.590 E3.54861
G1 X199.578 Y161.839 E0.04817
G1 X200.542 Y162.082 E0.03117
G1 X201.500 Y162.412 E0.03176
G1 X202.426 Y162.821 E0.03176
G1 X202.862 Y163.048 E0.01540
G1 X203.734 Y163.574 E0.03195
G1 X204.143 Y163.858 E0.01559
G1 X204.539 Y164.158 E0.01559
G1 X205.311 Y164.824 E0.03195
G1 X205.662 Y165.167 E0.01540
G1 X206.343 Y165.925 E0.03195
G1 X206.647 Y166.311 E0.01540
G1 X207.227 Y167.149 E0.03195
G1 X207.480 Y167.569 E0.01540
G1 X207.949 Y168.474 E0.03195
G1 X208.147 Y168.923 E0.01540
G1 X208.498 Y169.880 E0.03195
G1 X208.638 Y170.351 E0.01540
G1 X208.865 Y171.344 E0.03195
G1 X208.944 Y171.829 E0.01539
G1 X209.043 Y172.836 E0.03176
G1 X209.057 Y173.849 E0.03176
G1 X209.032 Y174.346 E0.01559
G1 X208.986 Y174.841 E0.01559
G1 X208.829 Y175.848 E0.03195
G1 X208.722 Y176.327 E0.01540
G1 X208.438 Y177.306 E0.03195
G1 X208.272 Y177.768 E0.01540
G1 X207.869 Y178.697 E0.03176
G1 X207.389 Y179.589 E0.03176
G1 X206.846 Y180.421 E0.03117
G1 X206.223 Y181.220 E0.03176
G1 X205.535 Y181.963 E0.03176
G1 X204.800 Y182.633 E0.03117
G1 X203.996 Y183.249 E0.03176
G1 X203.144 Y183.796 E0.03176
G1 X202.714 Y184.034 E0.01539
G1 X201.794 Y184.471 E0.03195
G1 X201.332 Y184.656 E0.01559
G1 X200.863 Y184.820 E0.01559
G1 X199.888 Y185.095 E0.03176
G1 X198.893 Y185.286 E0.03176
G1 X198.406 Y185.347 E0.01540
G1 X197.395 Y185.411 E0.03176
M73 P0 R240
G1 X196.389 Y185.389 E0.03156
G1 X195.388 Y185.283 E0.03156
G1 X194.394 Y185.091 E0.03176
G1 X193.918 Y184.967 E0.01540
G1 X192.956 Y184.651 E0.03176
G1 X192.030 Y184.257 E0.03156
G1 X191.140 Y183.787 E0.03156
G1 X190.293 Y183.243 E0.03156
G1 X189.495 Y182.629 E0.03156
G1 X188.752 Y181.950 E0.03156
G1 X188.068 Y181.211 E0.03156
G1 X187.450 Y180.417 E0.03156
G1 X186.901 Y179.574 E0.03156
G1 X186.425 Y178.687 E0.03156
G1 X186.025 Y177.763 E0.03156
G1 X185.705 Y176.808 E0.03156
G1 X185.467 Y175.830 E0.03156
G1 X185.231 Y174.314 E0.04810
G1 X109.068 Y174.314 E2.38803
G1 X108.831 Y175.836 E0.04830
G1 X108.725 Y176.316 E0.01540
G1 X108.442 Y177.295 E0.03195
G1 X108.086 Y178.223 E0.03117
G1 X107.643 Y179.141 E0.03195
G1 X107.401 Y179.568 E0.01540
G1 X106.845 Y180.422 E0.03195
G1 X106.552 Y180.816 E0.01540
G1 X105.892 Y181.593 E0.03195
G1 X105.552 Y181.946 E0.01540
G1 X104.799 Y182.633 E0.03195
G1 X104.416 Y182.941 E0.01540
G1 X103.583 Y183.527 E0.03195
G1 X103.164 Y183.784 E0.01540
G1 X102.269 Y184.257 E0.03176
G1 X101.337 Y184.654 E0.03176
G1 X100.874 Y184.817 E0.01540
G1 X99.893 Y185.094 E0.03195
G1 X99.413 Y185.197 E0.01540
G1 X98.405 Y185.348 E0.03195
G1 X97.910 Y185.390 E0.01559
G1 X97.413 Y185.411 E0.01559
G1 X96.394 Y185.390 E0.03195
G1 X95.905 Y185.349 E0.01540
G1 X94.897 Y185.199 E0.03195
G1 X94.417 Y185.096 E0.01540
G1 X93.442 Y184.822 E0.03176
G1 X92.494 Y184.466 E0.03176
G1 X92.046 Y184.265 E0.01540
G1 X91.144 Y183.790 E0.03195
G1 X90.725 Y183.534 E0.01540
G1 X89.892 Y182.948 E0.03195
G1 X89.504 Y182.637 E0.01559
G1 X89.129 Y182.310 E0.01559
G1 X88.410 Y181.596 E0.03176
G1 X87.754 Y180.825 E0.03176
G1 X87.176 Y180.016 E0.03117
G1 X86.659 Y179.145 E0.03176
G1 X86.217 Y178.234 E0.03176
G1 X86.031 Y177.779 E0.01540
G1 X85.706 Y176.813 E0.03195
G1 X85.580 Y176.339 E0.01540
G1 X85.379 Y175.340 E0.03195
G1 X85.314 Y174.853 E0.01540
G1 X85.242 Y173.843 E0.03176
G1 X85.256 Y172.837 E0.03156
G1 X85.354 Y171.835 E0.03156
G1 X85.538 Y170.839 E0.03176
G1 X85.658 Y170.363 E0.01540
G1 X85.966 Y169.398 E0.03176
G1 X86.352 Y168.468 E0.03156
G1 X86.816 Y167.575 E0.03156
G1 X87.353 Y166.724 E0.03156
G1 X87.960 Y165.921 E0.03156
G1 X88.633 Y165.172 E0.03156
G1 X89.367 Y164.483 E0.03156
G1 X90.156 Y163.858 E0.03156
G1 X90.995 Y163.302 E0.03156
G1 X91.878 Y162.819 E0.03156
G1 X92.799 Y162.412 E0.03156
G1 X93.751 Y162.084 E0.03156
G1 X94.727 Y161.838 E0.03156
G1 X96.236 Y161.590 E0.04797
G1 X96.236 Y48.412 E3.54861
G1 X94.715 Y48.162 E0.04836
G1 X94.231 Y48.051 E0.01555
G1 X93.498 Y47.838 E0.02394
G1 X92.782 Y47.584 E0.02381
G1 X92.086 Y47.281 E0.02381
G1 X91.410 Y46.940 E0.02375
G1 X90.537 Y46.410 E0.03201
G1 X90.132 Y46.128 E0.01549
G1 X89.330 Y45.489 E0.03214
G1 X88.965 Y45.157 E0.01549
G1 X88.251 Y44.421 E0.03214
G1 X87.929 Y44.044 E0.01555
G1 X87.467 Y43.436 E0.02394
G1 X87.040 Y42.803 E0.02394
G1 X86.786 Y42.377 E0.01555
G1 X86.322 Y41.470 E0.03194
G1 X85.937 Y40.526 E0.03194
G1 X85.780 Y40.058 E0.01549
G1 X85.516 Y39.068 E0.03214
G1 X85.342 Y38.083 E0.03136
G1 X85.250 Y37.068 E0.03194
G1 X85.245 Y36.049 E0.03194
G1 X85.325 Y35.053 E0.03136
G1 X85.492 Y34.048 E0.03194
G1 X85.744 Y33.061 E0.03194
G1 X86.073 Y32.116 E0.03136
G1 X86.491 Y31.180 E0.03214
G1 X86.721 Y30.743 E0.01549
G1 X87.255 Y29.868 E0.03214
G1 X87.538 Y29.463 E0.01549
G1 X88.175 Y28.668 E0.03194
G1 X88.877 Y27.930 E0.03194
G1 X89.244 Y27.590 E0.01568
G1 X89.625 Y27.266 E0.01568
G1 X90.442 Y26.657 E0.03194
G1 X91.307 Y26.120 E0.03194
G1 X92.199 Y25.666 E0.03136
G1 X93.148 Y25.281 E0.03214
G1 X93.617 Y25.124 E0.01549
G1 X94.602 Y24.864 E0.03194
G1 X95.606 Y24.689 E0.03194
G1 X96.097 Y24.635 E0.01549
G1 X97.120 Y24.589 E0.03214
G1 X97.614 Y24.598 E0.01549
G1 X98.630 Y24.681 E0.03194
G1 X99.628 Y24.850 E0.03175
G1 X100.609 Y25.102 E0.03175
G1 X101.564 Y25.437 E0.03175
G1 X102.493 Y25.855 E0.03194
G1 X102.930 Y26.085 E0.01549
G1 X103.799 Y26.618 E0.03194
G1 X104.614 Y27.218 E0.03175
G1 X105.376 Y27.885 E0.03175
G1 X106.078 Y28.615 E0.03175
G1 X106.715 Y29.402 E0.03175
G1 X107.283 Y30.240 E0.03175
G1 X107.779 Y31.123 E0.03175
G1 X108.197 Y32.045 E0.03175
G1 X108.535 Y32.999 E0.03175
G1 X108.792 Y33.979 E0.03175
G1 X109.042 Y35.429 E0.04615
G1 X109.370 Y35.112 F10800.000
G1 F1200
G1 X184.929 Y35.112 E2.36911
G1 X185.138 Y33.899 E0.03858
G1 X185.403 Y32.888 E0.03275
G1 X185.752 Y31.904 E0.03275
G1 X186.183 Y30.953 E0.03275
G1 X186.694 Y30.041 E0.03275
G1 X187.282 Y29.175 E0.03282
G1 X187.599 Y28.766 E0.01624
G1 X188.292 Y27.981 E0.03282
G1 X189.048 Y27.260 E0.03275
G1 X189.862 Y26.605 E0.03275
G1 X190.729 Y26.022 E0.03275
G1 X191.644 Y25.514 E0.03282
G1 X192.112 Y25.291 E0.01624
G1 X193.084 Y24.903 E0.03282
G1 X194.084 Y24.600 E0.03275
G1 X195.105 Y24.383 E0.03275
G1 X196.144 Y24.253 E0.03282
G1 X196.662 Y24.221 E0.01626
G1 X197.447 Y24.218 E0.02461
G1 X198.231 Y24.259 E0.02461
G1 X198.746 Y24.316 E0.01626
G1 X199.777 Y24.496 E0.03282
G1 X200.788 Y24.762 E0.03275
G1 X201.773 Y25.114 E0.03282
G1 X202.249 Y25.319 E0.01624
G1 X203.182 Y25.794 E0.03282
G1 X204.070 Y26.345 E0.03275
G1 X204.907 Y26.969 E0.03275
G1 X205.689 Y27.663 E0.03275
G1 X206.408 Y28.420 E0.03275
G1 X207.061 Y29.235 E0.03275
G1 X207.642 Y30.103 E0.03275
G1 X208.148 Y31.017 E0.03275
G1 X208.575 Y31.973 E0.03282
G1 X208.755 Y32.459 E0.01624
G1 X209.057 Y33.461 E0.03282
G1 X209.272 Y34.483 E0.03275
G1 X209.400 Y35.520 E0.03275
G1 X209.439 Y36.565 E0.03278
G1 X209.407 Y37.347 E0.02454
G1 X209.331 Y38.126 E0.02454
G1 X209.149 Y39.155 E0.03278
G1 X208.881 Y40.165 E0.03275
G1 X208.527 Y41.148 E0.03275
G1 X208.091 Y42.097 E0.03275
G1 X207.577 Y43.006 E0.03275
G1 X206.985 Y43.870 E0.03282
G1 X206.666 Y44.278 E0.01624
G1 X205.970 Y45.059 E0.03282
G1 X205.209 Y45.779 E0.03282
G1 X204.811 Y46.110 E0.01624
G1 X203.966 Y46.728 E0.03282
G1 X203.073 Y47.270 E0.03275
G1 X202.137 Y47.734 E0.03275
G1 X201.163 Y48.117 E0.03282
G1 X200.670 Y48.276 E0.01624
G1 X199.655 Y48.533 E0.03282
G1 X198.439 Y48.733 E0.03862
G1 X198.439 Y161.270 E3.52853
G1 X199.651 Y161.469 E0.03850
G1 X200.654 Y161.722 E0.03242
G1 X201.638 Y162.060 E0.03263
G1 X202.590 Y162.481 E0.03263
G1 X203.047 Y162.719 E0.01615
G1 X203.940 Y163.258 E0.03270
G1 X204.365 Y163.552 E0.01621
G1 X204.777 Y163.865 E0.01621
G1 X205.566 Y164.546 E0.03270
G1 X205.934 Y164.906 E0.01615
G1 X206.631 Y165.682 E0.03270
G1 X206.950 Y166.086 E0.01615
G1 X207.544 Y166.944 E0.03270
G1 X207.809 Y167.385 E0.01614
G1 X208.289 Y168.311 E0.03270
G1 X208.497 Y168.782 E0.01615
G1 X208.856 Y169.761 E0.03270
G1 X209.003 Y170.255 E0.01614
G1 X209.235 Y171.272 E0.03270
G1 X209.318 Y171.780 E0.01614
G1 X209.420 Y172.815 E0.03263
G1 X209.434 Y173.856 E0.03263
G1 X209.408 Y174.373 E0.01622
G1 X209.361 Y174.888 E0.01621
G1 X209.199 Y175.918 E0.03270
G1 X209.088 Y176.421 E0.01614
G1 X208.797 Y177.422 E0.03270
G1 X208.623 Y177.907 E0.01615
G1 X208.209 Y178.862 E0.03263
G1 X207.716 Y179.778 E0.03263
G1 X207.151 Y180.644 E0.03242
G1 X206.510 Y181.465 E0.03263
G1 X205.803 Y182.228 E0.03263
G1 X205.039 Y182.925 E0.03242
G1 X204.213 Y183.558 E0.03263
G1 X203.337 Y184.120 E0.03263
G1 X202.887 Y184.370 E0.01614
G1 X201.945 Y184.817 E0.03270
G1 X201.464 Y185.009 E0.01621
G1 X200.976 Y185.180 E0.01621
G1 X199.975 Y185.462 E0.03263
G1 X198.953 Y185.658 E0.03263
G1 X198.442 Y185.723 E0.01615
G1 X197.403 Y185.788 E0.03263
G1 X196.365 Y185.766 E0.03256
G1 X195.332 Y185.656 E0.03256
G1 X194.310 Y185.459 E0.03263
G1 X193.812 Y185.329 E0.01614
G1 X192.823 Y185.005 E0.03263
G1 X191.868 Y184.598 E0.03256
G1 X190.950 Y184.113 E0.03256
G1 X190.076 Y183.551 E0.03256
G1 X189.253 Y182.918 E0.03256
G1 X188.486 Y182.218 E0.03256
G1 X187.781 Y181.456 E0.03256
G1 X187.143 Y180.636 E0.03256
G1 X186.576 Y179.766 E0.03256
G1 X186.085 Y178.851 E0.03256
G1 X185.673 Y177.898 E0.03256
G1 X185.343 Y176.913 E0.03256
G1 X185.097 Y175.904 E0.03256
G1 X184.908 Y174.692 E0.03848
G1 X109.391 Y174.692 E2.36778
G1 X109.202 Y175.906 E0.03855
G1 X109.090 Y176.409 E0.01615
G1 X108.801 Y177.411 E0.03270
G1 X108.431 Y178.377 E0.03242
G1 X107.977 Y179.316 E0.03270
G1 X107.724 Y179.764 E0.01615
G1 X107.155 Y180.638 E0.03270
G1 X106.847 Y181.051 E0.01614
G1 X106.172 Y181.846 E0.03270
G1 X105.815 Y182.217 E0.01615
G1 X105.045 Y182.920 E0.03270
G1 X104.643 Y183.242 E0.01615
G1 X103.790 Y183.843 E0.03270
G1 X103.351 Y184.112 E0.01615
G1 X102.431 Y184.598 E0.03263
G1 X101.473 Y185.005 E0.03263
G1 X100.988 Y185.176 E0.01615
G1 X99.984 Y185.460 E0.03270
G1 X99.481 Y185.568 E0.01615
G1 X98.449 Y185.722 E0.03270
G1 X97.934 Y185.766 E0.01621
G1 X97.417 Y185.788 E0.01621
G1 X96.374 Y185.767 E0.03270
G1 X95.861 Y185.724 E0.01615
G1 X94.830 Y185.570 E0.03270
G1 X94.326 Y185.463 E0.01615
G1 X93.324 Y185.181 E0.03263
G1 X92.350 Y184.815 E0.03263
G1 X91.880 Y184.604 E0.01615
G1 X90.958 Y184.118 E0.03270
G1 X90.519 Y183.849 E0.01615
G1 X89.665 Y183.250 E0.03270
G1 X89.262 Y182.926 E0.01621
G1 X88.872 Y182.586 E0.01621
G1 X88.133 Y181.853 E0.03263
G1 X87.459 Y181.060 E0.03263
G1 X86.858 Y180.219 E0.03242
G1 X86.326 Y179.324 E0.03263
G1 X85.873 Y178.387 E0.03263
G1 X85.678 Y177.911 E0.01615
G1 X85.345 Y176.922 E0.03270
G1 X85.212 Y176.425 E0.01615
G1 X85.007 Y175.402 E0.03270
G1 X84.938 Y174.892 E0.01615
G1 X84.865 Y173.854 E0.03263
G1 X84.879 Y172.815 E0.03256
G1 X84.980 Y171.782 E0.03256
G1 X85.169 Y170.759 E0.03263
G1 X85.295 Y170.259 E0.01615
G1 X85.612 Y169.268 E0.03263
G1 X86.010 Y168.309 E0.03256
G1 X86.488 Y167.387 E0.03256
G1 X87.043 Y166.509 E0.03256
G1 X87.669 Y165.680 E0.03256
G1 X88.363 Y164.908 E0.03256
