; generated by PrusaSlicer 2.1.0+win64 on 2019-11-15 at 18:52:18 UTC

; 

; external perimeters extrusion width = 0.60mm
; perimeters extrusion width = 0.43mm
; infill extrusion width = 0.45mm
; solid infill extrusion width = 0.70mm
; top infill extrusion width = 0.43mm
; first layer extrusion width = 0.42mm

M73 P0 R265
M201 X9000 Y9000 Z500 E10000 ; sets maximum accelerations, mm/sec^2
M203 X500 Y500 Z12 E120 ; sets maximum feedrates, mm/sec
M204 P2000 R1500 T2000 ; sets acceleration (P, T) and retract acceleration (R), mm/sec^2
M205 X10.00 Y10.00 Z0.20 E2.50 ; sets the jerk limits, mm/sec
M205 S0 T0 ; sets the minimum extruding and travel feed rate, mm/sec
M107
M862.3 P "MK2SMM" ; printer model check
M862.1 P0.4 ; nozzle diameter check
M115 U3.2.3 ; tell printer latest fw version
M204 S2000 T1500 ; MK2 firmware only supports the old M204 format
; Start G-Code sequence START
T2
M104 S215 ; set extruder temp
M140 S60 ; set bed temp
M190 S60 ; wait for bed temp
M109 S215 ; wait for extruder temp
G21 ; set units to millimeters
G90 ; use absolute coordinates
M83 ; use relative distances for extrusion
G28 W
G80
G92 E0.0
M203 E100 ; set max feedrate
M92 E140 ; E-steps per filament milimeter

G1 Z0.250 F7200.000
G1 X50.0 E80.0 F1000.0
M73 P0 R265
G1 X160.0 E20.0 F1000.0
G1 Z0.200 F7200.000
G1 X220.0 E13 F1000.0
G1 X240.0 E0 F1000.0

G92 E0.0
G21 ; set units to millimeters
G90 ; use absolute coordinates
M83 ; use relative distances for extrusion
T2
M900 K200 ; Filament gcode
;BEFORE_LAYER_CHANGE
G92 E0.0
;0.2


G1 E-4.00000 F4800.00000
G1 Z0.600 F10800.000
;AFTER_LAYER_CHANGE
;0.2
G1 X87.838 Y195.905
G1 Z0.200
G1 E4.00000 F3000.00000
M204 S1000
G1 F1200
G1 X87.071 Y195.644 E0.02541
G1 X63.249 Y182.001 E0.86074
G1 X61.815 Y180.881 E0.05707
G1 X60.861 Y179.955 E0.04168
G1 X59.698 Y178.556 E0.05704
G1 X58.699 Y176.991 E0.05822
G1 X57.905 Y175.313 E0.05821
G1 X57.339 Y173.583 E0.05707
G1 X57.063 Y172.282 E0.04168
G1 X56.877 Y170.444 E0.05795
G1 X56.867 Y28.836 E4.44000
G1 X57.072 Y26.437 E0.07550
G1 X57.513 Y24.577 E0.05994
G1 X57.925 Y23.412 E0.03875
G1 X58.417 Y22.318 E0.03761
G1 X59.389 Y20.655 E0.06040
G1 X60.518 Y19.194 E0.05788
G1 X61.802 Y17.904 E0.05708
G1 X62.836 Y17.066 E0.04173
G1 X64.369 Y16.076 E0.05720
G1 X66.009 Y15.286 E0.05708
G1 X67.264 Y14.839 E0.04177
G1 X69.033 Y14.416 E0.05704
G1 X70.864 Y14.214 E0.05777
G1 X178.299 Y14.073 E3.36854
G1 X179.552 Y14.114 E0.03930
G1 X181.305 Y14.353 E0.05547
G1 X182.547 Y14.656 E0.04010
G1 X183.724 Y15.053 E0.03896
G1 X184.897 Y15.564 E0.04010
G1 X186.437 Y16.436 E0.05549
G1 X187.482 Y17.179 E0.04021
G1 X188.428 Y17.984 E0.03896
G1 X189.303 Y18.866 E0.03895
G1 X190.123 Y19.849 E0.04013
G1 X191.110 Y21.318 E0.05546
G1 X191.709 Y22.447 E0.04010
G1 X192.197 Y23.594 E0.03907
G1 X192.594 Y24.811 E0.04013
G1 X192.966 Y26.536 E0.05535
G1 X193.103 Y27.793 E0.03964
G1 X193.131 Y170.128 E4.46279
G1 X192.956 Y172.049 E0.06050
G1 X192.721 Y173.223 E0.03753
G1 X192.379 Y174.413 E0.03883
G1 X191.659 Y176.178 E0.05977
G1 X190.436 Y178.246 E0.07531
G1 X189.624 Y179.290 E0.04146
G1 X188.364 Y180.596 E0.05691
G1 X187.375 Y181.424 E0.04043
G1 X185.890 Y182.423 E0.05611
G1 X162.199 Y195.658 E0.85087
G1 X161.722 Y195.850 E0.01612
G1 X161.214 Y195.926 E0.01612
G1 X87.898 Y195.905 E2.29876
G1 X88.635 Y193.151 F10800.000
G1 F1200
G1 X88.635 Y186.326 E0.21402
G1 X100.661 Y186.326 E0.37706
G1 X100.661 Y193.151 E0.21402
G1 X88.695 Y193.151 E0.37518
G1 X88.258 Y193.529 F10800.000
G1 F1200
G1 X88.258 Y185.949 E0.23767
G1 X101.038 Y185.949 E0.40071
G1 X101.038 Y193.529 E0.23767
G1 X88.318 Y193.529 E0.39883
G1 X88.393 Y193.152 F10800.000
G1 X89.525 Y193.038
G1 F1200
G1 X88.918 Y192.431 E0.02745
G1 X88.918 Y191.887 E0.01736
G1 X89.899 Y192.869 E0.04434
G1 X90.442 Y192.869 E0.01736
G1 X88.918 Y191.344 E0.06889
G1 X88.918 Y190.801 E0.01736
G1 X90.986 Y192.869 E0.09344
G1 X91.529 Y192.869 E0.01736
G1 X88.918 Y190.257 E0.11799
G1 X88.918 Y189.714 E0.01736
G1 X92.072 Y192.869 E0.14254
G1 X92.616 Y192.869 E0.01736
G1 X88.918 Y189.171 E0.16709
G1 X88.918 Y188.627 E0.01736
G1 X93.159 Y192.869 E0.19164
G1 X93.703 Y192.869 E0.01736
G1 X88.918 Y188.084 E0.21619
G1 X88.918 Y187.540 E0.01736
G1 X94.246 Y192.869 E0.24074
G1 X94.789 Y192.869 E0.01736
G1 X88.918 Y186.997 E0.26529
G1 X88.918 Y186.608 E0.01241
G1 X89.072 Y186.608 E0.00494
G1 X95.333 Y192.869 E0.28285
G1 X95.876 Y192.869 E0.01736
G1 X89.616 Y186.608 E0.28285
G1 X90.159 Y186.608 E0.01736
G1 X96.419 Y192.869 E0.28285
G1 X96.963 Y192.869 E0.01736
G1 X90.703 Y186.608 E0.28285
G1 X91.246 Y186.608 E0.01736
G1 X97.506 Y192.869 E0.28285
G1 X98.050 Y192.869 E0.01736
G1 X91.789 Y186.608 E0.28285
G1 X92.333 Y186.608 E0.01736
G1 X98.593 Y192.869 E0.28285
G1 X99.136 Y192.869 E0.01736
G1 X92.876 Y186.608 E0.28285
G1 X93.419 Y186.608 E0.01736
G1 X99.680 Y192.869 E0.28285
G1 X100.223 Y192.869 E0.01736
G1 X93.963 Y186.608 E0.28285
G1 X94.506 Y186.608 E0.01736
G1 X100.378 Y192.480 E0.26530
G1 X100.378 Y191.937 E0.01736
G1 X95.050 Y186.608 E0.24075
G1 X95.593 Y186.608 E0.01736
G1 X100.378 Y191.393 E0.21619
G1 X100.378 Y190.850 E0.01736
G1 X96.136 Y186.608 E0.19164
G1 X96.680 Y186.608 E0.01736
G1 X100.378 Y190.307 E0.16709
G1 X100.378 Y189.763 E0.01736
G1 X97.223 Y186.608 E0.14254
G1 X97.766 Y186.608 E0.01736
G1 X100.378 Y189.220 E0.11799
G1 X100.378 Y188.677 E0.01736
G1 X98.310 Y186.608 E0.09344
G1 X98.853 Y186.608 E0.01736
G1 X100.378 Y188.133 E0.06889
G1 X100.378 Y187.590 E0.01736
G1 X99.397 Y186.608 E0.04434
G1 X99.940 Y186.608 E0.01736
G1 X100.548 Y187.216 E0.02746
G1 E-2.40000 F4800.00000
G1 F8640
G1 X99.940 Y186.608 E-0.45361
G1 X99.397 Y186.608 E-0.28678
G1 X100.378 Y187.590 E-0.73252
G1 X100.378 Y187.679 E-0.04709
G1 E-0.08000 F4800.00000
G1 Z0.800 F10800.000
G1 X108.635 Y186.326
G1 Z0.200
G1 E4.00000 F3000.00000
G1 F1200
G1 X120.661 Y186.326 E0.37706
G1 X120.661 Y193.151 E0.21402
G1 X108.635 Y193.151 E0.37706
G1 X108.635 Y186.386 E0.21214
M73 P0 R264
G1 X108.258 Y185.949 F10800.000
G1 F1200
G1 X121.038 Y185.949 E0.40071
G1 X121.038 Y193.529 E0.23767
G1 X108.258 Y193.529 E0.40071
G1 X108.258 Y186.009 E0.23578
G1 X108.651 Y186.020 F10800.000
G1 E-2.40000 F4800.00000
G1 F8640
G1 X111.138 Y185.995 E-1.52000
G1 E-0.08000 F4800.00000
G1 Z0.800 F10800.000
G1 X109.525 Y193.038
G1 Z0.200
G1 E4.00000 F3000.00000
G1 F1200
G1 X108.918 Y192.431 E0.02745
G1 X108.918 Y191.887 E0.01736
G1 X109.899 Y192.869 E0.04434
G1 X110.442 Y192.869 E0.01736
G1 X108.918 Y191.344 E0.06889
G1 X108.918 Y190.801 E0.01736
G1 X110.986 Y192.869 E0.09344
G1 X111.529 Y192.869 E0.01736
G1 X108.918 Y190.257 E0.11799
G1 X108.918 Y189.714 E0.01736
G1 X112.072 Y192.869 E0.14254
G1 X112.616 Y192.869 E0.01736
G1 X108.918 Y189.171 E0.16709
G1 X108.918 Y188.627 E0.01736
G1 X113.159 Y192.869 E0.19164
G1 X113.703 Y192.869 E0.01736
G1 X108.918 Y188.084 E0.21619
G1 X108.918 Y187.540 E0.01736
G1 X114.246 Y192.869 E0.24074
G1 X114.789 Y192.869 E0.01736
G1 X108.918 Y186.997 E0.26529
G1 X108.918 Y186.608 E0.01241
G1 X109.072 Y186.608 E0.00494
G1 X115.333 Y192.869 E0.28285
G1 X115.876 Y192.869 E0.01736
G1 X109.616 Y186.608 E0.28285
G1 X110.159 Y186.608 E0.01736
G1 X116.419 Y192.869 E0.28285
G1 X116.963 Y192.869 E0.01736
G1 X110.703 Y186.608 E0.28285
G1 X111.246 Y186.608 E0.01736
G1 X117.506 Y192.869 E0.28285
G1 X118.050 Y192.869 E0.01736
G1 X111.789 Y186.608 E0.28285
G1 X112.333 Y186.608 E0.01736
G1 X118.593 Y192.869 E0.28285
G1 X119.136 Y192.869 E0.01736
G1 X112.876 Y186.608 E0.28285
G1 X113.419 Y186.608 E0.01736
G1 X119.680 Y192.869 E0.28285
G1 X120.223 Y192.869 E0.01736
G1 X113.963 Y186.608 E0.28285
G1 X114.506 Y186.608 E0.01736
G1 X120.378 Y192.480 E0.26530
G1 X120.378 Y191.937 E0.01736
G1 X115.050 Y186.608 E0.24075
G1 X115.593 Y186.608 E0.01736
G1 X120.378 Y191.393 E0.21619
G1 X120.378 Y190.850 E0.01736
G1 X116.136 Y186.608 E0.19164
G1 X116.680 Y186.608 E0.01736
G1 X120.378 Y190.307 E0.16709
G1 X120.378 Y189.763 E0.01736
G1 X117.223 Y186.608 E0.14254
G1 X117.766 Y186.608 E0.01736
G1 X120.378 Y189.220 E0.11799
G1 X120.378 Y188.677 E0.01736
G1 X118.310 Y186.608 E0.09344
G1 X118.853 Y186.608 E0.01736
G1 X120.378 Y188.133 E0.06889
G1 X120.378 Y187.590 E0.01736
G1 X119.397 Y186.608 E0.04434
G1 X119.940 Y186.608 E0.01736
G1 X120.548 Y187.216 E0.02746
G1 E-2.40000 F4800.00000
G1 F8640
G1 X119.940 Y186.608 E-0.45361
G1 X119.397 Y186.608 E-0.28678
G1 X120.378 Y187.590 E-0.73252
G1 X120.378 Y187.679 E-0.04709
G1 E-0.08000 F4800.00000
G1 Z0.800 F10800.000
G1 X128.635 Y186.326
G1 Z0.200
G1 E4.00000 F3000.00000
G1 F1200
G1 X140.661 Y186.326 E0.37706
G1 X140.661 Y193.151 E0.21402
G1 X128.635 Y193.151 E0.37706
G1 X128.635 Y186.386 E0.21214
G1 X128.258 Y185.949 F10800.000
G1 F1200
G1 X141.038 Y185.949 E0.40071
G1 X141.038 Y193.529 E0.23767
G1 X128.258 Y193.529 E0.40071
G1 X128.258 Y186.009 E0.23578
G1 X128.651 Y186.020 F10800.000
G1 E-2.40000 F4800.00000
G1 F8640
G1 X131.138 Y185.995 E-1.52000
G1 E-0.08000 F4800.00000
G1 Z0.800 F10800.000
G1 X129.525 Y193.038
G1 Z0.200
G1 E4.00000 F3000.00000
G1 F1200
G1 X128.918 Y192.431 E0.02745
G1 X128.918 Y191.887 E0.01736
G1 X129.899 Y192.869 E0.04434
G1 X130.442 Y192.869 E0.01736
G1 X128.918 Y191.344 E0.06889
G1 X128.918 Y190.801 E0.01736
G1 X130.986 Y192.869 E0.09344
G1 X131.529 Y192.869 E0.01736
G1 X128.918 Y190.257 E0.11799
G1 X128.918 Y189.714 E0.01736
G1 X132.072 Y192.869 E0.14254
G1 X132.616 Y192.869 E0.01736
G1 X128.918 Y189.171 E0.16709
G1 X128.918 Y188.627 E0.01736
G1 X133.159 Y192.869 E0.19164
G1 X133.703 Y192.869 E0.01736
G1 X128.918 Y188.084 E0.21619
G1 X128.918 Y187.540 E0.01736
G1 X134.246 Y192.869 E0.24074
G1 X134.789 Y192.869 E0.01736
G1 X128.918 Y186.997 E0.26529
G1 X128.918 Y186.608 E0.01241
G1 X129.072 Y186.608 E0.00494
G1 X135.333 Y192.869 E0.28285
G1 X135.876 Y192.869 E0.01736
G1 X129.616 Y186.608 E0.28285
G1 X130.159 Y186.608 E0.01736
G1 X136.419 Y192.869 E0.28285
G1 X136.963 Y192.869 E0.01736
G1 X130.703 Y186.608 E0.28285
G1 X131.246 Y186.608 E0.01736
G1 X137.506 Y192.869 E0.28285
G1 X138.050 Y192.869 E0.01736
G1 X131.789 Y186.608 E0.28285
G1 X132.333 Y186.608 E0.01736
G1 X138.593 Y192.869 E0.28285
G1 X139.136 Y192.869 E0.01736
G1 X132.876 Y186.608 E0.28285
G1 X133.419 Y186.608 E0.01736
G1 X139.680 Y192.869 E0.28285
G1 X140.223 Y192.869 E0.01736
G1 X133.963 Y186.608 E0.28285
G1 X134.506 Y186.608 E0.01736
G1 X140.378 Y192.480 E0.26530
G1 X140.378 Y191.937 E0.01736
G1 X135.050 Y186.608 E0.24075
G1 X135.593 Y186.608 E0.01736
G1 X140.378 Y191.393 E0.21619
G1 X140.378 Y190.850 E0.01736
G1 X136.136 Y186.608 E0.19164
G1 X136.680 Y186.608 E0.01736
G1 X140.378 Y190.307 E0.16709
G1 X140.378 Y189.763 E0.01736
G1 X137.223 Y186.608 E0.14254
G1 X137.766 Y186.608 E0.01736
G1 X140.378 Y189.220 E0.11799
G1 X140.378 Y188.677 E0.01736
G1 X138.310 Y186.608 E0.09344
G1 X138.853 Y186.608 E0.01736
G1 X140.378 Y188.133 E0.06889
G1 X140.378 Y187.590 E0.01736
G1 X139.397 Y186.608 E0.04434
G1 X139.940 Y186.608 E0.01736
G1 X140.548 Y187.216 E0.02746
G1 E-2.40000 F4800.00000
G1 F8640
G1 X139.940 Y186.608 E-0.45361
G1 X139.397 Y186.608 E-0.28678
G1 X140.378 Y187.590 E-0.73252
G1 X140.378 Y187.679 E-0.04709
G1 E-0.08000 F4800.00000
G1 Z0.800 F10800.000
G1 X139.274 Y179.276
G1 Z0.200
G1 E4.00000 F3000.00000
G1 F1200
G1 X113.449 Y179.276 E0.80975
G1 X113.449 Y176.450 E0.08860
G1 X139.274 Y176.450 E0.80975
G1 X139.274 Y179.216 E0.08672
G1 X139.651 Y179.653 F10800.000
G1 F1200
G1 X113.071 Y179.653 E0.83340
G1 X113.071 Y176.073 E0.11225
G1 X139.651 Y176.073 E0.83340
G1 X139.651 Y179.593 E0.11037
G1 X139.252 Y179.635 F10800.000
G1 X139.161 Y177.326
G1 F1200
G1 X138.568 Y176.733 E0.02630
G1 X138.035 Y176.733 E0.01673
G1 X138.992 Y177.690 E0.04244
G1 X138.992 Y178.223 E0.01673
G1 X137.501 Y176.733 E0.06610
G1 X136.968 Y176.733 E0.01673
G1 X138.992 Y178.757 E0.08977
G1 X138.992 Y178.993 E0.00742
G1 X138.695 Y178.993 E0.00931
G1 X136.434 Y176.733 E0.10026
G1 X135.901 Y176.733 E0.01673
G1 X138.161 Y178.993 E0.10026
G1 X137.628 Y178.993 E0.01673
G1 X135.368 Y176.733 E0.10026
G1 X134.834 Y176.733 E0.01673
G1 X137.094 Y178.993 E0.10026
G1 X136.561 Y178.993 E0.01673
G1 X134.301 Y176.733 E0.10026
G1 X133.767 Y176.733 E0.01673
G1 X136.027 Y178.993 E0.10026
G1 X135.494 Y178.993 E0.01673
G1 X133.234 Y176.733 E0.10026
G1 X132.700 Y176.733 E0.01673
G1 X134.960 Y178.993 E0.10026
G1 X134.427 Y178.993 E0.01673
G1 X132.167 Y176.733 E0.10026
G1 X131.633 Y176.733 E0.01673
G1 X133.893 Y178.993 E0.10026
G1 X133.360 Y178.993 E0.01673
G1 X131.100 Y176.733 E0.10026
G1 X130.566 Y176.733 E0.01673
G1 X132.826 Y178.993 E0.10026
G1 X132.293 Y178.993 E0.01673
G1 X130.033 Y176.733 E0.10026
G1 X129.499 Y176.733 E0.01673
G1 X131.759 Y178.993 E0.10026
G1 X131.226 Y178.993 E0.01673
G1 X128.966 Y176.733 E0.10026
G1 X128.432 Y176.733 E0.01673
G1 X130.692 Y178.993 E0.10026
G1 X130.159 Y178.993 E0.01673
G1 X127.899 Y176.733 E0.10026
G1 X127.365 Y176.733 E0.01673
G1 X129.626 Y178.993 E0.10026
G1 X129.092 Y178.993 E0.01673
G1 X126.832 Y176.733 E0.10026
G1 X126.298 Y176.733 E0.01673
G1 X128.559 Y178.993 E0.10026
G1 X128.025 Y178.993 E0.01673
G1 X125.765 Y176.733 E0.10026
G1 X125.231 Y176.733 E0.01673
G1 X127.492 Y178.993 E0.10026
G1 X126.958 Y178.993 E0.01673
G1 X124.698 Y176.733 E0.10026
G1 X124.164 Y176.733 E0.01673
G1 X126.425 Y178.993 E0.10026
G1 X125.891 Y178.993 E0.01673
G1 X123.631 Y176.733 E0.10026
G1 X123.097 Y176.733 E0.01673
G1 X125.358 Y178.993 E0.10026
G1 X124.824 Y178.993 E0.01673
G1 X122.564 Y176.733 E0.10026
G1 X122.030 Y176.733 E0.01673
G1 X124.291 Y178.993 E0.10026
G1 X123.757 Y178.993 E0.01673
G1 X121.497 Y176.733 E0.10026
G1 X120.963 Y176.733 E0.01673
G1 X123.224 Y178.993 E0.10026
G1 X122.690 Y178.993 E0.01673
G1 X120.430 Y176.733 E0.10026
G1 X119.896 Y176.733 E0.01673
G1 X122.157 Y178.993 E0.10026
G1 X121.623 Y178.993 E0.01673
G1 X119.363 Y176.733 E0.10026
G1 X118.830 Y176.733 E0.01673
G1 X121.090 Y178.993 E0.10026
G1 X120.556 Y178.993 E0.01673
G1 X118.296 Y176.733 E0.10026
G1 X117.763 Y176.733 E0.01673
G1 X120.023 Y178.993 E0.10026
G1 X119.489 Y178.993 E0.01673
G1 X117.229 Y176.733 E0.10026
G1 X116.696 Y176.733 E0.01673
G1 X118.956 Y178.993 E0.10026
G1 X118.422 Y178.993 E0.01673
G1 X116.162 Y176.733 E0.10026
G1 X115.629 Y176.733 E0.01673
G1 X117.889 Y178.993 E0.10026
G1 X117.355 Y178.993 E0.01673
G1 X115.095 Y176.733 E0.10026
G1 X114.562 Y176.733 E0.01673
G1 X116.822 Y178.993 E0.10026
G1 X116.288 Y178.993 E0.01673
G1 X114.028 Y176.733 E0.10026
G1 X113.731 Y176.733 E0.00931
G1 X113.731 Y176.970 E0.00742
G1 X115.755 Y178.993 E0.08976
G1 X115.221 Y178.993 E0.01673
G1 X113.731 Y177.503 E0.06610
G1 X113.731 Y178.037 E0.01673
G1 X114.688 Y178.993 E0.04243
G1 X114.154 Y178.993 E0.01673
G1 X113.562 Y178.400 E0.02630
G1 E-2.40000 F4800.00000
G1 F8640
G1 X114.154 Y178.993 E-0.44248
G1 X114.688 Y178.993 E-0.28156
G1 X113.731 Y178.037 E-0.71401
G1 X113.731 Y177.881 E-0.08195
G1 E-0.08000 F4800.00000
G1 Z0.800 F10800.000
G1 X148.635 Y186.326
G1 Z0.200
G1 E4.00000 F3000.00000
G1 F1200
G1 X160.661 Y186.326 E0.37706
G1 X160.661 Y193.151 E0.21402
G1 X148.635 Y193.151 E0.37706
G1 X148.635 Y186.386 E0.21214
G1 X148.258 Y185.949 F10800.000
G1 F1200
G1 X161.038 Y185.949 E0.40071
G1 X161.038 Y193.529 E0.23767
G1 X148.258 Y193.529 E0.40071
G1 X148.258 Y186.009 E0.23578
G1 X148.651 Y186.020 F10800.000
G1 E-2.40000 F4800.00000
G1 F8640
G1 X151.138 Y185.995 E-1.52000
G1 E-0.08000 F4800.00000
G1 Z0.800 F10800.000
G1 X149.525 Y193.038
G1 Z0.200
G1 E4.00000 F3000.00000
G1 F1200
G1 X148.918 Y192.431 E0.02745
G1 X148.918 Y191.887 E0.01736
G1 X149.899 Y192.869 E0.04434
G1 X150.442 Y192.869 E0.01736
G1 X148.918 Y191.344 E0.06889
G1 X148.918 Y190.801 E0.01736
G1 X150.986 Y192.869 E0.09344
G1 X151.529 Y192.869 E0.01736
G1 X148.918 Y190.257 E0.11799
G1 X148.918 Y189.714 E0.01736
G1 X152.072 Y192.869 E0.14254
G1 X152.616 Y192.869 E0.01736
G1 X148.918 Y189.171 E0.16709
G1 X148.918 Y188.627 E0.01736
G1 X153.159 Y192.869 E0.19164
G1 X153.703 Y192.869 E0.01736
G1 X148.918 Y188.084 E0.21619
G1 X148.918 Y187.540 E0.01736
G1 X154.246 Y192.869 E0.24074
G1 X154.789 Y192.869 E0.01736
G1 X148.918 Y186.997 E0.26529
G1 X148.918 Y186.608 E0.01241
