; generated by PrusaSlicer 2.1.0+win64 on 2019-11-08 at 17:06:05 UTC

; 

; external perimeters extrusion width = 0.60mm
; perimeters extrusion width = 0.43mm
; infill extrusion width = 0.45mm
; solid infill extrusion width = 0.70mm
; top infill extrusion width = 0.43mm
; first layer extrusion width = 0.42mm

M73 P0 R270
M201 X9000 Y9000 Z500 E10000 ; sets maximum accelerations, mm/sec^2
M203 X500 Y500 Z12 E120 ; sets maximum feedrates, mm/sec
M204 P2000 R1500 T2000 ; sets acceleration (P, T) and retract acceleration (R), mm/sec^2
M205 X10.00 Y10.00 Z0.20 E2.50 ; sets the jerk limits, mm/sec
M205 S0 T0 ; sets the minimum extruding and travel feed rate, mm/sec
M107
M862.3 P "MK2SMM" ; printer model check
M862.1 P0.4 ; nozzle diameter check
M115 U3.2.3 ; tell printer latest fw version
M204 S2000 T1500 ; MK2 firmware only supports the old M204 format
; Start G-Code sequence START
T2
M104 S215 ; set extruder temp
M140 S60 ; set bed temp
M190 S60 ; wait for bed temp
M109 S215 ; wait for extruder temp
G21 ; set units to millimeters
G90 ; use absolute coordinates
M83 ; use relative distances for extrusion
G28 W
G80
G92 E0.0
M203 E100 ; set max feedrate
M92 E140 ; E-steps per filament milimeter

G1 Z0.250 F7200.000
G1 X50.0 E80.0 F1000.0
M73 P0 R270
G1 X160.0 E20.0 F1000.0
G1 Z0.200 F7200.000
G1 X220.0 E13 F1000.0
G1 X240.0 E0 F1000.0

G92 E0.0
G21 ; set units to millimeters
G90 ; use absolute coordinates
M83 ; use relative distances for extrusion
T2
M900 K200 ; Filament gcode
;BEFORE_LAYER_CHANGE
G92 E0.0
;0.2


G1 Z0.200 F10800.000
;AFTER_LAYER_CHANGE
;0.2
G1 E-4.00000 F4800.00000
G1 Z0.800 F10800.000
G1 X65.065 Y43.594
G1 Z0.200
G1 E4.00000 F3000.00000
M204 S1000
G1 F1200
G1 X65.510 Y42.443 E0.03870
G1 X66.028 Y41.658 E0.02949
G1 X84.163 Y19.151 E0.90627
G1 X85.244 Y18.050 E0.04838
G1 X85.802 Y17.589 E0.02270
G1 X86.585 Y17.130 E0.02845
G1 X87.437 Y16.818 E0.02845
G1 X88.743 Y16.644 E0.04130
G1 X161.761 Y16.644 E2.28944
G1 X163.024 Y16.805 E0.03992
G1 X164.203 Y17.271 E0.03974
G1 X165.114 Y17.910 E0.03488
G1 X166.367 Y19.172 E0.05577
G1 X184.080 Y41.796 E0.90091
G1 X184.716 Y42.925 E0.04061
G1 X185.048 Y44.182 E0.04078
G1 X185.091 Y188.287 E4.51831
G1 X184.935 Y189.512 E0.03870
G1 X184.490 Y190.663 E0.03870
G1 X183.705 Y191.755 E0.04217
G1 X182.657 Y192.607 E0.04234
G1 X181.427 Y193.151 E0.04217
G1 X180.092 Y193.355 E0.04234
G1 X69.972 Y193.355 E3.45274
G1 X68.753 Y193.200 E0.03853
G1 X67.602 Y192.755 E0.03870
G1 X66.501 Y191.963 E0.04252
G1 X65.652 Y190.913 E0.04234
G1 X65.109 Y189.676 E0.04234
G1 X64.910 Y188.335 E0.04252
G1 X64.909 Y44.819 E4.49985
G1 X65.057 Y43.654 E0.03682
G1 E-2.40000 F4800.00000
G1 F8640
G1 X65.510 Y42.443 E-0.68227
G1 X66.028 Y41.658 E-0.49647
G1 X66.433 Y41.154 E-0.34126
G1 E-0.08000 F4800.00000
G1 Z0.800 F10800.000
G1 X105.297 Y18.597
G1 Z0.200
G1 E4.00000 F3000.00000
G1 F1200
G1 X106.125 Y17.812 E0.03578
G1 X107.005 Y17.359 E0.03101
G1 X108.330 Y17.028 E0.04284
G1 X122.149 Y17.029 E0.43327
G1 X123.235 Y17.255 E0.03480
G1 X124.290 Y17.751 E0.03655
G1 X125.275 Y18.609 E0.04095
G1 X125.974 Y17.923 E0.03071
G1 X126.949 Y17.381 E0.03497
G1 X128.330 Y17.028 E0.04471
G1 X142.142 Y17.029 E0.43307
G1 X143.171 Y17.234 E0.03287
G1 X144.161 Y17.670 E0.03394
G1 X145.291 Y18.592 E0.04574
G1 X145.974 Y17.923 E0.02998
G1 X146.949 Y17.381 E0.03497
G1 X148.330 Y17.028 E0.04470
G1 X162.104 Y17.025 E0.43187
G1 X163.124 Y17.219 E0.03256
G1 X164.247 Y17.723 E0.03858
G1 X165.394 Y18.712 E0.04749
G1 X166.160 Y19.906 E0.04450
G1 X166.542 Y21.251 E0.04383
G1 X166.569 Y30.244 E0.28195
G1 X166.270 Y31.470 E0.03957
G1 X165.722 Y32.480 E0.03605
G1 X164.592 Y33.607 E0.05005
G1 X163.602 Y34.146 E0.03532
G1 X162.365 Y34.448 E0.03992
G1 X148.147 Y34.448 E0.44582
G1 X146.884 Y34.135 E0.04079
G1 X146.095 Y33.735 E0.02774
G1 X145.259 Y32.967 E0.03559
G1 X144.683 Y33.537 E0.02539
G1 X143.658 Y34.124 E0.03705
G1 X142.462 Y34.436 E0.03877
G1 X141.598 Y34.449 E0.02709
G1 X141.757 Y35.117 E0.02151
G1 X141.712 Y40.130 E0.15720
G1 X180.486 Y40.131 E1.21574
G1 X181.559 Y40.355 E0.03435
G1 X182.486 Y40.797 E0.03221
G1 X183.559 Y41.727 E0.04452
G1 X184.310 Y42.850 E0.04233
G1 X184.681 Y44.094 E0.04071
G1 X184.714 Y188.779 E4.53650
G1 X184.367 Y190.121 E0.04345
G1 X183.828 Y191.059 E0.03394
G1 X182.745 Y192.132 E0.04778
G1 X181.869 Y192.627 E0.03155
G1 X180.510 Y192.978 E0.04403
G1 X69.486 Y192.978 E3.48107
M73 P0 R269
G1 X68.144 Y192.632 E0.04345
G1 X67.206 Y192.093 E0.03394
G1 X66.133 Y191.010 E0.04778
G1 X65.638 Y190.134 E0.03155
G1 X65.287 Y188.775 E0.04403
G1 X65.307 Y44.177 E4.53376
G1 X65.634 Y42.982 E0.03884
G1 X66.269 Y41.925 E0.03867
G1 X67.386 Y40.879 E0.04798
G1 X68.264 Y40.427 E0.03098
G1 X69.490 Y40.128 E0.03958
G1 X105.362 Y40.129 E1.12473
G1 X105.373 Y34.796 E0.16720
G1 X105.780 Y33.470 E0.04348
G1 X105.256 Y32.955 E0.02304
G1 X104.593 Y33.607 E0.02916
G1 X103.694 Y34.110 E0.03228
G1 X102.365 Y34.448 E0.04300
G1 X88.101 Y34.443 E0.44724
G1 X86.923 Y34.150 E0.03805
G1 X86.095 Y33.735 E0.02906
G1 X84.925 Y32.652 E0.04999
G1 X84.287 Y31.586 E0.03895
G1 X83.955 Y30.342 E0.04036
G1 X83.960 Y21.319 E0.28291
G1 X84.258 Y20.142 E0.03807
G1 X84.756 Y19.166 E0.03436
G1 X85.971 Y17.926 E0.05442
G1 X87.040 Y17.345 E0.03816
G1 X88.379 Y17.021 E0.04319
G1 X102.143 Y17.029 E0.43155
G1 X103.171 Y17.234 E0.03287
G1 X104.161 Y17.670 E0.03392
G1 X105.251 Y18.559 E0.04409
G1 X105.250 Y19.168 F10800.000
G1 F1200
G1 X106.323 Y18.134 E0.04673
G1 X107.158 Y17.704 E0.02945
G1 X108.353 Y17.405 E0.03864
G1 X122.129 Y17.406 E0.43191
G1 X123.135 Y17.619 E0.03225
G1 X124.103 Y18.080 E0.03363
G1 X125.291 Y19.127 E0.04966
G1 X126.181 Y18.239 E0.03941
G1 X127.111 Y17.722 E0.03336
G1 X128.354 Y17.405 E0.04022
G1 X142.123 Y17.406 E0.43172
G1 X143.075 Y17.599 E0.03045
G1 X143.984 Y18.003 E0.03120
G1 X145.021 Y18.860 E0.04218
G1 X145.251 Y19.167 E0.01204
G1 X146.181 Y18.239 E0.04119
G1 X147.111 Y17.722 E0.03336
G1 X148.354 Y17.405 E0.04022
G1 X162.086 Y17.402 E0.43055
G1 X163.031 Y17.585 E0.03020
G1 X164.023 Y18.028 E0.03406
G1 X165.093 Y18.941 E0.04410
G1 X165.805 Y20.037 E0.04099
G1 X166.172 Y21.329 E0.04211
G1 X166.192 Y30.221 E0.27879
G1 X165.910 Y31.356 E0.03666
G1 X165.435 Y32.234 E0.03132
G1 X164.385 Y33.291 E0.04670
G1 X163.487 Y33.787 E0.03218
G1 X162.342 Y34.071 E0.03698
G1 X148.170 Y34.071 E0.44437
G1 X147.035 Y33.790 E0.03664
G1 X146.290 Y33.411 E0.02622
G1 X145.248 Y32.440 E0.04467
G1 X144.471 Y33.224 E0.03461
G1 X143.538 Y33.766 E0.03384
G1 X142.390 Y34.065 E0.03719
G1 X141.110 Y34.073 E0.04013
G1 X141.380 Y35.139 E0.03447
G1 X141.332 Y40.507 E0.16833
G1 X180.467 Y40.508 E1.22707
G1 X181.420 Y40.707 E0.03051
G1 X182.260 Y41.099 E0.02908
G1 X183.293 Y41.996 E0.04290
G1 X183.958 Y42.987 E0.03741
G1 X184.304 Y44.122 E0.03722
G1 X184.336 Y188.754 E4.53484
G1 X184.009 Y189.999 E0.04036
G1 X183.515 Y190.847 E0.03076
G1 X182.500 Y191.844 E0.04463
G1 X181.707 Y192.286 E0.02845
G1 X180.486 Y192.601 E0.03956
G1 X69.511 Y192.601 E3.47955
G1 X68.266 Y192.274 E0.04036
G1 X67.418 Y191.780 E0.03076
G1 X66.421 Y190.765 E0.04463
G1 X65.979 Y189.972 E0.02845
G1 X65.664 Y188.751 E0.03956
G1 X65.677 Y44.252 E4.53065
G1 X65.990 Y43.107 E0.03723
G1 X66.547 Y42.181 E0.03386
G1 X67.584 Y41.201 E0.04475
G1 X68.378 Y40.787 E0.02807
G1 X69.514 Y40.505 E0.03671
G1 X105.738 Y40.506 E1.13580
G1 X105.751 Y34.826 E0.17809
G1 X106.090 Y33.743 E0.03559
G1 X106.280 Y33.433 E0.01139
G1 X105.252 Y32.423 E0.04518
G1 X104.385 Y33.291 E0.03848
G1 X103.532 Y33.769 E0.03066
G1 X102.342 Y34.071 E0.03850
G1 X88.170 Y34.071 E0.44435
G1 X87.035 Y33.790 E0.03664
G1 X86.290 Y33.411 E0.02622
G1 X85.202 Y32.394 E0.04669
G1 X84.643 Y31.462 E0.03409
G1 X84.332 Y30.316 E0.03721
G1 X84.331 Y21.389 E0.27992
G1 X84.618 Y20.256 E0.03665
G1 X85.078 Y19.364 E0.03146
G1 X86.177 Y18.243 E0.04923
G1 X87.155 Y17.705 E0.03499
G1 X88.402 Y17.399 E0.04026
G1 X102.124 Y17.406 E0.43023
G1 X103.075 Y17.599 E0.03045
G1 X103.984 Y18.003 E0.03118
G1 X105.023 Y18.861 E0.04227
G1 X105.214 Y19.120 E0.01007
G1 X105.231 Y19.827 F10800.000
G1 F1200
G1 X105.430 Y19.521 E0.01146
G1 X106.523 Y18.455 E0.04785
G1 X107.273 Y18.064 E0.02654
G1 X108.377 Y17.782 E0.03573
G1 X122.108 Y17.784 E0.43052
G1 X123.033 Y17.982 E0.02966
G1 X123.916 Y18.408 E0.03073
G1 X124.845 Y19.229 E0.03887
G1 X125.230 Y19.822 E0.02217
G1 X125.426 Y19.526 E0.01112
G1 X126.428 Y18.526 E0.04440
G1 X127.271 Y18.065 E0.03011
G1 X128.377 Y17.782 E0.03582
G1 X142.103 Y17.783 E0.43037
G1 X142.977 Y17.964 E0.02798
G1 X143.805 Y18.336 E0.02845
G1 X144.757 Y19.130 E0.03888
G1 X145.233 Y19.820 E0.02627
G1 X145.426 Y19.526 E0.01102
G1 X146.428 Y18.526 E0.04438
G1 X147.271 Y18.065 E0.03011
G1 X148.377 Y17.782 E0.03582
G1 X162.067 Y17.779 E0.42923
G1 X162.938 Y17.951 E0.02782
G1 X163.801 Y18.334 E0.02962
G1 X164.793 Y19.170 E0.04065
G1 X165.473 Y20.218 E0.03918
G1 X165.802 Y21.405 E0.03862
G1 X165.815 Y30.197 E0.27568
G1 X165.551 Y31.240 E0.03374
G1 X165.147 Y31.989 E0.02668
G1 X164.177 Y32.975 E0.04338
G1 X163.369 Y33.428 E0.02903
G1 X162.318 Y33.694 E0.03399
G1 X148.194 Y33.694 E0.44287
G1 X147.150 Y33.430 E0.03376
G1 X146.487 Y33.088 E0.02338
G1 X145.477 Y32.136 E0.04352
G1 X145.289 Y31.856 E0.01059
G1 X144.257 Y32.913 E0.04632
G1 X143.417 Y33.408 E0.03059
G1 X142.319 Y33.694 E0.03558
G1 X140.552 Y33.694 E0.05539
G1 X140.704 Y34.014 E0.01111
G1 X141.003 Y35.161 E0.03715
G1 X140.956 Y40.376 E0.16351
G1 X140.804 Y40.884 E0.01664
G1 X180.448 Y40.885 E1.24299
G1 X181.283 Y41.058 E0.02673
G1 X182.034 Y41.402 E0.02590
G1 X183.027 Y42.264 E0.04125
G1 X183.606 Y43.126 E0.03255
G1 X183.927 Y44.152 E0.03369
G1 X183.959 Y188.729 E4.53313
M73 P0 R268
G1 X183.652 Y189.876 E0.03722
G1 X183.204 Y190.633 E0.02757
G1 X182.256 Y191.555 E0.04149
G1 X181.547 Y191.943 E0.02534
G1 X180.462 Y192.224 E0.03515
G1 X69.536 Y192.224 E3.47801
G1 X68.389 Y191.917 E0.03722
G1 X67.632 Y191.469 E0.02757
G1 X66.710 Y190.521 E0.04149
G1 X66.322 Y189.812 E0.02534
G1 X66.041 Y188.727 E0.03515
G1 X66.047 Y44.327 E4.52755
G1 X66.347 Y43.231 E0.03563
G1 X66.825 Y42.436 E0.02909
G1 X67.784 Y41.522 E0.04154
G1 X68.493 Y41.147 E0.02515
G1 X69.538 Y40.882 E0.03379
G1 X106.279 Y40.883 E1.15200
G1 X106.116 Y40.289 E0.01933
G1 X106.128 Y34.857 E0.17031
G1 X106.440 Y33.885 E0.03199
G1 X106.838 Y33.277 E0.02279
G1 X106.352 Y32.990 E0.01769
G1 X105.251 Y31.885 E0.04891
G1 X104.177 Y32.975 E0.04800
G1 X103.369 Y33.428 E0.02903
G1 X102.318 Y33.694 E0.03399
G1 X88.194 Y33.694 E0.44287
G1 X87.150 Y33.430 E0.03376
G1 X86.487 Y33.088 E0.02338
G1 X85.480 Y32.139 E0.04338
G1 X84.982 Y31.293 E0.03079
G1 X84.703 Y30.244 E0.03405
G1 X84.702 Y21.459 E0.27544
G1 X84.978 Y20.370 E0.03521
G1 X85.399 Y19.564 E0.02853
G1 X86.385 Y18.559 E0.04414
G1 X87.272 Y18.064 E0.03183
G1 X88.425 Y17.776 E0.03730
G1 X102.104 Y17.783 E0.42887
G1 X102.978 Y17.964 E0.02799
G1 X103.805 Y18.336 E0.02843
G1 X104.759 Y19.131 E0.03894
G1 X105.197 Y19.777 E0.02448
G1 X105.275 Y20.586 F10800.000
G1 F1200
G1 X105.720 Y19.764 E0.02931
G1 X106.724 Y18.775 E0.04417
G1 X107.391 Y18.423 E0.02364
G1 X108.402 Y18.159 E0.03277
G1 X122.049 Y18.156 E0.42787
G1 X122.931 Y18.346 E0.02830
G1 X123.726 Y18.735 E0.02775
G1 X124.572 Y19.491 E0.03557
G1 X125.267 Y20.601 E0.04107
G1 X125.719 Y19.766 E0.02976
G1 X126.635 Y18.842 E0.04080
G1 X127.390 Y18.423 E0.02706
G1 X128.402 Y18.159 E0.03281
G1 X142.048 Y18.156 E0.42786
G1 X142.842 Y18.316 E0.02541
G1 X143.626 Y18.669 E0.02693
G1 X144.493 Y19.400 E0.03557
G1 X145.282 Y20.574 E0.04433
G1 X145.719 Y19.766 E0.02880
G1 X146.635 Y18.842 E0.04081
G1 X147.390 Y18.423 E0.02706
G1 X148.402 Y18.159 E0.03281
G1 X162.048 Y18.156 E0.42786
G1 X162.843 Y18.317 E0.02543
G1 X163.581 Y18.641 E0.02527
G1 X164.494 Y19.401 E0.03725
G1 X165.118 Y20.348 E0.03553
G1 X165.432 Y21.481 E0.03687
G1 X165.438 Y30.173 E0.27253
G1 X165.192 Y31.124 E0.03079
G1 X164.858 Y31.746 E0.02214
G1 X163.966 Y32.662 E0.04008
G1 X163.249 Y33.069 E0.02587
G1 X162.294 Y33.317 E0.03095
G1 X148.218 Y33.317 E0.44133
G1 X147.266 Y33.070 E0.03083
G1 X146.686 Y32.767 E0.02054
G1 X145.760 Y31.885 E0.04009
G1 X145.254 Y31.031 E0.03114
G1 X144.825 Y31.791 E0.02738
G1 X144.005 Y32.632 E0.03681
G1 X143.294 Y33.051 E0.02586
G1 X142.294 Y33.317 E0.03247
G1 X139.845 Y33.317 E0.07677
G1 X140.349 Y34.148 E0.03045
G1 X140.625 Y35.183 E0.03361
G1 X140.579 Y40.340 E0.16169
G1 X140.275 Y41.261 E0.03041
G1 X180.429 Y41.263 E1.25899
G1 X181.148 Y41.411 E0.02304
G1 X181.808 Y41.706 E0.02266
G1 X182.762 Y42.533 E0.03957
G1 X183.256 Y43.267 E0.02776
G1 X183.550 Y44.182 E0.03012
G1 X183.582 Y188.704 E4.53137
G1 X183.296 Y189.750 E0.03402
G1 X182.895 Y190.416 E0.02437
G1 X182.014 Y191.265 E0.03837
G1 X181.389 Y191.600 E0.02222
G1 X180.438 Y191.847 E0.03083
G1 X69.561 Y191.847 E3.47645
G1 X68.515 Y191.561 E0.03402
G1 X67.849 Y191.160 E0.02437
G1 X67.000 Y190.279 E0.03837
G1 X66.665 Y189.654 E0.02222
G1 X66.418 Y188.703 E0.03083
G1 X66.418 Y44.403 E4.52443
G1 X66.704 Y43.356 E0.03402
G1 X67.105 Y42.690 E0.02437
G1 X67.986 Y41.841 E0.03837
G1 X68.611 Y41.506 E0.02222
G1 X69.562 Y41.259 E0.03083
G1 X106.789 Y41.260 E1.16722
G1 X106.493 Y40.260 E0.03270
G1 X106.505 Y34.888 E0.16843
G1 X106.789 Y34.030 E0.02835
G1 X107.381 Y33.149 E0.03328
G1 X106.598 Y32.702 E0.02826
G1 X105.724 Y31.840 E0.03849
G1 X105.254 Y31.027 E0.02944
G1 X104.859 Y31.745 E0.02568
G1 X103.966 Y32.662 E0.04011
G1 X103.249 Y33.069 E0.02587
G1 X102.294 Y33.317 E0.03095
G1 X88.218 Y33.317 E0.44133
G1 X87.266 Y33.070 E0.03083
G1 X86.686 Y32.767 E0.02054
G1 X85.761 Y31.886 E0.04006
G1 X85.321 Y31.128 E0.02748
G1 X85.074 Y30.173 E0.03093
G1 X85.074 Y21.529 E0.27103
G1 X85.338 Y20.485 E0.03375
G1 X85.720 Y19.765 E0.02557
G1 X86.594 Y18.873 E0.03915
G1 X87.390 Y18.423 E0.02868
G1 X88.449 Y18.153 E0.03428
G1 X102.085 Y18.160 E0.42752
G1 X102.842 Y18.316 E0.02425
G1 X103.626 Y18.669 E0.02694
G1 X104.494 Y19.401 E0.03560
G1 X105.242 Y20.536 E0.04262
G1 X104.785 Y20.527 F10800.000
G1 F1200
G1 X105.061 Y21.554 E0.03335
G1 X105.061 Y30.148 E0.26945
G1 X104.833 Y31.006 E0.02783
G1 X104.568 Y31.504 E0.01770
G1 X103.754 Y32.349 E0.03680
G1 X103.127 Y32.712 E0.02271
G1 X102.269 Y32.940 E0.02785
G1 X88.243 Y32.940 E0.43976
G1 X87.385 Y32.712 E0.02783
G1 X86.887 Y32.447 E0.01770
G1 X86.042 Y31.633 E0.03680
G1 X85.679 Y31.006 E0.02271
G1 X85.451 Y30.148 E0.02785
G1 X85.451 Y21.553 E0.26947
G1 X85.698 Y20.601 E0.03084
G1 X86.008 Y20.009 E0.02097
G1 X86.844 Y19.156 E0.03744
G1 X87.509 Y18.782 E0.02393
G1 X88.474 Y18.530 E0.03127
G1 X102.029 Y18.533 E0.42502
G1 X102.710 Y18.670 E0.02177
G1 X103.404 Y18.975 E0.02376
G1 X104.229 Y19.671 E0.03383
G1 X104.752 Y20.477 E0.03012
G1 X104.435 Y20.679 F10800.000
G1 F1200
G1 X104.684 Y21.578 E0.02926
G1 X104.684 Y30.122 E0.26787
G1 X104.475 Y30.884 E0.02477
G1 X104.250 Y31.300 E0.01485
G1 X103.502 Y32.067 E0.03357
G1 X103.004 Y32.355 E0.01806
G1 X102.243 Y32.563 E0.02473
G1 X88.269 Y32.563 E0.43813
G1 X87.507 Y32.355 E0.02477
G1 X87.091 Y32.129 E0.01485
G1 X86.324 Y31.382 E0.03357
G1 X86.036 Y30.883 E0.01806
G1 X85.828 Y30.122 E0.02473
G1 X85.828 Y21.578 E0.26787
G1 X86.056 Y20.720 E0.02784
G1 X86.327 Y20.212 E0.01807
G1 X87.093 Y19.441 E0.03405
G1 X87.630 Y19.140 E0.01931
G1 X88.499 Y18.907 E0.02822
G1 X102.010 Y18.911 E0.42361
G1 X102.613 Y19.035 E0.01932
G1 X103.224 Y19.308 E0.02099
G1 X103.962 Y19.938 E0.03042
G1 X104.402 Y20.629 E0.02568
G1 X104.092 Y20.827 F10800.000
G1 F1200
G1 X104.307 Y21.604 E0.02528
G1 X104.307 Y30.095 E0.26622
G1 X104.119 Y30.759 E0.02162
G1 X103.933 Y31.094 E0.01202
G1 X103.253 Y31.784 E0.03038
G1 X102.878 Y31.999 E0.01354
G1 X102.216 Y32.186 E0.02158
G1 X88.296 Y32.186 E0.43645
G1 X87.632 Y31.998 E0.02162
M73 P1 R267
G1 X87.297 Y31.812 E0.01202
G1 X86.607 Y31.132 E0.03038
G1 X86.392 Y30.757 E0.01354
G1 X86.205 Y30.095 E0.02158
G1 X86.205 Y21.604 E0.26622
G1 X86.413 Y20.842 E0.02478
G1 X86.645 Y20.417 E0.01517
G1 X87.339 Y19.727 E0.03070
G1 X87.752 Y19.497 E0.01482
G1 X88.525 Y19.284 E0.02514
G1 X101.989 Y19.288 E0.42215
G1 X102.513 Y19.399 E0.01681
G1 X103.042 Y19.639 E0.01821
G1 X103.694 Y20.205 E0.02705
G1 X104.060 Y20.777 E0.02129
