; generated by PrusaSlicer 2.1.0+win64 on 2019-11-15 at 18:53:03 UTC

; 

; external perimeters extrusion width = 0.60mm
; perimeters extrusion width = 0.43mm
; infill extrusion width = 0.45mm
; solid infill extrusion width = 0.70mm
; top infill extrusion width = 0.43mm
; first layer extrusion width = 0.42mm

M73 P0 R111
M201 X9000 Y9000 Z500 E10000 ; sets maximum accelerations, mm/sec^2
M203 X500 Y500 Z12 E120 ; sets maximum feedrates, mm/sec
M204 P2000 R1500 T2000 ; sets acceleration (P, T) and retract acceleration (R), mm/sec^2
M205 X10.00 Y10.00 Z0.20 E2.50 ; sets the jerk limits, mm/sec
M205 S0 T0 ; sets the minimum extruding and travel feed rate, mm/sec
M107
M862.3 P "MK2SMM" ; printer model check
M862.1 P0.4 ; nozzle diameter check
M115 U3.2.3 ; tell printer latest fw version
M204 S2000 T1500 ; MK2 firmware only supports the old M204 format
; Start G-Code sequence START
T2
M104 S215 ; set extruder temp
M140 S60 ; set bed temp
M190 S60 ; wait for bed temp
M109 S215 ; wait for extruder temp
G21 ; set units to millimeters
G90 ; use absolute coordinates
M83 ; use relative distances for extrusion
G28 W
G80
G92 E0.0
M203 E100 ; set max feedrate
M92 E140 ; E-steps per filament milimeter

G1 Z0.250 F7200.000
G1 X50.0 E80.0 F1000.0
M73 P0 R111
G1 X160.0 E20.0 F1000.0
G1 Z0.200 F7200.000
G1 X220.0 E13 F1000.0
G1 X240.0 E0 F1000.0

G92 E0.0
G21 ; set units to millimeters
G90 ; use absolute coordinates
M83 ; use relative distances for extrusion
T2
M900 K200 ; Filament gcode
;BEFORE_LAYER_CHANGE
G92 E0.0
;0.2


G1 E-4.00000 F4800.00000
G1 Z0.600 F10800.000
;AFTER_LAYER_CHANGE
;0.2
G1 X58.176 Y29.178
G1 Z0.200
G1 E4.00000 F3000.00000
M204 S1000
G1 F1200
G1 X59.165 Y27.559 E0.05948
G1 X60.292 Y26.162 E0.05628
G1 X61.200 Y25.257 E0.04020
G1 X62.604 Y24.133 E0.05639
G1 X63.721 Y23.425 E0.04146
G1 X65.337 Y22.635 E0.05639
G1 X67.043 Y22.055 E0.05651
G1 X68.331 Y21.770 E0.04135
G1 X70.111 Y21.576 E0.05616
G1 X179.238 Y21.561 E3.42160
G1 X180.468 Y21.614 E0.03860
G1 X181.727 Y21.780 E0.03980
G1 X183.430 Y22.192 E0.05494
G1 X184.591 Y22.606 E0.03866
G1 X185.745 Y23.135 E0.03981
G1 X186.816 Y23.747 E0.03866
G1 X187.829 Y24.449 E0.03866
G1 X188.805 Y25.261 E0.03981
G1 X190.025 Y26.519 E0.05494
G1 X190.786 Y27.490 E0.03866
G1 X191.478 Y28.554 E0.03981
G1 X192.057 Y29.642 E0.03866
G1 X192.539 Y30.778 E0.03867
G1 X192.930 Y31.985 E0.03980
G1 X193.289 Y33.700 E0.05494
G1 X193.415 Y34.934 E0.03889
G1 X193.438 Y174.413 E4.37328
G1 X193.373 Y175.619 E0.03785
G1 X193.209 Y176.792 E0.03714
G1 X192.748 Y178.624 E0.05923
G1 X192.320 Y179.771 E0.03840
G1 X191.814 Y180.842 E0.03714
G1 X190.827 Y182.453 E0.05923
G1 X189.696 Y183.851 E0.05637
G1 X188.762 Y184.778 E0.04126
G1 X187.354 Y185.896 E0.05637
G1 X185.816 Y186.827 E0.05637
G1 X184.623 Y187.382 E0.04126
G1 X182.919 Y187.956 E0.05637
G1 X181.156 Y188.310 E0.05638
G1 X179.849 Y188.426 E0.04114
G1 X70.659 Y188.438 E3.42360
G1 X69.469 Y188.381 E0.03733
G1 X68.294 Y188.224 E0.03719
G1 X66.456 Y187.773 E0.05931
G1 X65.308 Y187.353 E0.03834
G1 X64.233 Y186.853 E0.03719
G1 X62.602 Y185.866 E0.05977
G1 X61.178 Y184.723 E0.05726
G1 X59.929 Y183.426 E0.05645
G1 X59.122 Y182.380 E0.04142
G1 X58.186 Y180.842 E0.05645
G1 X57.453 Y179.197 E0.05645
G1 X57.051 Y177.942 E0.04131
G1 X56.693 Y176.178 E0.05645
G1 X56.562 Y174.371 E0.05680
G1 X56.562 Y35.622 E4.35037
G1 X56.624 Y34.416 E0.03786
G1 X56.786 Y33.236 E0.03734
G1 X57.245 Y31.399 E0.05936
G1 X57.670 Y30.252 E0.03837
G1 X58.151 Y29.232 E0.03535
G1 E-2.40000 F4800.00000
G1 F8640
G1 X59.165 Y27.559 E-1.03265
G1 X59.745 Y26.840 E-0.48735
G1 E-0.08000 F4800.00000
G1 Z0.800 F10800.000
G1 X81.997 Y33.644
G1 Z0.200
G1 E4.00000 F3000.00000
G1 F1200
G1 X168.003 Y33.644 E2.69665
G1 X168.392 Y32.236 E0.04581
G1 X168.737 Y31.309 E0.03100
G1 X169.164 Y30.410 E0.03121
G1 X169.398 Y29.989 E0.01511
G1 X169.938 Y29.153 E0.03120
G1 X170.544 Y28.371 E0.03101
G1 X171.215 Y27.645 E0.03100
G1 X171.947 Y26.980 E0.03101
G1 X172.734 Y26.381 E0.03101
G1 X173.569 Y25.852 E0.03101
G1 X174.449 Y25.396 E0.03107
G1 X175.131 Y25.110 E0.02319
G1 X175.828 Y24.863 E0.02319
G1 X176.786 Y24.607 E0.03107
G1 X177.759 Y24.435 E0.03101
G1 X178.745 Y24.349 E0.03100
G1 X179.740 Y24.348 E0.03120
G1 X180.221 Y24.379 E0.01511
G1 X181.214 Y24.508 E0.03140
G1 X181.693 Y24.602 E0.01531
G1 X182.167 Y24.716 E0.01531
G1 X183.124 Y25.015 E0.03140
G1 X183.573 Y25.188 E0.01511
G1 X184.477 Y25.605 E0.03121
G1 X185.341 Y26.099 E0.03120
G1 X185.748 Y26.368 E0.01531
G1 X186.144 Y26.654 E0.01531
G1 X186.914 Y27.294 E0.03140
G1 X187.265 Y27.625 E0.01511
G1 X187.942 Y28.354 E0.03120
G1 X188.549 Y29.134 E0.03100
G1 X189.087 Y29.964 E0.03101
G1 X189.554 Y30.843 E0.03120
G1 X189.752 Y31.282 E0.01511
G1 X190.103 Y32.220 E0.03140
G1 X190.243 Y32.682 E0.01511
G1 X190.469 Y33.657 E0.03140
G1 X190.548 Y34.133 E0.01511
G1 X190.645 Y35.123 E0.03120
G1 X190.657 Y36.118 E0.03120
G1 X190.631 Y36.606 E0.01531
G1 X190.584 Y37.092 E0.01531
G1 X190.422 Y38.080 E0.03140
G1 X190.314 Y38.550 E0.01511
G1 X190.026 Y39.509 E0.03140
G1 X189.858 Y39.960 E0.01511
G1 X189.450 Y40.868 E0.03120
G1 X188.966 Y41.738 E0.03120
G1 X188.704 Y42.143 E0.01511
G1 X188.108 Y42.947 E0.03140
G1 X187.792 Y43.319 E0.01531
G1 X187.460 Y43.677 E0.01531
G1 X186.738 Y44.362 E0.03120
G1 X185.959 Y44.982 E0.03120
G1 X185.559 Y45.261 E0.01531
G1 X185.146 Y45.522 E0.01531
G1 X184.266 Y46.001 E0.03140
G1 X183.829 Y46.204 E0.01511
G1 X182.895 Y46.565 E0.03140
G1 X182.435 Y46.709 E0.01511
G1 X181.462 Y46.946 E0.03140
G1 X180.988 Y47.030 E0.01511
G1 X179.450 Y47.198 E0.04851
G1 X179.450 Y162.802 E3.62469
G1 X180.980 Y162.970 E0.04828
G1 X181.950 Y163.161 E0.03098
G1 X182.899 Y163.437 E0.03098
G1 X183.820 Y163.793 E0.03098
G1 X184.707 Y164.227 E0.03098
G1 X185.554 Y164.737 E0.03098
G1 X186.353 Y165.317 E0.03098
G1 X187.104 Y165.969 E0.03118
G1 X187.446 Y166.308 E0.01509
G1 X188.106 Y167.052 E0.03118
G1 X188.695 Y167.845 E0.03098
G1 X189.214 Y168.686 E0.03098
G1 X189.658 Y169.568 E0.03098
G1 X190.026 Y170.492 E0.03118
G1 X190.175 Y170.950 E0.01509
G1 X190.421 Y171.913 E0.03118
G1 X190.581 Y172.888 E0.03098
G1 X190.657 Y173.879 E0.03118
G1 X190.662 Y174.361 E0.01509
G1 X190.609 Y175.354 E0.03118
G1 X190.470 Y176.338 E0.03118
G1 X190.372 Y176.810 E0.01509
G1 X190.105 Y177.774 E0.03138
G1 X189.765 Y178.688 E0.03058
G1 X189.335 Y179.592 E0.03138
G1 X189.101 Y180.013 E0.01509
G1 X188.559 Y180.853 E0.03138
G1 X188.272 Y181.240 E0.01509
G1 X187.625 Y182.003 E0.03138
G1 X187.290 Y182.350 E0.01509
G1 X186.555 Y183.019 E0.03118
G1 X185.769 Y183.617 E0.03098
G1 X184.929 Y184.150 E0.03118
G1 X184.506 Y184.380 E0.01509
G1 X183.599 Y184.802 E0.03138
G1 X183.150 Y184.976 E0.01509
G1 X182.195 Y185.276 E0.03138
G1 X181.722 Y185.392 E0.01529
G1 X181.243 Y185.487 E0.01529
G1 X180.257 Y185.618 E0.03118
G1 X179.264 Y185.663 E0.03118
G1 X178.783 Y185.653 E0.01509
G1 X177.792 Y185.569 E0.03118
G1 X176.812 Y185.399 E0.03118
G1 X176.344 Y185.286 E0.01509
G1 X175.389 Y184.990 E0.03138
G1 X174.939 Y184.817 E0.01509
G1 X174.030 Y184.399 E0.03138
G1 X173.601 Y184.167 E0.01529
G1 X173.183 Y183.916 E0.01529
G1 X172.364 Y183.351 E0.03118
G1 X171.598 Y182.717 E0.03118
G1 X171.248 Y182.387 E0.01509
G1 X170.566 Y181.655 E0.03138
G1 X170.257 Y181.277 E0.01529
G1 X169.965 Y180.886 E0.01529
G1 X169.420 Y180.047 E0.03138
G1 X169.184 Y179.628 E0.01509
G1 X168.752 Y178.725 E0.03138
G1 X168.572 Y178.279 E0.01509
G1 X168.262 Y177.334 E0.03118
G1 X167.925 Y175.894 E0.04637
G1 X82.076 Y175.894 E2.69174
M73 P0 R110
G1 X81.738 Y177.335 E0.04641
G1 X81.427 Y178.281 E0.03122
G1 X81.247 Y178.728 E0.01511
G1 X80.817 Y179.626 E0.03122
G1 X80.313 Y180.478 E0.03102
G1 X79.738 Y181.283 E0.03102
G1 X79.095 Y182.035 E0.03102
G1 X78.390 Y182.728 E0.03102
G1 X77.627 Y183.358 E0.03102
G1 X76.812 Y183.919 E0.03102
G1 X75.952 Y184.408 E0.03102
G1 X75.053 Y184.820 E0.03102
G1 X74.121 Y185.153 E0.03102
G1 X73.164 Y185.404 E0.03102
G1 X72.189 Y185.571 E0.03102
G1 X71.197 Y185.654 E0.03122
G1 X70.715 Y185.663 E0.01511
G1 X69.720 Y185.616 E0.03122
G1 X68.740 Y185.484 E0.03102
G1 X67.768 Y185.266 E0.03122
G1 X67.299 Y185.129 E0.01531
G1 X66.837 Y184.971 E0.01531
G1 X65.918 Y184.589 E0.03122
G1 X65.035 Y184.128 E0.03122
G1 X64.621 Y183.877 E0.01518
G1 X64.006 Y183.454 E0.02340
G1 X63.422 Y182.999 E0.02320
G1 X62.686 Y182.326 E0.03129
G1 X62.348 Y181.973 E0.01531
G1 X62.025 Y181.607 E0.01531
G1 X61.417 Y180.818 E0.03122
G1 X60.884 Y179.985 E0.03102
G1 X60.423 Y179.107 E0.03109
G1 X60.132 Y178.427 E0.02320
G1 X59.879 Y177.725 E0.02340
G1 X59.742 Y177.260 E0.01518
G1 X59.520 Y176.283 E0.03142
G1 X59.444 Y175.807 E0.01511
G1 X59.352 Y174.816 E0.03122
G1 X59.346 Y173.820 E0.03122
G1 X59.374 Y173.332 E0.01532
G1 X59.424 Y172.846 E0.01531
G1 X59.590 Y171.865 E0.03122
G1 X59.840 Y170.901 E0.03122
G1 X59.993 Y170.437 E0.01531
G1 X60.166 Y169.980 E0.01531
G1 X60.582 Y169.068 E0.03142
G1 X60.810 Y168.644 E0.01511
G1 X61.336 Y167.799 E0.03122
G1 X61.934 Y167.002 E0.03122
G1 X62.248 Y166.637 E0.01511
G1 X62.949 Y165.920 E0.03142
G1 X63.312 Y165.594 E0.01531
G1 X63.690 Y165.284 E0.01531
G1 X64.498 Y164.703 E0.03122
G1 X65.354 Y164.194 E0.03122
G1 X65.783 Y163.975 E0.01511
G1 X66.704 Y163.579 E0.03142
G1 X67.164 Y163.415 E0.01531
G1 X67.631 Y163.272 E0.01531
G1 X68.606 Y163.041 E0.03142
G1 X69.081 Y162.960 E0.01511
G1 X70.624 Y162.801 E0.04862
G1 X70.624 Y47.199 E3.62461
G1 X69.087 Y47.041 E0.04845
G1 X68.114 Y46.854 E0.03105
G1 X67.162 Y46.584 E0.03105
G1 X66.230 Y46.229 E0.03125
G1 X65.791 Y46.029 E0.01513
G1 X64.908 Y45.554 E0.03145
G1 X64.499 Y45.298 E0.01513
G1 X63.690 Y44.716 E0.03125
G1 X62.939 Y44.070 E0.03105
G1 X62.246 Y43.360 E0.03112
G1 X61.772 Y42.791 E0.02322
G1 X61.332 Y42.195 E0.02322
G1 X60.808 Y41.353 E0.03111
G1 X60.360 Y40.470 E0.03105
G1 X59.990 Y39.551 E0.03105
G1 X59.701 Y38.604 E0.03105
G1 X59.493 Y37.629 E0.03125
G1 X59.424 Y37.152 E0.01513
G1 X59.345 Y36.158 E0.03125
G1 X59.353 Y35.168 E0.03105
G1 X59.446 Y34.182 E0.03105
G1 X59.624 Y33.208 E0.03105
G1 X59.888 Y32.247 E0.03125
G1 X60.046 Y31.791 E0.01513
G1 X60.433 Y30.873 E0.03125
G1 X60.894 Y29.997 E0.03105
G1 X61.430 Y29.164 E0.03105
G1 X62.040 Y28.376 E0.03125
G1 X62.359 Y28.014 E0.01513
G1 X63.066 Y27.312 E0.03125
G1 X63.827 Y26.678 E0.03105
G1 X64.645 Y26.108 E0.03125
G1 X65.058 Y25.858 E0.01513
G1 X65.942 Y25.400 E0.03125
G1 X66.858 Y25.022 E0.03105
G1 X67.802 Y24.725 E0.03105
G1 X68.769 Y24.511 E0.03105
G1 X69.757 Y24.381 E0.03125
G1 X70.241 Y24.349 E0.01520
G1 X70.988 Y24.343 E0.02342
G1 X71.727 Y24.379 E0.02322
G1 X72.712 Y24.507 E0.03111
G1 X73.679 Y24.720 E0.03105
G1 X74.624 Y25.015 E0.03105
G1 X75.540 Y25.391 E0.03105
G1 X76.420 Y25.846 E0.03105
G1 X77.257 Y26.374 E0.03105
G1 X78.045 Y26.974 E0.03105
G1 X78.779 Y27.639 E0.03105
G1 X79.451 Y28.366 E0.03105
G1 X80.059 Y29.148 E0.03105
G1 X80.596 Y29.979 E0.03105
G1 X81.062 Y30.860 E0.03125
G1 X81.260 Y31.301 E0.01513
G1 X81.608 Y32.235 E0.03125
G1 X81.981 Y33.586 E0.04397
G1 X82.284 Y33.267 F10800.000
G1 F1200
G1 X167.716 Y33.267 E2.67865
G1 X168.033 Y32.120 E0.03733
G1 X168.390 Y31.162 E0.03203
G1 X168.829 Y30.237 E0.03210
G1 X169.075 Y29.795 E0.01588
G1 X169.630 Y28.935 E0.03210
G1 X170.256 Y28.127 E0.03203
G1 X170.950 Y27.377 E0.03203
G1 X171.706 Y26.690 E0.03203
G1 X172.518 Y26.071 E0.03203
G1 X173.381 Y25.525 E0.03203
G1 X174.289 Y25.055 E0.03205
G1 X174.995 Y24.758 E0.02400
G1 X175.716 Y24.502 E0.02400
G1 X176.704 Y24.238 E0.03205
G1 X177.710 Y24.061 E0.03203
G1 X178.728 Y23.972 E0.03203
G1 X179.752 Y23.971 E0.03210
G1 X180.257 Y24.003 E0.01588
G1 X181.275 Y24.135 E0.03217
G1 X181.774 Y24.233 E0.01595
G1 X182.268 Y24.353 E0.01595
G1 X183.248 Y24.658 E0.03217
G1 X183.720 Y24.840 E0.01588
G1 X184.650 Y25.269 E0.03210
G1 X185.539 Y25.777 E0.03210
G1 X185.963 Y26.058 E0.01595
G1 X186.375 Y26.356 E0.01595
G1 X187.165 Y27.011 E0.03217
G1 X187.533 Y27.359 E0.01588
G1 X188.229 Y28.110 E0.03210
G1 X188.857 Y28.916 E0.03203
G1 X189.413 Y29.773 E0.03203
G1 X189.893 Y30.677 E0.03210
G1 X190.101 Y31.139 E0.01588
G1 X190.461 Y32.100 E0.03217
G1 X190.607 Y32.584 E0.01588
G1 X190.839 Y33.584 E0.03217
G1 X190.922 Y34.083 E0.01588
G1 X191.022 Y35.102 E0.03210
G1 X191.034 Y36.126 E0.03210
G1 X191.007 Y36.634 E0.01595
G1 X190.958 Y37.140 E0.01595
G1 X190.793 Y38.153 E0.03217
G1 X190.679 Y38.646 E0.01588
G1 X190.384 Y39.629 E0.03217
G1 X190.207 Y40.104 E0.01588
G1 X189.788 Y41.038 E0.03210
G1 X189.289 Y41.932 E0.03210
G1 X189.015 Y42.357 E0.01588
G1 X188.403 Y43.181 E0.03217
G1 X188.074 Y43.569 E0.01595
G1 X187.729 Y43.943 E0.01595
G1 X186.986 Y44.647 E0.03210
G1 X186.185 Y45.285 E0.03210
G1 X185.767 Y45.575 E0.01595
G1 X185.337 Y45.847 E0.01595
G1 X184.436 Y46.338 E0.03217
G1 X183.977 Y46.551 E0.01588
G1 X183.020 Y46.921 E0.03217
G1 X182.537 Y47.073 E0.01588
G1 X181.540 Y47.315 E0.03217
G1 X181.041 Y47.403 E0.01588
G1 X179.827 Y47.536 E0.03829
G1 X179.827 Y162.464 E3.60349
G1 X181.038 Y162.596 E0.03819
G1 X182.039 Y162.795 E0.03200
G1 X183.019 Y163.079 E0.03200
G1 X183.971 Y163.447 E0.03200
G1 X184.888 Y163.896 E0.03200
G1 X185.762 Y164.422 E0.03200
G1 X186.588 Y165.022 E0.03200
G1 X187.360 Y165.693 E0.03207
G1 X187.720 Y166.049 E0.01586
G1 X188.399 Y166.814 E0.03207
G1 X189.008 Y167.633 E0.03200
G1 X189.544 Y168.501 E0.03200
G1 X190.002 Y169.413 E0.03200
G1 X190.381 Y170.363 E0.03207
G1 X190.538 Y170.845 E0.01586
G1 X190.790 Y171.836 E0.03207
G1 X190.956 Y172.843 E0.03200
G1 X191.034 Y173.863 E0.03207
G1 X191.040 Y174.369 E0.01586
G1 X190.985 Y175.390 E0.03207
G1 X190.842 Y176.403 E0.03207
G1 X190.739 Y176.898 E0.01586
G1 X190.465 Y177.886 E0.03215
G1 X190.298 Y178.366 E0.01593
G1 X190.111 Y178.839 E0.01593
G1 X189.671 Y179.765 E0.03214
G1 X189.425 Y180.207 E0.01586
G1 X188.869 Y181.068 E0.03214
G1 X188.567 Y181.474 E0.01586
G1 X187.905 Y182.257 E0.03214
G1 X187.553 Y182.620 E0.01586
G1 X186.796 Y183.309 E0.03207
G1 X185.984 Y183.927 E0.03200
G1 X185.120 Y184.475 E0.03207
G1 X184.676 Y184.717 E0.01586
G1 X183.746 Y185.149 E0.03214
G1 X183.275 Y185.332 E0.01586
G1 X182.297 Y185.639 E0.03214
G1 X181.803 Y185.760 E0.01593
G1 X181.305 Y185.860 E0.01593
G1 X180.291 Y185.994 E0.03207
G1 X179.269 Y186.040 E0.03207
G1 X178.763 Y186.030 E0.01586
G1 X177.744 Y185.943 E0.03207
G1 X176.736 Y185.769 E0.03207
G1 X176.244 Y185.650 E0.01586
G1 X175.265 Y185.346 E0.03214
G1 X174.793 Y185.165 E0.01586
G1 X173.861 Y184.736 E0.03214
G1 X173.414 Y184.494 E0.01593
G1 X172.978 Y184.233 E0.01593
G1 X172.137 Y183.652 E0.03207
G1 X171.348 Y183.000 E0.03207
G1 X170.980 Y182.653 E0.01586
G1 X170.282 Y181.903 E0.03214
G1 X169.960 Y181.509 E0.01593
G1 X169.656 Y181.102 E0.01593
G1 X169.097 Y180.243 E0.03214
G1 X168.849 Y179.802 E0.01586
G1 X168.406 Y178.877 E0.03214
G1 X168.218 Y178.408 E0.01586
G1 X167.899 Y177.436 E0.03207
G1 X167.626 Y176.271 E0.03751
G1 X82.375 Y176.271 E2.67300
G1 X82.101 Y177.437 E0.03755
G1 X81.782 Y178.410 E0.03212
G1 X81.593 Y178.880 E0.01588
G1 X81.150 Y179.804 E0.03212
G1 X80.630 Y180.684 E0.03205
G1 X80.035 Y181.515 E0.03205
G1 X79.371 Y182.292 E0.03205
G1 X78.642 Y183.009 E0.03205
G1 X77.854 Y183.659 E0.03205
G1 X77.013 Y184.239 E0.03205
G1 X76.124 Y184.744 E0.03205
G1 X75.195 Y185.170 E0.03205
G1 X74.232 Y185.514 E0.03205
G1 X73.244 Y185.773 E0.03205
G1 X72.236 Y185.946 E0.03205
G1 X71.216 Y186.031 E0.03212
G1 X70.709 Y186.040 E0.01588
G1 X69.686 Y185.992 E0.03212
G1 X68.673 Y185.855 E0.03205
G1 X67.673 Y185.631 E0.03212
G1 X67.185 Y185.488 E0.01596
G1 X66.704 Y185.324 E0.01596
G1 X65.758 Y184.931 E0.03212
G1 X64.849 Y184.457 E0.03212
G1 X64.416 Y184.194 E0.01591
G1 X63.783 Y183.758 E0.02408
G1 X63.179 Y183.288 E0.02401
G1 X62.422 Y182.596 E0.03214
G1 X62.070 Y182.229 E0.01596
G1 X61.734 Y181.847 E0.01596
G1 X61.109 Y181.035 E0.03212
G1 X60.557 Y180.175 E0.03205
G1 X60.082 Y179.269 E0.03207
G1 X59.781 Y178.565 E0.02401
G1 X59.521 Y177.842 E0.02408
G1 X59.377 Y177.356 E0.01591
G1 X59.150 Y176.354 E0.03219
G1 X59.070 Y175.854 E0.01588
G1 X58.975 Y174.834 E0.03212
G1 X58.969 Y173.810 E0.03212
G1 X58.998 Y173.302 E0.01596
G1 X59.050 Y172.796 E0.01596
G1 X59.221 Y171.786 E0.03212
