; generated by Slic3r Prusa Edition 1.41.2+win64 on 2019-02-10 at 16:17:44

; 

; external perimeters extrusion width = 0.60mm
; perimeters extrusion width = 0.43mm
; infill extrusion width = 0.45mm
; solid infill extrusion width = 0.70mm
; top infill extrusion width = 0.43mm
; first layer extrusion width = 0.42mm

; external perimeters extrusion width = 0.60mm
; perimeters extrusion width = 0.43mm
; infill extrusion width = 0.45mm
; solid infill extrusion width = 0.70mm
; top infill extrusion width = 0.43mm
; first layer extrusion width = 0.42mm

M201 X9000 Y9000 Z500 E10000 ; sets maximum accelerations, mm/sec^2
M203 X500 Y500 Z12 E120 ; sets maximum feedrates, mm/sec
M204 P2000 R1500 T2000 ; sets acceleration (P, T) and retract acceleration (R), mm/sec^2
M205 X10.00 Y10.00 Z0.20 E2.50 ; sets the jerk limits, mm/sec
M205 S0 T0 ; sets the minimum extruding and travel feed rate, mm/sec
M107
M115 U3.1.0 ; tell printer latest fw version
M204 S2000 T1500 ; MK2 firmware only supports the old M204 format
; Start G-Code sequence START
T3
M104 S255 ; set extruder temp
M140 S100 ; set bed temp
M190 S100 ; wait for bed temp
M109 S255 ; wait for extruder temp
G21 ; set units to millimeters
G90 ; use absolute coordinates
M83 ; use relative distances for extrusion
G28 W
G80
G92 E0.0
M203 E100 ; set max feedrate
M92 E140 ; E-steps per filament milimeter

G92 E0.0
G21 ; set units to millimeters
G90 ; use absolute coordinates
M83 ; use relative distances for extrusion
G1 Z0.200 F10800.000
M900 K0
;--------------------
; CP PRIMING START
;--------------------
M220 S100
G1 X5.000 Y0.260 F7200
M907 E750
T3
M220 S100
G4 S0
; CP TOOLCHANGE LOAD
G1 E18.0000 F180
G1 X64.625 E63.0000 F2313
G1 X5.000 E9.0000 F1126
M907 E550
; CP TOOLCHANGE WIPE
G1 X65.000 E2.6908 F800
G1 X64.250 Y0.760 E0.0404
G1 X5.000 E2.6572 F900
G1 X5.750 Y1.260 E0.0404
G1 X64.250 E2.6236 F1100
G1 Y1.760 E0.0224
G1 X5.750 E2.6236 F2100
G1 X64.250 F7200
; CP TOOLCHANGE UNLOAD
G1 X5.500 Y2.560
G1 F3078
G1 X18.312 E0.5935
G1 F3252
G1 X31.847 E0.6270
G1 F3774
G1 X47.554 E0.7276
G1 F4452
G1 X64.500 E0.7850
G1 Y3.160 F7200
G1 F4452
G1 X62.916 E0.0734
G1 F4852
G1 X42.722 E0.9354
G1 F4956
G1 X22.093 E0.9556
G1 F5061
G1 X5.500 E0.7686
G1 Y3.760 F7200
G1 F5061
G1 X9.970 E0.2071
G1 F5269
G1 X31.902 E1.0159
G1 F5461
G1 X54.630 E1.0528
G1 F5565
G1 X64.500 E0.4572
G1 Y4.360 F7200
G1 F5565
G1 X51.208 E0.6157
G1 F5634
G1 X27.756 E1.0863
G1 F5669
G1 X5.500 E1.0309
G1 Y4.960 F7200
G1 F5669
G1 X6.841 E0.0621
G1 E-15.0000 F6000
G1 E-55.3000 F5400
G1 E-15.8000 F2700
G1 E-7.9000 F1620
M104 S255
G1 Y5.560
G1 X64.500 E5.0000 F1528
G1 X6.841 E-5.0000 F1647
G1 X64.500 E5.0000 F1766
G1 X6.841 E-5.0000 F1885
G1 X64.500 E5.0000 F2004
G1 X6.841 E-5.0000 F2123
G1 X64.500 E5.0000 F2242
G1 X6.841 E-5.0000 F2361
G1 E2.0000 F2000
G1 Y5.510 F2400
G4 S0
G1 X65.000 Y0.260 F7200
T0
M220 S100
G4 S0
; CP TOOLCHANGE LOAD
G1 E18.0000 F180
G1 X124.625 E63.0000 F2313
G1 X65.000 E9.0000 F1126
M907 E550
; CP TOOLCHANGE WIPE
G1 X125.000 E2.6908 F800
G1 X124.250 Y0.760 E0.0404
G1 X65.000 E2.6572 F900
G1 X65.750 Y1.260 E0.0404
G1 X124.250 E2.6236 F1100
G1 Y1.760 E0.0224
G1 X65.750 E2.6236 F2100
G1 Y2.260 E0.0224
G1 X125.000 E2.6572 F2125
G1 X124.250 Y2.760 E0.0404
G1 X65.000 E2.6572 F2150
G1 X65.750 Y3.260 E0.0404
G1 X124.250 E2.6236 F2175
G1 Y3.760 E0.0224
G1 X65.750 E2.6236 F2200
G1 Y4.260 E0.0224
G1 X125.000 E2.6572 F2225
G1 X124.250 Y4.760 E0.0404
G1 X65.000 E2.6572 F2250
G1 X65.750 Y5.260 E0.0404
G1 X124.250 E2.6236 F2275
G1 Y5.760 E0.0224
G1 X65.750 E2.6236 F2300
G1 Y6.260 E0.0224
G1 X125.000 E2.6572 F2325
G1 X124.250 Y6.760 E0.0404
G1 X65.000 E2.6572 F2350
G1 X65.750 Y7.260 E0.0404
G1 X124.250 E2.6236 F2375
G1 Y7.760 E0.0224
G1 X65.750 E2.6236 F2400
G1 Y8.260 E0.0224
G1 X125.000 E2.6572
G1 X124.250 Y8.760 E0.0404
G1 X65.000 E2.6572
G1 X65.750 Y9.260 E0.0404
G1 X124.250 E2.6236
G1 Y9.760 E0.0224
G1 X65.750 E2.6236
G1 Y10.260 E0.0224
G1 X125.000 E2.6572
G1 X124.250 Y10.760 E0.0404
G1 X65.000 E2.6572
G1 X65.750 Y11.260 E0.0404
G1 X124.250 E2.6236
G1 Y11.760 E0.0224
G1 X65.750 E2.6236
G1 Y12.260 E0.0224
G1 X125.000 E2.6572
G1 X124.250 Y12.760 E0.0404
G1 X65.000 E2.6572
G1 X124.250 F7200
M907 E550
G1 F6000
G4 S0
G92 E0
; CP PRIMING END
;------------------


G1 E-2.40000 F4800.00000
G1 F8640;_WIPE
G1 X121.370 Y12.760 E-1.52000
G1 E-0.08000 F4800.00000
G1 Z0.800 F10800.000
M300 S800 P500
M1 S10
;BEFORE_LAYER_CHANGE
G92 E0.0
;0.2


G1 Z0.200 F10800.000
;AFTER_LAYER_CHANGE
;0.2
M900 K0
G1 Z0.800
G1 X233.000 Y140.000
G1 Z0.200
G1 E4.00000 F3000.00000
;-------------------------------------
; CP WIPE TOWER FIRST LAYER BRIM START
G1 X233.000 Y155.000 E0.8551 F2400
G1 X230.500 Y155.500  F7000
G1 Y139.500 E0.6689 F2100
G1 X169.500 E2.5502
G1 Y155.500 E0.6689
G1 X230.500 E2.5502
G1 X231.000 Y156.000  F7000
G1 Y139.000 E0.7107 F2100
G1 X169.000 E2.5920
G1 Y156.000 E0.7107
G1 X231.000 E2.5920
G1 X231.500 Y156.500  F7000
G1 Y138.500 E0.7525 F2100
G1 X168.500 E2.6338
G1 Y156.500 E0.7525
G1 X231.500 E2.6338
G1 X232.000 Y157.000  F7000
G1 Y138.000 E0.7943 F2100
G1 X168.000 E2.6756
G1 Y157.000 E0.7943
G1 X232.000 E2.6756
G1 X230.000 Y155.000  F7000
G1 X170.000
G1 X230.000
; CP WIPE TOWER FIRST LAYER BRIM END
;-----------------------------------

M900 K200; Filament gcode
G1 E-2.40000 F4800.00000
G1 F8640
G1 X227.120 Y155.000 E-1.52000
G1 E-0.08000 F4800.00000
G1 Z0.800 F10800.000
G1 X167.208 Y120.754
G1 Z0.200
G1 E4.00000 F3000.00000
M204 S1000
G1 F1200
G1 X166.192 Y122.519 E0.06387
G1 X165.042 Y124.232 E0.06468
G1 X163.457 Y126.222 E0.07976
G1 X162.067 Y127.695 E0.06352
G1 X160.627 Y129.004 E0.06100
G1 X159.114 Y130.180 E0.06008
G1 X157.939 Y130.969 E0.04440
G1 X156.339 Y131.889 E0.05786
G1 X154.654 Y132.681 E0.05838
G1 X153.291 Y133.200 E0.04572
G1 X151.576 Y133.710 E0.05610
G1 X150.229 Y134.003 E0.04323
G1 X148.467 Y134.248 E0.05579
G1 X146.567 Y134.342 E0.05964
G1 X102.845 Y134.830 E1.37096
G1 X100.411 Y134.608 E0.07664
G1 X98.361 Y134.192 E0.06557
G1 X96.026 Y133.452 E0.07681
G1 X93.721 Y132.418 E0.07920
G1 X91.575 Y131.153 E0.07810
G1 X89.859 Y129.901 E0.06661
G1 X87.947 Y128.207 E0.08011
G1 X86.182 Y126.299 E0.08148
G1 X84.487 Y124.059 E0.08807
G1 X82.799 Y121.266 E0.10232
G1 X81.400 Y118.264 E0.10386
G1 X80.436 Y115.546 E0.09040
G1 X79.603 Y112.252 E0.10654
G1 X79.145 Y109.348 E0.09217
G1 X78.916 Y105.956 E0.10661
G1 X79.012 Y102.539 E0.10719
G1 X79.353 Y99.639 E0.09154
G1 X80.059 Y96.279 E0.10763
G1 X81.085 Y93.044 E0.10642
G1 X82.189 Y90.443 E0.08861
G1 X83.757 Y87.566 E0.10271
G1 X85.340 Y85.255 E0.08784
G1 X87.395 Y82.851 E0.09915
G1 X89.372 Y80.998 E0.08496
G1 X90.511 Y80.096 E0.04557
G1 X92.012 Y79.064 E0.05710
G1 X93.620 Y78.135 E0.05824
G1 X94.945 Y77.494 E0.04614
G1 X96.625 Y76.830 E0.05665
G1 X98.356 Y76.309 E0.05668
G1 X99.776 Y75.998 E0.04558
G1 X101.495 Y75.758 E0.05440
G1 X103.371 Y75.660 E0.05890
G1 X146.507 Y75.159 E1.35262
G1 X148.400 Y75.247 E0.05941
G1 X150.292 Y75.510 E0.05990
G1 X152.148 Y75.944 E0.05975
G1 X154.047 Y76.577 E0.06276
G1 X155.753 Y77.318 E0.05832
G1 X157.543 Y78.290 E0.06387
G1 X159.512 Y79.613 E0.07439
G1 X161.085 Y80.892 E0.06357
G1 X162.523 Y82.265 E0.06231
G1 X163.908 Y83.809 E0.06506
G1 X165.402 Y85.780 E0.07753
G1 X166.534 Y87.547 E0.06580
G1 X167.524 Y89.357 E0.06469
G1 X168.409 Y91.274 E0.06619
G1 X169.334 Y93.731 E0.08232
G1 X169.941 Y95.779 E0.06697
G1 X170.421 Y97.869 E0.06724
G1 X170.839 Y100.510 E0.08383
G1 X171.030 Y102.660 E0.06768
G1 X171.090 Y104.832 E0.06812
G1 X170.984 Y107.507 E0.08396
G1 X170.755 Y109.643 E0.06734
G1 X170.398 Y111.750 E0.06703
G1 X169.762 Y114.377 E0.08474
G1 X169.112 Y116.419 E0.06719
G1 X168.129 Y118.871 E0.08281
G1 X167.235 Y120.700 E0.06385
G1 E-2.40000 F4800.00000
G1 F8640
G1 X166.192 Y122.519 E-1.10674
G1 X165.755 Y123.169 E-0.41326
G1 E-0.08000 F4800.00000
G1 Z0.800 F10800.000
G1 X125.114 Y118.469
G1 Z0.200
G1 E4.00000 F3000.00000
G1 F1200
G1 X124.480 Y119.874 E0.04833
G1 X123.872 Y121.081 E0.04237
G1 X123.210 Y122.261 E0.04244
G1 X122.512 Y123.382 E0.04139
G1 X121.769 Y124.463 E0.04115
G1 X120.978 Y125.507 E0.04106
G1 X120.142 Y126.507 E0.04088
G1 X119.244 Y127.480 E0.04152
G1 X118.320 Y128.386 E0.04057
G1 X117.371 Y129.226 E0.03974
G1 X116.377 Y130.017 E0.03985
G1 X115.329 Y130.764 E0.04033
G1 X114.227 Y131.460 E0.04087
G1 X113.120 Y132.076 E0.03973
G1 X111.994 Y132.620 E0.03921
G1 X110.832 Y133.102 E0.03944
G1 X109.647 Y133.514 E0.03935
G1 X108.442 Y133.853 E0.03923
G1 X107.234 Y134.117 E0.03879
G1 X105.990 Y134.310 E0.03947
G1 X104.743 Y134.425 E0.03927
G1 X103.497 Y134.463 E0.03908
G1 X102.240 Y134.424 E0.03943
G1 X100.987 Y134.307 E0.03947
G1 X99.732 Y134.110 E0.03983
G1 X98.547 Y133.850 E0.03803
G1 X97.387 Y133.524 E0.03778
G1 X96.180 Y133.107 E0.04003
G1 X95.007 Y132.621 E0.03981
G1 X93.863 Y132.067 E0.03988
G1 X92.766 Y131.457 E0.03933
G1 X91.700 Y130.784 E0.03953
G1 X90.659 Y130.045 E0.04003
G1 X89.648 Y129.241 E0.04049
G1 X88.679 Y128.385 E0.04054
G1 X87.741 Y127.465 E0.04120
G1 X86.866 Y126.517 E0.04047
G1 X86.044 Y125.535 E0.04013
G1 X85.243 Y124.481 E0.04151
G1 X84.489 Y123.384 E0.04174
G1 X83.776 Y122.237 E0.04233
G1 X83.115 Y121.057 E0.04242
G1 X82.512 Y119.859 E0.04206
G1 X81.972 Y118.659 E0.04125
G1 X81.478 Y117.432 E0.04147
G1 X81.016 Y116.126 E0.04342
G1 X80.612 Y114.813 E0.04310
G1 X80.261 Y113.483 E0.04311
G1 X79.962 Y112.126 E0.04358
G1 X79.720 Y110.769 E0.04322
G1 X79.529 Y109.385 E0.04379
G1 X79.393 Y108.001 E0.04362
G1 X79.312 Y106.602 E0.04391
G1 X79.287 Y105.197 E0.04407
G1 X79.315 Y103.827 E0.04297
G1 X79.397 Y102.453 E0.04317
G1 X79.533 Y101.077 E0.04335
G1 X79.718 Y99.739 E0.04236
G1 X79.956 Y98.405 E0.04248
G1 X80.254 Y97.048 E0.04357
G1 X80.601 Y95.726 E0.04285
G1 X81.006 Y94.405 E0.04331
G1 X81.466 Y93.100 E0.04340
G1 X81.971 Y91.842 E0.04250
G1 X82.537 Y90.589 E0.04310
G1 X83.147 Y89.383 E0.04237
G1 X83.781 Y88.255 E0.04056
G1 X84.469 Y87.147 E0.04093
G1 X85.216 Y86.057 E0.04142
G1 X86.015 Y85.002 E0.04150
G1 X86.865 Y83.984 E0.04158
G1 X87.761 Y83.014 E0.04139
G1 X88.686 Y82.108 E0.04060
G1 X89.663 Y81.246 E0.04085
G1 X90.676 Y80.443 E0.04053
G1 X91.692 Y79.722 E0.03906
G1 X92.748 Y79.055 E0.03915
G1 X93.842 Y78.444 E0.03930
G1 X94.986 Y77.888 E0.03988
G1 X96.159 Y77.401 E0.03982
G1 X97.356 Y76.985 E0.03973
G1 X98.562 Y76.646 E0.03926
G1 X99.793 Y76.378 E0.03950
G1 X101.028 Y76.188 E0.03920
G1 X102.269 Y76.074 E0.03906
G1 X103.521 Y76.037 E0.03928
G1 X104.763 Y76.076 E0.03896
G1 X105.999 Y76.191 E0.03890
G1 X107.218 Y76.380 E0.03869
G1 X108.415 Y76.640 E0.03841
G1 X109.621 Y76.978 E0.03926
G1 X110.807 Y77.388 E0.03934
G1 X111.969 Y77.868 E0.03944
G1 X113.115 Y78.422 E0.03991
G1 X114.232 Y79.042 E0.04005
G1 X115.311 Y79.724 E0.04003
G1 X116.360 Y80.470 E0.04035
G1 X117.362 Y81.267 E0.04018
G1 X118.333 Y82.127 E0.04065
G1 X119.243 Y83.018 E0.03994
G1 X120.113 Y83.959 E0.04020
G1 X120.971 Y84.984 E0.04191
G1 X121.773 Y86.042 E0.04162
G1 X122.521 Y87.132 E0.04144
G1 X123.218 Y88.253 E0.04137
G1 X123.867 Y89.410 E0.04160
G1 X124.472 Y90.608 E0.04210
G1 X124.885 Y91.532 E0.03173
G1 X125.524 Y90.116 E0.04870
G1 X126.121 Y88.932 E0.04160
G1 X126.782 Y87.754 E0.04232
G1 X127.478 Y86.633 E0.04140
G1 X128.225 Y85.545 E0.04137
G1 X129.031 Y84.481 E0.04184
G1 X129.863 Y83.487 E0.04064
G1 X130.749 Y82.526 E0.04099
G1 X131.666 Y81.628 E0.04024
G1 X132.628 Y80.776 E0.04029
G1 X133.639 Y79.971 E0.04054
G1 X134.668 Y79.238 E0.03960
G1 X135.749 Y78.554 E0.04012
G1 X136.883 Y77.923 E0.04068
G1 X138.042 Y77.364 E0.04033
G1 X139.171 Y76.897 E0.03833
G1 X140.342 Y76.490 E0.03886
G1 X141.566 Y76.145 E0.03988
G1 X142.800 Y75.877 E0.03958
G1 X144.011 Y75.690 E0.03842
G1 X145.265 Y75.574 E0.03949
G1 X146.577 Y75.537 E0.04115
G1 X147.763 Y75.576 E0.03719
G1 X148.945 Y75.685 E0.03723
G1 X150.271 Y75.890 E0.04207
G1 X151.434 Y76.145 E0.03733
G1 X152.593 Y76.469 E0.03773
G1 X153.862 Y76.909 E0.04210
G1 X154.980 Y77.373 E0.03796
G1 X156.075 Y77.901 E0.03812
G1 X157.261 Y78.559 E0.04252
G1 X158.315 Y79.226 E0.03911
G1 X159.337 Y79.953 E0.03931
G1 X160.332 Y80.742 E0.03982
G1 X161.283 Y81.580 E0.03974
G1 X162.266 Y82.542 E0.04312
G1 X163.121 Y83.468 E0.03954
G1 X163.937 Y84.441 E0.03980
G1 X164.782 Y85.554 E0.04383
G1 X165.528 Y86.643 E0.04139
G1 X166.229 Y87.773 E0.04170
G1 X166.869 Y88.914 E0.04101
G1 X167.459 Y90.081 E0.04100
G1 X168.042 Y91.372 E0.04441
G1 X168.539 Y92.613 E0.04193
G1 X168.987 Y93.883 E0.04222
G1 X169.388 Y95.187 E0.04278
G1 X169.735 Y96.503 E0.04269
G1 X170.043 Y97.901 E0.04486
G1 X170.282 Y99.241 E0.04268
G1 X170.470 Y100.603 E0.04311
G1 X170.603 Y101.955 E0.04262
G1 X170.685 Y103.336 E0.04337
G1 X170.713 Y104.782 E0.04534
G1 X170.686 Y106.152 E0.04298
G1 X170.604 Y107.535 E0.04344
G1 X170.471 Y108.891 E0.04271
G1 X170.283 Y110.256 E0.04323
G1 X170.034 Y111.648 E0.04433
G1 X169.739 Y112.985 E0.04291
G1 X169.385 Y114.326 E0.04350
G1 X168.986 Y115.622 E0.04250
G1 X168.536 Y116.895 E0.04233
G1 X168.038 Y118.139 E0.04201
G1 X167.487 Y119.362 E0.04206
G1 X166.857 Y120.610 E0.04383
G1 X166.219 Y121.746 E0.04087
G1 X165.530 Y122.857 E0.04100
G1 X164.756 Y123.984 E0.04287
G1 X163.956 Y125.037 E0.04144
G1 X163.112 Y126.044 E0.04120
G1 X162.247 Y126.979 E0.03993
G1 X161.343 Y127.866 E0.03970
G1 X160.337 Y128.756 E0.04213
G1 X159.355 Y129.535 E0.03929
G1 X158.332 Y130.264 E0.03937
G1 X157.263 Y130.941 E0.03968
G1 X156.152 Y131.561 E0.03990
G1 X154.995 Y132.122 E0.04032
G1 X153.820 Y132.609 E0.03987
G1 X152.633 Y133.020 E0.03938
G1 X151.440 Y133.356 E0.03888
G1 X150.230 Y133.619 E0.03881
G1 X148.997 Y133.811 E0.03915
G1 X147.754 Y133.926 E0.03914
G1 X146.507 Y133.965 E0.03912
G1 X145.254 Y133.927 E0.03929
G1 X144.013 Y133.812 E0.03910
G1 X142.791 Y133.623 E0.03874
G1 X141.581 Y133.361 E0.03883
G1 X140.374 Y133.022 E0.03931
G1 X139.187 Y132.611 E0.03940
G1 X138.023 Y132.130 E0.03948
G1 X136.886 Y131.581 E0.03959
G1 X135.769 Y130.960 E0.04008
G1 X134.684 Y130.275 E0.04023
G1 X133.643 Y129.534 E0.04005
G1 X132.639 Y128.736 E0.04021
G1 X131.682 Y127.890 E0.04007
G1 X130.777 Y127.004 E0.03971
G1 X129.873 Y126.026 E0.04175
G1 X129.026 Y125.015 E0.04136
G1 X128.231 Y123.966 E0.04126
G1 X127.482 Y122.875 E0.04147
G1 X126.782 Y121.749 E0.04157
G1 X126.126 Y120.580 E0.04205
G1 X125.525 Y119.388 E0.04186
G1 X125.139 Y118.524 E0.02968
G1 X125.087 Y117.482 F10800.000
G1 F1200
G1 X124.685 Y118.504 E0.03443
G1 X124.142 Y119.708 E0.04140
G1 X123.537 Y120.907 E0.04211
G1 X122.883 Y122.073 E0.04191
G1 X122.194 Y123.179 E0.04085
G1 X121.466 Y124.239 E0.04033
G1 X120.680 Y125.276 E0.04078
G1 X119.856 Y126.262 E0.04031
G1 X118.970 Y127.221 E0.04093
G1 X118.060 Y128.113 E0.03997
G1 X117.125 Y128.940 E0.03914
G1 X116.146 Y129.719 E0.03923
G1 X115.115 Y130.454 E0.03969
G1 X114.031 Y131.139 E0.04021
G1 X112.942 Y131.743 E0.03906
G1 X111.835 Y132.278 E0.03854
G1 X110.703 Y132.748 E0.03841
G1 X109.528 Y133.156 E0.03900
G1 X108.346 Y133.489 E0.03853
G1 X107.159 Y133.747 E0.03808
G1 X105.949 Y133.935 E0.03839
G1 X104.725 Y134.049 E0.03854
G1 X103.503 Y134.086 E0.03835
G1 X102.269 Y134.048 E0.03870
G1 X101.039 Y133.933 E0.03873
G1 X99.807 Y133.741 E0.03911
G1 X98.644 Y133.486 E0.03733
G1 X97.494 Y133.163 E0.03743
G1 X96.309 Y132.752 E0.03933
G1 X95.157 Y132.275 E0.03911
G1 X94.032 Y131.730 E0.03919
G1 X92.963 Y131.135 E0.03835
G1 X91.914 Y130.473 E0.03888
G1 X90.890 Y129.746 E0.03939
G1 X89.894 Y128.955 E0.03987
G1 X88.940 Y128.112 E0.03992
G1 X88.008 Y127.199 E0.04090
G1 X87.152 Y126.271 E0.03960
G1 X86.342 Y125.303 E0.03957
G1 X85.552 Y124.264 E0.04095
G1 X84.807 Y123.181 E0.04119
G1 X84.103 Y122.049 E0.04179
G1 X83.450 Y120.883 E0.04189
G1 X82.854 Y119.700 E0.04155
G1 X82.317 Y118.508 E0.04100
G1 X81.830 Y117.295 E0.04098
G1 X81.375 Y116.012 E0.04268
G1 X80.975 Y114.713 E0.04262
G1 X80.629 Y113.398 E0.04263
G1 X80.333 Y112.056 E0.04311
G1 X80.091 Y110.706 E0.04299
G1 X79.903 Y109.337 E0.04332
G1 X79.770 Y107.975 E0.04292
G1 X79.689 Y106.592 E0.04344
G1 X79.664 Y105.201 E0.04360
G1 X79.692 Y103.846 E0.04251
G1 X79.773 Y102.479 E0.04294
G1 X79.907 Y101.125 E0.04266
G1 X80.091 Y99.794 E0.04213
G1 X80.327 Y98.475 E0.04202
