;FLAVOR:RepRap
;TIME:4119
;Generated with Cura_SteamEngine 2.3.1
M190 S60
M104 S230
M109 S230
G21 ;metric values
G90 ;absolute positioning
M82 ;set extruder to absolute mode
M107 ;start with the fan off
G28 ;Home all axes (max endstops)
G1 Z15.0 F9000 ;move the platform down 15mm
G92 E0 ;zero the extruded length
G1 F200 E-1 ;extrude 6mm of feed stock

G92 E0 ;zero the extruded length again

M117 Autoleveling...
G29 ;Autolevel Z axes (min endstops)


G1 F9000
M117 Printing...


;LAYER_COUNT:83
;LAYER:0
M107
G1 F1500 E-4
G1 Z21.75
G0 F3600 X-.52 Y27.514 Z1.95
;TYPE:SKIRT
G1 Z.2
G1 F1500 E0
G1 F1800 X-4.751 Y27.211 E0.14249
G1 X-10.231 Y27.033 E0.32668
G1 X-18.676 Y27.139 E0.61039
G1 X-18.96 Y27.132 E0.61994
G1 X-24.298 Y26.819 E0.79956
G1 X-34.496 Y26.802 E1.14214
G1 X-35.051 Y26.762 E1.16083
G1 X-36.46 Y26.562 E1.20864
G1 X-36.956 Y26.459 E1.22566
G1 X-38.567 Y26.017 E1.28178
G1 X-39.027 Y25.861 E1.29809
G1 X-40.361 Y25.314 E1.34653
G1 X-40.697 Y25.157 E1.35899
G1 X-41.674 Y24.646 E1.39602
G1 X-42.079 Y24.403 E1.41189
G1 X-43.917 Y23.145 E1.48671
G1 X-44.309 Y22.839 E1.50342
G1 X-45.535 Y21.754 E1.55841
G1 X-45.797 Y21.501 E1.57065
G1 X-46.791 Y20.445 E1.61936
G1 X-47.058 Y20.129 E1.63326
G1 X-48.465 Y18.285 E1.71118
G1 X-48.68 Y17.974 E1.72388
G1 X-49.374 Y16.86 E1.76797
G1 X-49.563 Y16.521 E1.78101
G1 X-50.922 Y13.778 E1.88384
G1 X-51.081 Y13.414 E1.89719
G1 X-51.582 Y12.086 E1.94487
G1 X-51.668 Y11.831 E1.95391
G1 X-52.215 Y10.02 E2.01746
G1 X-52.291 Y9.732 E2.02746
G1 X-52.712 Y7.84 E2.09258
G1 X-52.766 Y7.545 E2.10265
G1 X-53.027 Y5.746 E2.16372
G1 X-53.057 Y5.469 E2.17308
G1 X-53.221 Y3.267 E2.24725
G1 X-53.231 Y2.879 E2.26029
G1 X-53.165 Y-.024 E2.35783
G1 X-53.146 Y-.336 E2.36834
G1 X-53.001 Y-1.767 E2.41665
G1 X-52.966 Y-2.026 E2.42543
G1 X-52.657 Y-3.867 E2.48814
G1 X-52.602 Y-4.135 E2.49733
G1 X-52.172 Y-5.934 E2.55947
G1 X-52.09 Y-6.228 E2.56972
G1 X-51.435 Y-8.265 E2.6416
G1 X-51.289 Y-8.65 E2.65543
G1 X-50.216 Y-11.093 E2.74507
G1 X-50.034 Y-11.457 E2.75874
G1 X-49.076 Y-13.147 E2.824
G1 X-48.844 Y-13.509 E2.83844
G1 X-47.494 Y-15.387 E2.91613
G1 X-47.192 Y-15.757 E2.93218
G1 X-45.698 Y-17.384 E3.00638
G1 X-45.378 Y-17.696 E3.02139
G1 X-44.207 Y-18.715 E3.07354
G1 X-43.825 Y-19.01 E3.08975
G1 X-42.07 Y-20.199 E3.16097
G1 X-41.62 Y-20.462 E3.17847
G1 X-40.173 Y-21.188 E3.23286
G1 X-39.675 Y-21.397 E3.251
G1 X-35.839 Y-22.711 E3.38721
G1 X-30.71 Y-24.648 E3.57139
G1 X-25.945 Y-26.743 E3.74625
G1 X-25.413 Y-26.933 E3.76522
G1 X-24.79 Y-27.055 E3.78655
G1 X-19.188 Y-27.697 E3.97597
G1 X-12.664 Y-28.804 E4.19826
G1 X-11.93 Y-28.859 E4.22298
G1 X-11.311 Y-28.849 E4.24378
G1 X-10.801 Y-28.808 E4.26097
G1 X-7.458 Y-28.322 E4.37445
G1 X-2.037 Y-27.77 E4.5575
G1 X3.391 Y-27.526 E4.74002
G1 X8.825 Y-27.59 E4.92258
G1 X14.245 Y-27.96 E5.10507
G1 X20.795 Y-28.769 E5.32678
G1 X21.36 Y-28.798 E5.34578
G1 X21.734 Y-28.774 E5.35837
G1 X23.047 Y-28.626 E5.40276
G1 X23.625 Y-28.517 E5.42252
G1 X24.567 Y-28.267 E5.45526
G1 X25.316 Y-27.986 E5.48213
G1 X26.031 Y-27.632 E5.50893
G1 X26.362 Y-27.448 E5.52165
G1 X28.035 Y-26.412 E5.58776
G1 X32.796 Y-23.719 E5.77151
G1 X41.614 Y-19.462 E6.10044
G1 X42.057 Y-19.212 E6.11753
G1 X43.243 Y-18.44 E6.16506
G1 X43.576 Y-18.198 E6.17889
G1 X44.914 Y-17.116 E6.2367
G1 X45.262 Y-16.8 E6.25249
G1 X46.766 Y-15.259 E6.32482
G1 X47.047 Y-14.938 E6.33915
G1 X48.099 Y-13.601 E6.3963
G1 X48.344 Y-13.253 E6.4106
G1 X49.648 Y-11.173 E6.49307
G1 X49.833 Y-10.844 E6.50575
G1 X50.573 Y-9.371 E6.56113
G1 X50.703 Y-9.086 E6.57165
G1 X51.414 Y-7.343 E6.63488
G1 X51.549 Y-6.956 E6.64865
G1 X52.42 Y-3.981 E6.75279
G1 X52.516 Y-3.575 E6.7668
G1 X52.928 Y-1.317 E6.84391
G1 X52.977 Y-.96 E6.85601
G1 X53.194 Y1.436 E6.93683
G1 X53.21 Y1.844 E6.95055
G1 X53.172 Y5.047 E7.05815
G1 X53.149 Y5.426 E7.07091
G1 X52.935 Y7.423 E7.13837
G1 X52.892 Y7.719 E7.14842
G1 X52.541 Y9.633 E7.21379
G1 X52.477 Y9.924 E7.2238
G1 X51.992 Y11.776 E7.28811
G1 X51.914 Y12.036 E7.29723
G1 X51.38 Y13.627 E7.35361
G1 X51.259 Y13.942 E7.36494
G1 X50.353 Y16.037 E7.44162
G1 X50.174 Y16.4 E7.45521
G1 X49.143 Y18.245 E7.52621
G1 X48.982 Y18.508 E7.53657
G1 X48.336 Y19.48 E7.57578
G1 X48.089 Y19.813 E7.58971
G1 X46.35 Y21.919 E7.68145
G1 X46.041 Y22.253 E7.69674
G1 X45.065 Y23.193 E7.74226
G1 X44.768 Y23.452 E7.7555
G1 X43.372 Y24.554 E7.81524
G1 X43.007 Y24.81 E7.83022
G1 X41.662 Y25.647 E7.88344
G1 X41.271 Y25.861 E7.89841
G1 X39.879 Y26.525 E7.95022
G1 X39.452 Y26.7 E7.96572
G1 X38.046 Y27.181 E8.01564
G1 X37.653 Y27.293 E8.02937
G1 X36.586 Y27.54 E8.06616
G1 X36.15 Y27.616 E8.08102
G1 X34.573 Y27.801 E8.13436
G1 X33.981 Y27.826 E8.15427
G1 X30.247 Y27.709 E8.27976
G1 X24.774 Y27.684 E8.46362
G1 X16.88 Y28.158 E8.72928
G1 X16.271 Y28.148 E8.74974
G1 X11.255 Y27.684 E8.91896
G1 X5.83 Y27.449 E9.10137
G1 X-.185 Y27.524 E9.30345
G1 X-.52 Y27.514 E9.31471
G0 F3600 X-.492 Y27.115
G1 F1800 X-4.736 Y26.811 E9.45764
G1 X-10.223 Y26.633 E9.64206
G1 X-18.681 Y26.739 E9.92621
G1 X-18.937 Y26.733 E9.93481
G1 X-24.292 Y26.419 E10.11501
G1 X-34.495 Y26.402 E10.45776
G1 X-34.995 Y26.366 E10.4746
G1 X-36.404 Y26.166 E10.5224
G1 X-36.851 Y26.074 E10.53773
G1 X-38.462 Y25.632 E10.59385
G1 X-38.875 Y25.491 E10.60851
G1 X-40.209 Y24.944 E10.65694
G1 X-40.511 Y24.803 E10.66814
G1 X-41.488 Y24.292 E10.70518
G1 X-41.853 Y24.073 E10.71948
G1 X-43.691 Y22.815 E10.7943
G1 X-44.044 Y22.54 E10.80933
G1 X-45.27 Y21.455 E10.86433
G1 X-45.505 Y21.226 E10.87535
G1 X-46.499 Y20.17 E10.92407
G1 X-46.74 Y19.887 E10.93655
G1 X-48.147 Y18.043 E11.01447
G1 X-48.341 Y17.763 E11.02592
G1 X-49.035 Y16.649 E11.07001
G1 X-49.205 Y16.343 E11.08176
G1 X-50.564 Y13.6 E11.1846
G1 X-50.706 Y13.273 E11.19657
G1 X-51.207 Y11.945 E11.24425
G1 X-51.285 Y11.715 E11.25241
G1 X-51.832 Y9.904 E11.31596
G1 X-51.9 Y9.645 E11.32496
G1 X-52.321 Y7.753 E11.39007
G1 X-52.37 Y7.488 E11.39912
G1 X-52.631 Y5.689 E11.46019
G1 X-52.658 Y5.439 E11.46864
G1 X-52.822 Y3.237 E11.54281
G1 X-52.831 Y2.888 E11.55454
G1 X-52.765 Y-.015 E11.65209
G1 X-52.748 Y-.296 E11.66154
G1 X-52.603 Y-1.727 E11.70986
G1 X-52.571 Y-1.96 E11.71776
G1 X-52.262 Y-3.801 E11.78047
G1 X-52.213 Y-4.042 E11.78873
G1 X-51.783 Y-5.841 E11.85087
G1 X-51.709 Y-6.106 E11.86011
G1 X-51.054 Y-8.143 E11.93199
G1 X-50.923 Y-8.489 E11.94442
G1 X-49.85 Y-10.932 E12.03405
G1 X-49.686 Y-11.259 E12.04634
G1 X-48.728 Y-12.949 E12.1116
G1 X-48.519 Y-13.275 E12.12461
G1 X-47.169 Y-15.153 E12.2023
G1 X-46.898 Y-15.487 E12.21675
G1 X-45.404 Y-17.114 E12.29095
G1 X-45.115 Y-17.395 E12.3045
G1 X-43.944 Y-18.414 E12.35664
G1 X-43.6 Y-18.678 E12.37121
G1 X-41.845 Y-19.867 E12.44242
G1 X-41.44 Y-20.105 E12.4582
G1 X-39.993 Y-20.831 E12.51258
G1 X-39.545 Y-21.019 E12.5289
G1 X-35.705 Y-22.334 E12.66525
G1 X-30.54 Y-24.285 E12.85073
G1 X-25.784 Y-26.376 E13.02525
G1 X-25.279 Y-26.555 E13.04325
G1 X-24.745 Y-26.658 E13.06152
G1 X-19.111 Y-27.303 E13.25202
G1 X-12.597 Y-28.409 E13.47397
G1 X-11.937 Y-28.46 E13.49621
G1 X-11.318 Y-28.45 E13.51701
G1 X-10.858 Y-28.413 E13.53251
G1 X-7.486 Y-27.923 E13.64697
G1 X-2.059 Y-27.371 E13.83022
G1 X3.377 Y-27.126 E14.01302
G1 X8.839 Y-27.19 E14.19651
G1 X14.285 Y-27.561 E14.37988
G1 X20.844 Y-28.372 E14.6019
G1 X21.38 Y-28.398 E14.61992
G1 X21.689 Y-28.376 E14.63033
G1 X23.002 Y-28.228 E14.67472
G1 X23.522 Y-28.131 E14.69249
G1 X24.464 Y-27.881 E14.72523
G1 X25.138 Y-27.627 E14.74942
G1 X25.853 Y-27.273 E14.77622
G1 X26.151 Y-27.108 E14.78767
G1 X27.844 Y-26.06 E14.85455
G1 X32.597 Y-23.371 E15.038
G1 X41.44 Y-19.102 E15.36787
G1 X41.839 Y-18.877 E15.38325
G1 X43.025 Y-18.105 E15.43079
G1 X43.325 Y-17.887 E15.44325
G1 X44.663 Y-16.805 E15.50105
G1 X44.975 Y-16.52 E15.51525
G1 X46.479 Y-14.979 E15.58758
G1 X46.732 Y-14.691 E15.60046
G1 X47.784 Y-13.354 E15.65761
G1 X48.005 Y-13.04 E15.67051
G1 X49.309 Y-10.96 E15.75298
G1 X49.476 Y-10.664 E15.7644
G1 X50.216 Y-9.191 E15.81977
G1 X50.332 Y-8.935 E15.82921
G1 X51.043 Y-7.192 E15.89245
G1 X51.165 Y-6.844 E15.90484
G1 X52.036 Y-3.869 E16.00897
G1 X52.123 Y-3.503 E16.02161
G1 X52.535 Y-1.245 E16.09871
G1 X52.578 Y-.924 E16.10959
G1 X52.795 Y1.472 E16.19041
G1 X52.81 Y1.84 E16.20278
G1 X52.772 Y5.043 E16.31039
G1 X52.752 Y5.384 E16.32186
G1 X52.538 Y7.381 E16.38933
G1 X52.499 Y7.646 E16.39833
G1 X52.148 Y9.56 E16.4637
G1 X52.09 Y9.823 E16.47274
G1 X51.605 Y11.675 E16.53706
G1 X51.535 Y11.908 E16.54523
G1 X51.001 Y13.499 E16.6016
G1 X50.892 Y13.783 E16.61182
G1 X49.986 Y15.878 E16.6885
G1 X49.825 Y16.205 E16.70074
G1 X48.794 Y18.05 E16.77174
G1 X48.649 Y18.287 E16.78108
G1 X48.003 Y19.259 E16.82028
G1 X47.781 Y19.558 E16.83279
G1 X46.042 Y21.664 E16.92454
G1 X45.763 Y21.965 E16.93833
G1 X44.787 Y22.905 E16.98385
G1 X44.521 Y23.138 E16.99573
G1 X43.125 Y24.24 E17.05547
G1 X42.796 Y24.47 E17.06896
G1 X41.451 Y25.307 E17.12217
G1 X41.099 Y25.5 E17.13566
G1 X39.707 Y26.164 E17.18747
G1 X39.322 Y26.321 E17.20143
G1 X37.916 Y26.802 E17.25135
G1 X37.563 Y26.903 E17.26369
G1 X36.496 Y27.15 E17.30048
G1 X36.103 Y27.218 E17.31388
G1 X34.526 Y27.403 E17.36722
G1 X33.994 Y27.426 E17.3851
G1 X30.262 Y27.309 E17.51053
G1 X24.768 Y27.284 E17.69509
G1 X16.856 Y27.759 E17.96136
G1 X16.308 Y27.75 E17.97977
G1 X11.288 Y27.285 E18.14913
G1 X5.825 Y27.049 E18.33282
G1 X-.19 Y27.124 E18.53489
G1 X-.492 Y27.115 E18.54504
G0 F3600 X-.463 Y26.716
G1 F1800 X-4.72 Y26.412 E18.68841
G1 X-10.215 Y26.233 E18.8731
G1 X-18.686 Y26.339 E19.15769
G1 X-18.913 Y26.334 E19.16531
G1 X-24.285 Y26.019 E19.34608
G1 X-34.494 Y26.002 E19.68903
G1 X-34.939 Y25.97 E19.70402
G1 X-36.348 Y25.77 E19.75183
G1 X-36.745 Y25.688 E19.76544
G1 X-38.356 Y25.246 E19.82156
G1 X-38.723 Y25.121 E19.83459
G1 X-40.057 Y24.574 E19.88302
G1 X-40.326 Y24.449 E19.89298
G1 X-41.303 Y23.938 E19.93002
G1 X-41.627 Y23.743 E19.94273
G1 X-43.465 Y22.485 E20.01755
G1 X-43.779 Y22.24 E20.03093
G1 X-45.005 Y21.155 E20.08592
G1 X-45.214 Y20.952 E20.09571
G1 X-46.208 Y19.896 E20.14443
G1 X-46.422 Y19.644 E20.15553
G1 X-47.829 Y17.8 E20.23345
G1 X-48.001 Y17.551 E20.24362
G1 X-48.695 Y16.437 E20.28771
G1 X-48.846 Y16.166 E20.29813
G1 X-50.205 Y13.423 E20.40096
G1 X-50.332 Y13.132 E20.41163
G1 X-50.833 Y11.804 E20.45931
G1 X-50.902 Y11.599 E20.46657
G1 X-51.449 Y9.788 E20.53013
G1 X-51.51 Y9.558 E20.53812
G1 X-51.931 Y7.666 E20.60323
G1 X-51.974 Y7.43 E20.61129
G1 X-52.235 Y5.631 E20.67236
G1 X-52.259 Y5.41 E20.67982
G1 X-52.423 Y3.208 E20.754
G1 X-52.431 Y2.897 E20.76445
G1 X-52.365 Y-.006 E20.86199
G1 X-52.35 Y-.256 E20.87041
G1 X-52.205 Y-1.687 E20.91873
G1 X-52.177 Y-1.894 E20.92574
G1 X-51.868 Y-3.735 E20.98845
G1 X-51.824 Y-3.949 E20.99579
G1 X-51.394 Y-5.748 E21.05793
G1 X-51.328 Y-5.984 E21.06616
G1 X-50.673 Y-8.021 E21.13804
G1 X-50.557 Y-8.328 E21.14906
G1 X-49.484 Y-10.771 E21.2387
G1 X-49.338 Y-11.062 E21.24963
G1 X-48.38 Y-12.752 E21.31489
G1 X-48.194 Y-13.042 E21.32646
G1 X-46.844 Y-14.92 E21.40416
G1 X-46.603 Y-15.216 E21.41698
G1 X-45.109 Y-16.843 E21.49119
G1 X-44.853 Y-17.093 E21.50321
G1 X-43.682 Y-18.112 E21.55535
G1 X-43.376 Y-18.347 E21.56831
G1 X-41.621 Y-19.536 E21.63952
G1 X-41.261 Y-19.747 E21.65354
G1 X-39.814 Y-20.473 E21.70793
G1 X-39.416 Y-20.64 E21.72242
G1 X-35.578 Y-21.954 E21.8587
G1 X-30.392 Y-23.913 E22.04493
G1 X-25.623 Y-26.01 E22.21993
G1 X-25.146 Y-26.177 E22.23691
G1 X-24.699 Y-26.26 E22.25218
G1 X-19.073 Y-26.905 E22.44242
G1 X-12.53 Y-28.015 E22.66535
G1 X-11.943 Y-28.06 E22.68513
G1 X-11.324 Y-28.05 E22.70593
G1 X-10.916 Y-28.017 E22.71968
G1 X-7.561 Y-27.53 E22.83356
G1 X-2.083 Y-26.972 E23.01853
G1 X3.382 Y-26.726 E23.20231
G1 X8.852 Y-26.79 E23.38607
G1 X14.325 Y-27.163 E23.57035
G1 X20.893 Y-27.975 E23.79267
G1 X21.644 Y-27.979 E23.81789
G1 X22.957 Y-27.831 E23.86228
G1 X23.42 Y-27.744 E23.87811
G1 X24.362 Y-27.494 E23.91085
G1 X24.961 Y-27.269 E23.93234
G1 X25.676 Y-26.915 E23.95914
G1 X25.941 Y-26.768 E23.96932
G1 X27.646 Y-25.712 E24.03669
G1 X32.411 Y-23.016 E24.22061
G1 X41.266 Y-18.742 E24.55091
G1 X41.621 Y-18.542 E24.5646
G1 X42.807 Y-17.77 E24.61213
G1 X43.073 Y-17.576 E24.62319
G1 X44.411 Y-16.494 E24.681
G1 X44.689 Y-16.241 E24.69363
G1 X46.193 Y-14.7 E24.76596
G1 X46.418 Y-14.444 E24.77741
G1 X47.47 Y-13.107 E24.83456
G1 X47.666 Y-12.828 E24.84601
G1 X48.97 Y-10.748 E24.92848
G1 X49.118 Y-10.485 E24.93862
G1 X49.858 Y-9.012 E24.994
G1 X49.962 Y-8.784 E25.00241
G1 X50.673 Y-7.041 E25.06565
G1 X50.781 Y-6.731 E25.07668
G1 X51.652 Y-3.756 E25.18081
G1 X51.729 Y-3.431 E25.19203
G1 X52.141 Y-1.173 E25.26914
G1 X52.18 Y-.888 E25.2788
G1 X52.397 Y1.508 E25.35962
G1 X52.41 Y1.835 E25.37061
G1 X52.372 Y5.038 E25.47822
G1 X52.354 Y5.341 E25.48841
G1 X52.14 Y7.338 E25.55588
G1 X52.106 Y7.574 E25.56389
G1 X51.755 Y9.488 E25.62926
G1 X51.703 Y9.722 E25.63731
G1 X51.218 Y11.574 E25.70162
G1 X51.156 Y11.781 E25.70888
G1 X50.622 Y13.372 E25.76526
G1 X50.525 Y13.624 E25.77433
G1 X49.619 Y15.719 E25.85101
G1 X49.475 Y16.01 E25.86191
G1 X48.444 Y17.855 E25.93291
G1 X48.316 Y18.065 E25.94117
G1 X47.67 Y19.037 E25.98038
G1 X47.473 Y19.304 E25.99153
G1 X45.734 Y21.41 E26.08327
G1 X45.486 Y21.677 E26.09551
G1 X44.51 Y22.617 E26.14103
G1 X44.273 Y22.824 E26.15161
G1 X42.877 Y23.926 E26.21135
G1 X42.585 Y24.131 E26.22334
G1 X41.24 Y24.968 E26.27655
G1 X40.927 Y25.139 E26.28853
G1 X39.535 Y25.803 E26.34034
G1 X39.193 Y25.943 E26.35276
G1 X37.787 Y26.424 E26.40268
G1 X37.473 Y26.514 E26.41365
G1 X36.406 Y26.761 E26.45044
G1 X36.057 Y26.821 E26.46234
G1 X34.48 Y27.006 E26.51568
G1 X34.007 Y27.026 E26.53158
G1 X30.277 Y26.909 E26.65694
G1 X24.746 Y26.883 E26.84274
G1 X16.832 Y27.359 E27.10908
G1 X16.345 Y27.351 E27.12544
G1 X11.322 Y26.886 E27.2949
G1 X5.837 Y26.649 E27.47933
G1 X-.195 Y26.724 E27.68197
G1 X-.463 Y26.716 E27.69098
G1 F1500 E23.69098
G1 Z1.95
G0 F3600 X-10.863 Y-16.776 Z1.95
;TYPE:SUPPORT
G1 Z.2
G1 F1500 E27.69098
G1 F1800 X-11.142 Y-16.722 E27.70053
G1 X-11.44 Y-16.69 E27.71059
G1 X-11.758 Y-16.678 E27.72128
G1 X-12.078 Y-16.689 E27.73204
G1 X-12.373 Y-16.723 E27.74202
G1 X-12.648 Y-16.773 E27.75141
G1 X-12.931 Y-16.85 E27.76126
G1 X-13.216 Y-16.951 E27.77142
G1 X-13.47 Y-17.062 E27.78073
G1 X-13.761 Y-17.214 E27.79176
G1 X-14.02 Y-17.378 E27.80205
G1 X-14.253 Y-17.551 E27.8118
G1 X-14.476 Y-17.743 E27.82169
G1 X-14.687 Y-17.955 E27.83174
G1 X-14.895 Y-18.192 E27.84233
G1 X-15.065 Y-18.428 E27.8521
G1 X-15.197 Y-18.639 E27.86046
G1 X-15.623 Y-19.533 E27.89373
G1 X-16.058 Y-19.808 E27.91101
G1 X-21.513 Y-19.806 E28.09426
G1 X-21.656 Y-19.663 E28.10106
G1 X-21.656 Y-20.25 E28.12078
G1 X-21.961 Y-20.28 E28.13107
G1 X-21.953 Y-20.351 E28.13347
G1 X-21.939 Y-20.674 E28.14433
G1 X-21.95 Y-20.962 E28.15401
G1 X-21.962 Y-21.068 E28.1576
G1 X-21.656 Y-21.098 E28.16793
G1 X-21.656 Y-21.688 E28.18775
G1 X-21.513 Y-21.545 E28.19454
G1 X-16.057 Y-21.543 E28.37782
G1 X-15.622 Y-21.818 E28.39511
G1 X-15.194 Y-22.715 E28.4285
G1 X-15.054 Y-22.938 E28.43734
G1 X-14.873 Y-23.184 E28.4476
G1 X-14.686 Y-23.401 E28.45722
G1 X-14.467 Y-23.618 E28.46758
G1 X-14.255 Y-23.8 E28.47697
G1 X-14.012 Y-23.978 E28.48709
G1 X-13.749 Y-24.142 E28.4975
G1 X-13.498 Y-24.274 E28.50702
G1 X-13.214 Y-24.399 E28.51745
G1 X-12.919 Y-24.503 E28.52795
G1 X-12.633 Y-24.58 E28.5379
G1 X-12.376 Y-24.629 E28.54669
G1 X-12.075 Y-24.664 E28.55687
G1 X-11.758 Y-24.675 E28.56753
G1 X-11.456 Y-24.664 E28.57768
G1 X-11.135 Y-24.627 E28.58853
G1 X-10.883 Y-24.578 E28.59716
G1 X-10.576 Y-24.497 E28.60782
G1 X-10.297 Y-24.399 E28.61776
G1 X-9.99 Y-24.264 E28.62902
G1 X-9.776 Y-24.152 E28.63714
G1 X-9.509 Y-23.983 E28.64775
G1 X-9.272 Y-23.812 E28.65757
G1 X-9.012 Y-23.588 E28.6691
G1 X-8.832 Y-23.405 E28.67772
G1 X-8.634 Y-23.176 E28.68789
G1 X-8.447 Y-22.922 E28.69849
G1 X-8.312 Y-22.707 E28.70702
G1 X-8.139 Y-22.382 E28.71938
G1 X-8.042 Y-22.16 E28.72752
G1 X-7.936 Y-21.86 E28.73821
G1 X-7.858 Y-21.573 E28.7482
G1 X-7.802 Y-21.275 E28.75839
G1 X-7.768 Y-20.977 E28.76846
G1 X-7.758 Y-20.69 E28.77811
G1 X-7.768 Y-20.375 E28.7887
G1 X-7.798 Y-20.102 E28.79792
G1 X-7.858 Y-19.783 E28.80883
G1 X-7.932 Y-19.5 E28.81865
G1 X-8.026 Y-19.231 E28.82823
G1 X-8.139 Y-18.966 E28.8379
G1 X-8.282 Y-18.695 E28.8482
G1 X-8.456 Y-18.417 E28.85921
