;FLAVOR:RepRap
;TIME:9630
;Filament used: 4.82768m
;Layer height: 0.1
;Generated with Cura_SteamEngine 2.4.0
M190 S50
M104 S195
M109 S195
G21 ;metric values
G90 ;absolute positioning
M82 ;set extruder to absolute mode
M107 ;start with the fan off
G28 ;Home all axes (max endstops)

M0 Add PROBE
M106 S255 ;	Turn fan on 100% power, cool the probe
M117 Auto leveling...
G29   ; DAQ -- auto level
M500
G1 x0 y0
M0 Remove PROBE

G1 Z75.0 F9000 ;move the platform down 15mm
G92 E0 ;zero the extruded length
G1 F200 E3 ;extrude 3mm of feed stock
G92 E0 ;zero the extruded length again

G1 Z100 F9000
M0 CLEAN ME...

M106 S191 ;	Turn fan on 50% power

G1 F9000
M117 Printing...
;LAYER_COUNT:34
;LAYER:0
M107
G1 F1500 E-6.5
G1 Z21
G0 F3600 X-.557 Y59.734 Z1.15
;TYPE:SKIRT
G1 Z0.15
G1 F1500 E0
G1 F1800 X-5.787 Y59.845 E0.13049
G1 X-5.87 Y59.846 E0.13256
G1 X-44.355 Y59.83 E1.09258
G1 X-44.904 Y59.79 E1.10631
G1 X-45.222 Y59.729 E1.11438
G1 X-46.12 Y59.518 E1.13739
G1 X-46.646 Y59.354 E1.15114
G1 X-47.174 Y59.097 E1.16579
G1 X-47.786 Y58.738 E1.18349
G1 X-48.426 Y58.266 E1.20332
G1 X-48.818 Y57.908 E1.21657
G1 X-49.196 Y57.508 E1.23029
G1 X-49.445 Y57.167 E1.24083
G1 X-49.997 Y56.314 E1.26617
G1 X-50.262 Y55.83 E1.27994
G1 X-50.466 Y55.275 E1.29469
G1 X-50.727 Y54.344 E1.31881
G1 X-50.837 Y53.804 E1.33255
G1 X-50.868 Y53.319 E1.34468
G1 X-50.907 Y-52.001 E3.97189
G1 X-50.904 Y-52.158 E3.97581
G1 X-50.84 Y-53.712 E4.01461
G1 X-50.777 Y-54.26 E4.02837
G1 X-50.638 Y-54.788 E4.04199
G1 X-50.305 Y-55.76 E4.06762
G1 X-50.089 Y-56.267 E4.08137
G1 X-49.777 Y-56.771 E4.09615
G1 X-49.235 Y-57.512 E4.11905
G1 X-48.878 Y-57.932 E4.1328
G1 X-48.512 Y-58.26 E4.14506
G1 X-47.938 Y-58.71 E4.16326
G1 X-47.481 Y-59.017 E4.17699
G1 X-47.141 Y-59.19 E4.18651
G1 X-46.533 Y-59.461 E4.20311
G1 X-46.015 Y-59.648 E4.21685
G1 X-45.585 Y-59.742 E4.22783
G1 X-44.827 Y-59.863 E4.24698
G1 X-44.228 Y-59.911 E4.26197
G1 X-5.502 Y-59.908 E5.22799
G1 X-5.307 Y-59.903 E5.23286
G1 X-2.975 Y-59.783 E5.29111
G1 X2.536 Y-59.723 E5.42859
G1 X4.084 Y-59.772 E5.46722
G1 X4.203 Y-59.774 E5.47019
G1 X44.423 Y-59.799 E6.47348
G1 X44.972 Y-59.759 E6.48721
G1 X45.421 Y-59.666 E6.49865
G1 X46.341 Y-59.416 E6.52243
G1 X46.861 Y-59.233 E6.53618
G1 X47.522 Y-58.863 E6.55508
G1 X48.313 Y-58.31 E6.57916
G1 X48.741 Y-57.963 E6.5929
G1 X48.945 Y-57.755 E6.60017
G1 X49.19 Y-57.486 E6.60924
G1 X49.642 Y-56.878 E6.62814
G1 X50.083 Y-56.141 E6.64957
G1 X50.418 Y-55.418 E6.66944
G1 X50.585 Y-54.929 E6.68233
G1 X50.752 Y-54.233 E6.70019
G1 X50.849 Y-53.547 E6.71747
G1 X50.886 Y-53.014 E6.7308
G1 X50.858 Y53.486 E9.38745
G1 X50.818 Y54.036 E9.40121
G1 X50.677 Y54.645 E9.4168
G1 X50.343 Y55.687 E9.4441
G1 X50.137 Y56.198 E9.45784
G1 X49.859 Y56.674 E9.47159
G1 X49.416 Y57.321 E9.49115
G1 X49.073 Y57.752 E9.50489
G1 X48.712 Y58.094 E9.5173
G1 X48.031 Y58.661 E9.5394
G1 X47.584 Y58.982 E9.55313
G1 X47.01 Y59.27 E9.56915
G1 X46.174 Y59.604 E9.59161
G1 X45.649 Y59.771 E9.60535
G1 X45.105 Y59.86 E9.6191
G1 X44.771 Y59.875 E9.62744
G1 X6.314 Y59.945 E10.58676
G1 X6.189 Y59.943 E10.58987
G1 X-.557 Y59.734 E10.75823
G0 F3600 X-.553 Y59.334
G1 F1800 X-5.796 Y59.445 E10.88905
G1 X-5.869 Y59.446 E10.89087
G1 X-44.354 Y59.43 E11.85088
G1 X-44.874 Y59.39 E11.86389
G1 X-45.131 Y59.34 E11.87042
G1 X-46.029 Y59.129 E11.89344
G1 X-46.525 Y58.971 E11.90642
G1 X-46.971 Y58.752 E11.91882
G1 X-47.583 Y58.393 E11.93651
G1 X-48.156 Y57.971 E11.95427
G1 X-48.548 Y57.613 E11.96751
G1 X-48.905 Y57.233 E11.98052
G1 X-49.109 Y56.949 E11.98924
G1 X-49.661 Y56.096 E12.01458
G1 X-49.91 Y55.638 E12.02759
G1 X-50.081 Y55.167 E12.04009
G1 X-50.342 Y54.236 E12.06421
G1 X-50.444 Y53.725 E12.0772
G1 X-50.468 Y53.319 E12.08735
G1 X-50.507 Y-52.001 E14.71457
G1 X-50.504 Y-52.142 E14.71809
G1 X-50.44 Y-53.696 E14.75688
G1 X-50.379 Y-54.213 E14.76987
G1 X-50.259 Y-54.658 E14.78137
G1 X-49.926 Y-55.63 E14.807
G1 X-49.72 Y-56.109 E14.82
G1 X-49.454 Y-56.535 E14.83253
G1 X-48.912 Y-57.276 E14.85543
G1 X-48.573 Y-57.672 E14.86844
G1 X-48.266 Y-57.945 E14.87868
G1 X-47.692 Y-58.395 E14.89688
G1 X-47.258 Y-58.684 E14.90989
G1 X-46.978 Y-58.824 E14.91769
G1 X-46.37 Y-59.095 E14.9343
G1 X-45.879 Y-59.271 E14.94731
G1 X-45.522 Y-59.347 E14.95642
G1 X-44.764 Y-59.468 E14.97556
G1 X-44.228 Y-59.511 E14.98898
G1 X-5.502 Y-59.508 E15.955
G1 X-5.328 Y-59.504 E15.95934
G1 X-2.976 Y-59.383 E16.01809
G1 X2.544 Y-59.323 E16.1558
G1 X4.097 Y-59.372 E16.19455
G1 X4.203 Y-59.374 E16.1972
G1 X44.423 Y-59.399 E17.20049
G1 X44.943 Y-59.359 E17.2135
G1 X45.317 Y-59.28 E17.22304
G1 X46.237 Y-59.03 E17.24682
G1 X46.728 Y-58.855 E17.25982
G1 X47.293 Y-58.536 E17.27601
G1 X48.084 Y-57.983 E17.30008
G1 X48.65 Y-57.485 E17.31889
G1 X48.895 Y-57.216 E17.32796
G1 X49.299 Y-56.673 E17.34485
G1 X49.74 Y-55.936 E17.36627
G1 X50.04 Y-55.289 E17.38406
G1 X50.207 Y-54.8 E17.39695
G1 X50.356 Y-54.177 E17.41293
G1 X50.453 Y-53.491 E17.43021
G1 X50.486 Y-53.014 E17.44214
G1 X50.458 Y53.486 E20.09879
G1 X50.418 Y54.006 E20.1118
G1 X50.296 Y54.523 E20.12505
G1 X49.962 Y55.565 E20.15235
G1 X49.765 Y56.047 E20.16534
G1 X49.529 Y56.448 E20.17695
G1 X49.086 Y57.095 E20.19651
G1 X48.76 Y57.501 E20.20949
G1 X48.456 Y57.787 E20.21991
G1 X47.775 Y58.354 E20.24201
G1 X47.351 Y58.656 E20.255
G1 X46.861 Y58.898 E20.26863
G1 X46.025 Y59.232 E20.29109
G1 X45.528 Y59.388 E20.30408
G1 X44.77 Y59.475 E20.32311
G1 X6.313 Y59.545 E21.28243
G1 X6.202 Y59.543 E21.2852
G1 X-.553 Y59.334 E21.45378
G0 F3600 X-.568 Y58.934
G1 F1800 X-5.804 Y59.045 E21.58442
G1 X-5.869 Y59.046 E21.58605
G1 X-44.354 Y59.03 E22.54606
G1 X-45.039 Y58.95 E22.56326
G1 X-45.937 Y58.739 E22.58627
G1 X-46.403 Y58.589 E22.59848
G1 X-46.769 Y58.407 E22.60868
G1 X-47.381 Y58.048 E22.62638
G1 X-47.886 Y57.675 E22.64204
G1 X-48.278 Y57.317 E22.65528
G1 X-48.611 Y56.959 E22.66748
G1 X-48.774 Y56.732 E22.67445
G1 X-49.326 Y55.879 E22.6998
G1 X-49.557 Y55.448 E22.71199
G1 X-49.696 Y55.059 E22.7223
G1 X-49.957 Y54.128 E22.74642
G1 X-50.05 Y53.647 E22.75864
G1 X-50.068 Y53.319 E22.76683
G1 X-50.107 Y-52.001 E25.39405
G1 X-50.104 Y-52.125 E25.39715
G1 X-50.04 Y-53.679 E25.43594
G1 X-49.98 Y-54.165 E25.44816
G1 X-49.881 Y-54.528 E25.45754
G1 X-49.548 Y-55.5 E25.48317
G1 X-49.352 Y-55.949 E25.49539
G1 X-49.131 Y-56.299 E25.50572
G1 X-48.589 Y-57.04 E25.52862
G1 X-48.269 Y-57.41 E25.54082
G1 X-48.019 Y-57.63 E25.54913
G1 X-47.445 Y-58.08 E25.56733
G1 X-47.036 Y-58.35 E25.57955
G1 X-46.815 Y-58.459 E25.5857
G1 X-46.207 Y-58.73 E25.6023
G1 X-45.745 Y-58.892 E25.61452
G1 X-45.459 Y-58.952 E25.6218
G1 X-44.701 Y-59.073 E25.64095
G1 X-44.228 Y-59.111 E25.65279
G1 X-5.502 Y-59.108 E26.61881
G1 X-5.348 Y-59.104 E26.62266
G1 X-3 Y-58.983 E26.68131
G1 X2.553 Y-58.923 E26.81983
G1 X4.11 Y-58.972 E26.85869
G1 X4.203 Y-58.974 E26.86101
G1 X44.423 Y-58.999 E27.86431
G1 X44.911 Y-58.959 E27.87652
G1 X45.212 Y-58.894 E27.8842
G1 X46.132 Y-58.644 E27.90798
G1 X46.592 Y-58.478 E27.92018
G1 X47.064 Y-58.208 E27.93375
G1 X47.855 Y-57.655 E27.95782
G1 X48.354 Y-57.216 E27.9744
G1 X48.599 Y-56.947 E27.98348
G1 X48.955 Y-56.467 E27.99838
G1 X49.396 Y-55.73 E28.01981
G1 X49.661 Y-55.16 E28.03549
G1 X49.828 Y-54.671 E28.04838
G1 X49.959 Y-54.121 E28.06248
G1 X50.056 Y-53.435 E28.07976
G1 X50.086 Y-53.014 E28.09029
G1 X50.058 Y53.486 E30.74695
G1 X50.018 Y53.974 E30.75916
G1 X49.915 Y54.401 E30.77012
G1 X49.581 Y55.443 E30.79741
G1 X49.394 Y55.895 E30.80962
G1 X49.199 Y56.222 E30.81911
G1 X48.756 Y56.869 E30.83867
G1 X48.448 Y57.249 E30.85087
G1 X48.201 Y57.479 E30.85929
G1 X47.52 Y58.046 E30.8814
G1 X47.119 Y58.328 E30.89363
G1 X46.713 Y58.527 E30.90491
G1 X45.877 Y58.861 E30.92736
G1 X45.409 Y59.005 E30.93958
G1 X44.769 Y59.075 E30.95564
G1 X6.312 Y59.145 E31.91495
G1 X6.214 Y59.144 E31.9174
G1 X-.568 Y58.934 E32.08666
G0 F3600 X-.564 Y58.534
G1 F1800 X-5.813 Y58.645 E32.21762
G1 X-5.869 Y58.646 E32.21902
G1 X-44.354 Y58.63 E33.17903
G1 X-44.948 Y58.561 E33.19395
G1 X-45.846 Y58.35 E33.21696
G1 X-46.278 Y58.207 E33.22831
G1 X-46.567 Y58.062 E33.23638
G1 X-47.179 Y57.703 E33.25408
G1 X-47.616 Y57.38 E33.26763
G1 X-48.008 Y57.022 E33.28087
G1 X-48.438 Y56.515 E33.29746
G1 X-48.99 Y55.662 E33.3228
G1 X-49.203 Y55.259 E33.33417
G1 X-49.31 Y54.951 E33.34231
G1 X-49.571 Y54.02 E33.36643
G1 X-49.656 Y53.572 E33.3778
G1 X-49.668 Y53.319 E33.38412
G1 X-49.707 Y-52.001 E36.01134
G1 X-49.705 Y-52.109 E36.01403
G1 X-49.641 Y-53.663 E36.05283
G1 X-49.582 Y-54.115 E36.0642
G1 X-49.503 Y-54.399 E36.07155
G1 X-49.17 Y-55.371 E36.09718
G1 X-48.985 Y-55.787 E36.10854
G1 X-48.809 Y-56.063 E36.11671
G1 X-48.267 Y-56.804 E36.13961
G1 X-47.966 Y-57.147 E36.15099
G1 X-47.772 Y-57.315 E36.15739
G1 X-47.198 Y-57.765 E36.17559
G1 X-46.652 Y-58.094 E36.19149
G1 X-46.044 Y-58.365 E36.20809
G1 X-45.396 Y-58.557 E36.22495
G1 X-44.638 Y-58.678 E36.2441
G1 X-44.228 Y-58.711 E36.25436
G1 X-5.502 Y-58.708 E37.22038
G1 X-5.369 Y-58.705 E37.2237
G1 X-3.001 Y-58.583 E37.28285
G1 X2.537 Y-58.523 E37.42101
G1 X4.122 Y-58.573 E37.46056
G1 X4.203 Y-58.574 E37.46258
G1 X44.423 Y-58.599 E38.46588
G1 X44.877 Y-58.559 E38.47724
G1 X45.107 Y-58.508 E38.48312
G1 X46.027 Y-58.258 E38.5069
G1 X46.454 Y-58.1 E38.51826
G1 X46.835 Y-57.88 E38.52924
G1 X47.626 Y-57.327 E38.55331
G1 X48.058 Y-56.947 E38.56766
G1 X48.303 Y-56.678 E38.57674
G1 X48.612 Y-56.262 E38.58967
G1 X49.053 Y-55.525 E38.61109
G1 X49.282 Y-55.03 E38.6247
G1 X49.449 Y-54.541 E38.63759
G1 X49.563 Y-54.065 E38.6498
G1 X49.66 Y-53.379 E38.66708
G1 X49.686 Y-53.014 E38.67621
G1 X49.658 Y53.486 E41.33286
G1 X49.618 Y53.94 E41.34423
G1 X49.534 Y54.279 E41.35294
G1 X49.2 Y55.321 E41.38024
G1 X49.023 Y55.741 E41.3916
G1 X48.869 Y55.996 E41.39904
G1 X48.426 Y56.643 E41.4186
G1 X48.137 Y56.995 E41.42996
G1 X47.945 Y57.172 E41.43647
G1 X47.264 Y57.739 E41.45858
G1 X46.889 Y57.999 E41.46996
G1 X46.565 Y58.155 E41.47893
G1 X45.729 Y58.489 E41.50139
G1 X45.292 Y58.621 E41.51277
G1 X44.769 Y58.675 E41.52589
G1 X6.312 Y58.745 E42.4852
G1 X6.227 Y58.744 E42.48733
G1 X-.564 Y58.534 E42.65681
G0 F3600 X-.541 Y58.134
G1 F1800 X-5.821 Y58.246 E42.78855
G1 X-5.869 Y58.246 E42.78975
G1 X-44.354 Y58.23 E43.74976
G1 X-44.856 Y58.172 E43.76236
G1 X-45.754 Y57.961 E43.78537
G1 X-46.151 Y57.826 E43.79583
G1 X-46.364 Y57.717 E43.8018
G1 X-46.976 Y57.358 E43.8195
G1 X-47.347 Y57.084 E43.83101
G1 X-47.739 Y56.726 E43.84425
G1 X-48.102 Y56.297 E43.85827
G1 X-48.654 Y55.444 E43.88361
G1 X-48.847 Y55.072 E43.89407
G1 X-48.925 Y54.843 E43.9001
G1 X-49.186 Y53.912 E43.92422
G1 X-49.268 Y53.319 E43.93915
G1 X-49.307 Y-52.001 E46.56637
G1 X-49.305 Y-52.093 E46.56867
G1 X-49.241 Y-53.647 E46.60747
G1 X-49.184 Y-54.062 E46.61792
G1 X-49.124 Y-54.269 E46.62329
G1 X-48.791 Y-55.241 E46.64892
G1 X-48.618 Y-55.623 E46.65938
G1 X-48.486 Y-55.827 E46.66544
G1 X-47.944 Y-56.568 E46.68834
G1 X-47.525 Y-57 E46.70336
G1 X-46.951 Y-57.45 E46.72155
G1 X-46.49 Y-57.728 E46.73498
G1 X-45.882 Y-57.999 E46.75158
G1 X-45.333 Y-58.162 E46.76587
G1 X-44.575 Y-58.283 E46.78502
G1 X-44.228 Y-58.311 E46.7937
G1 X-5.502 Y-58.308 E47.75973
G1 X-5.389 Y-58.305 E47.76255
G1 X-3.025 Y-58.184 E47.82159
G1 X2.546 Y-58.123 E47.96057
G1 X4.135 Y-58.173 E48.00023
G1 X4.204 Y-58.174 E48.00195
G1 X44.424 Y-58.199 E49.00524
G1 X45.002 Y-58.122 E49.01979
G1 X45.922 Y-57.872 E49.04357
G1 X46.314 Y-57.724 E49.05402
G1 X46.606 Y-57.552 E49.06248
G1 X47.397 Y-56.999 E49.08655
G1 X47.762 Y-56.677 E49.09869
G1 X48.007 Y-56.408 E49.10777
G1 X48.269 Y-56.057 E49.11869
G1 X48.71 Y-55.32 E49.14012
G1 X48.904 Y-54.901 E49.15164
G1 X49.071 Y-54.412 E49.16453
G1 X49.167 Y-54.009 E49.17486
G1 X49.264 Y-53.323 E49.19214
G1 X49.286 Y-53.014 E49.19987
G1 X49.258 Y53.486 E51.85652
G1 X49.218 Y53.903 E51.86697
G1 X49.153 Y54.157 E51.87351
G1 X48.819 Y55.199 E51.90081
G1 X48.654 Y55.584 E51.91126
G1 X48.539 Y55.77 E51.91671
G1 X48.096 Y56.417 E51.93627
G1 X47.689 Y56.865 E51.95137
G1 X47.008 Y57.432 E51.97348
G1 X46.662 Y57.668 E51.98393
G1 X46.416 Y57.784 E51.99071
G1 X45.58 Y58.118 E52.01317
G1 X45.178 Y58.236 E52.02362
G1 X44.768 Y58.275 E52.03389
G1 X6.311 Y58.345 E52.99321
G1 X6.239 Y58.344 E52.995
G1 X-.541 Y58.134 E53.16421
G1 F1500 E46.66421
G1 Z1.15
G0 F3600 X3.893 Y54.702 Z1.15
;TYPE:WALL-INNER
G1 Z0.15
G1 F1500 E53.16421
G1 F1800 X3.771 Y54.541 E53.16925
G1 X3.663 Y54.369 E53.17432
G1 X3.561 Y54.173 E53.17983
G1 X3.473 Y53.968 E53.18539
G1 X3.392 Y53.718 E53.19195
G1 X3.357 Y53.569 E53.19577
G1 X3.318 Y53.354 E53.20122
G1 X3.3 Y53.167 E53.2059
G1 X3.292 Y52.955 E53.2112
G1 X3.292 Y-52.824 E55.84986
G1 X3.301 Y-53.063 E55.85583
G1 X3.326 Y-53.288 E55.86148
G1 X3.365 Y-53.487 E55.86654
G1 X3.421 Y-53.692 E55.87184
G1 X3.5 Y-53.912 E55.87767
G1 X3.577 Y-54.083 E55.88235
G1 X3.685 Y-54.281 E55.88797
G1 X3.788 Y-54.439 E55.89268
G1 X3.925 Y-54.616 E55.89826
G1 X4.051 Y-54.753 E55.9029
G1 X4.202 Y-54.893 E55.90804
G1 X4.351 Y-55.009 E55.91275
G1 X4.536 Y-55.129 E55.91825
G1 X4.689 Y-55.211 E55.92258
G1 X4.865 Y-55.286 E55.92735
G1 X5.046 Y-55.344 E55.93209
G1 X5.232 Y-55.387 E55.93686
G1 X5.411 Y-55.411 E55.94136
G1 X5.63 Y-55.421 E55.94683
G1 X44.199 Y-55.419 E56.90894
G1 X44.402 Y-55.408 E56.91401
G1 X44.587 Y-55.382 E56.91867
G1 X44.772 Y-55.338 E56.92341
G1 X44.954 Y-55.276 E56.92821
G1 X45.143 Y-55.192 E56.93337
G1 X45.295 Y-55.109 E56.93769
G1 X45.469 Y-54.992 E56.94292
G1 X45.627 Y-54.865 E56.94798
G1 X45.781 Y-54.718 E56.95329
G1 X45.911 Y-54.569 E56.95822
G1 X46.032 Y-54.408 E56.96324
G1 X46.152 Y-54.214 E56.96893
G1 X46.243 Y-54.037 E56.9739
G1 X46.327 Y-53.839 E56.97926
G1 X46.407 Y-53.589 E56.98581
G1 X46.447 Y-53.42 E56.99014
G1 X46.481 Y-53.23 E56.99496
G1 X46.498 Y-53.055 E56.99934
G1 X46.507 Y-52.83 E57.00496
G1 X46.507 Y52.949 E59.64363
G1 X46.499 Y53.179 E59.64937
G1 X46.473 Y53.412 E59.65522
G1 X46.433 Y53.616 E59.6604
G1 X46.378 Y53.822 E59.66572
G1 X46.305 Y54.022 E59.67103
G1 X46.218 Y54.217 E59.67636
G1 X46.121 Y54.394 E59.6814
G1 X46.003 Y54.577 E59.68683
G1 X45.882 Y54.732 E59.69173
G1 X45.742 Y54.884 E59.69689
G1 X45.6 Y55.016 E59.70172
G1 X45.438 Y55.143 E59.70686
G1 X45.284 Y55.242 E59.71142
G1 X45.101 Y55.339 E59.71659
G1 X44.927 Y55.414 E59.72132
G1 X44.759 Y55.468 E59.72572
G1 X44.559 Y55.514 E59.73084
G1 X44.396 Y55.536 E59.73494
G1 X44.169 Y55.547 E59.74061
G1 X5.629 Y55.545 E60.702
G1 X5.398 Y55.534 E60.70776
G1 X5.234 Y55.513 E60.71189
G1 X5.041 Y55.468 E60.71683
G1 X4.858 Y55.407 E60.72164
G1 X4.676 Y55.329 E60.72658
G1 X4.499 Y55.232 E60.73162
G1 X4.34 Y55.125 E60.7364
G1 X4.184 Y55.003 E60.74134
G1 X4.034 Y54.86 E60.74651
G1 X3.893 Y54.702 E60.75179
G0 F3600 X3.97 Y54.639
G0 X6.129 Y50.485
G0 X6.199 Y50.415
G1 F1800 X7.899 Y50.415 E60.7942
G1 X7.899 Y-50.784 E63.31862
G1 X6.199 Y-50.784 E63.36102
G1 X6.199 Y50.415 E65.88544
G0 F3600 X6.129 Y50.485
G0 X11.279 Y51.185
G0 X11.349 Y51.115
G1 F1800 X19.549 Y51.115 E66.08999
G1 X19.549 Y37.915 E66.41927
G1 X11.349 Y37.915 E66.62382
G1 X11.349 Y51.115 E66.95309
G0 F3600 X11.279 Y51.185
G0 X11.321 Y37.887
G0 X14.644 Y34.861
G0 X14.662 Y34.763
G1 F1800 X14.97 Y34.807 E66.96085
G1 X15.278 Y34.825 E66.96855
G1 X15.588 Y34.817 E66.97629
G1 X15.896 Y34.782 E66.98402
G1 X16.2 Y34.72 E66.99176
G1 X16.496 Y34.634 E66.99945
G1 X16.786 Y34.52 E67.00722
G1 X17.063 Y34.384 E67.01492
G1 X17.328 Y34.225 E67.02263
G1 X17.579 Y34.042 E67.03038
G1 X17.813 Y33.838 E67.03812
G1 X18.027 Y33.616 E67.04581
G1 X18.223 Y33.377 E67.05352
G1 X18.399 Y33.118 E67.06133
G1 X18.549 Y32.848 E67.06904
G1 X18.677 Y32.566 E67.07676
G1 X18.779 Y32.273 E67.0845
G1 X18.857 Y31.974 E67.09221
G1 X18.907 Y31.668 E67.09995
G1 X18.932 Y31.361 E67.10763
G1 X18.931 Y31.05 E67.11539
G1 X18.902 Y30.742 E67.1231
G1 X18.848 Y30.437 E67.13083
G1 X18.767 Y30.138 E67.13856
G1 X18.661 Y29.846 E67.14631
G1 X18.529 Y29.566 E67.15403
G1 X18.375 Y29.299 E67.16172
G1 X18.198 Y29.044 E67.16946
G1 X18 Y28.806 E67.17718
G1 X17.782 Y28.586 E67.18491
G1 X17.546 Y28.385 E67.19264
G1 X17.294 Y28.205 E67.20037
G1 X17.026 Y28.047 E67.20813
G1 X16.748 Y27.915 E67.2158
G1 X16.456 Y27.805 E67.22359
G1 X16.16 Y27.722 E67.23126
G1 X15.855 Y27.664 E67.239
G1 X15.547 Y27.632 E67.24673
