;FLAVOR:RepRap
;TIME:2187
;Generated with Cura_SteamEngine 2.3.1
M190 S60
M104 S230
M109 S230
G21 ;metric values
G90 ;absolute positioning
M82 ;set extruder to absolute mode
M107 ;start with the fan off
G28 ;Home all axes (max endstops)
G1 Z15.0 F9000 ;move the platform down 15mm
G92 E0 ;zero the extruded length
G1 F200 E-1 ;extrude 6mm of feed stock

G92 E0 ;zero the extruded length again

M117 Autoleveling...
G29 ;Autolevel Z axes (min endstops)


G1 F9000
M117 Printing...

;LAYER_COUNT:40
;LAYER:0
M107
G1 F1500 E-4
G1 Z21.75
G0 F3600 X23.739 Y-4.113 Z1.95
;TYPE:SKIRT
G1 Z.2
G1 F1500 E0
G1 F1800 X23.739 Y5.881 E0.33573
G1 X23.699 Y6.445 E0.35472
G1 X23.58 Y6.998 E0.37372
G1 X23.278 Y7.745 E0.40079
G1 X21.509 Y11.102 E0.52826
G1 X20.323 Y13.54 E0.61933
G1 X18.157 Y18.514 E0.80158
G1 X16.256 Y23.661 E0.9859
G1 X15.443 Y26.186 E1.07501
G1 X13.924 Y31.459 E1.25935
G1 X13.713 Y32.026 E1.27967
G1 X12.946 Y33.69 E1.34122
G1 X12.697 Y34.148 E1.35873
G1 X12.089 Y35.113 E1.39705
G1 X11.799 Y35.517 E1.41375
G1 X10.849 Y36.676 E1.46409
G1 X10.405 Y37.136 E1.48557
G1 X8.881 Y38.484 E1.55392
G1 X8.298 Y38.913 E1.57824
G1 X6.628 Y39.921 E1.64376
G1 X6.066 Y40.202 E1.66487
G1 X4.692 Y40.76 E1.71469
G1 X4.18 Y40.929 E1.7328
G1 X2.717 Y41.304 E1.78353
G1 X2.2 Y41.401 E1.8012
G1 X.924 Y41.554 E1.84438
G1 X.495 Y41.582 E1.85882
G1 X-.705 Y41.596 E1.89913
G1 X-1.296 Y41.559 E1.91902
G1 X-3.279 Y41.287 E1.98626
G1 X-3.894 Y41.152 E2.00741
G1 X-5.285 Y40.731 E2.05623
G1 X-5.871 Y40.502 E2.07737
G1 X-7.678 Y39.626 E2.14483
G1 X-8.297 Y39.254 E2.16909
G1 X-9.887 Y38.089 E2.2353
G1 X-10.43 Y37.609 E2.25965
G1 X-11.806 Y36.153 E2.32695
G1 X-12.253 Y35.586 E2.3512
G1 X-13.325 Y33.937 E2.41727
G1 X-13.624 Y33.387 E2.4383
G1 X-14.227 Y32.036 E2.488
G1 X-14.352 Y31.72 E2.49942
G1 X-14.908 Y30.121 E2.55629
G1 X-14.991 Y29.853 E2.56571
G1 X-16.427 Y24.556 E2.75007
G1 X-18.14 Y19.397 E2.93268
G1 X-20.139 Y14.355 E3.11488
G1 X-22.435 Y9.399 E3.29837
G1 X-23.305 Y7.691 E3.36276
G1 X-23.526 Y7.171 E3.38174
G1 X-23.67 Y6.624 E3.40074
G1 X-23.741 Y5.876 E3.42598
G1 X-23.74 Y-37.604 E4.88659
G1 X-23.7 Y-38.168 E4.90559
G1 X-23.581 Y-38.721 E4.92459
G1 X-23.385 Y-39.251 E4.94357
G1 X-23.117 Y-39.748 E4.96254
G1 X-22.781 Y-40.203 E4.98154
G1 X-22.384 Y-40.606 E5.00054
G1 X-21.934 Y-40.948 E5.01953
G1 X-21.441 Y-41.224 E5.03851
G1 X-20.913 Y-41.428 E5.05753
G1 X-20.363 Y-41.555 E5.07649
G1 X-19.74 Y-41.604 E5.09748
G1 X19.74 Y-41.603 E6.42372
G1 X20.304 Y-41.563 E6.44272
G1 X20.857 Y-41.444 E6.46172
G1 X21.387 Y-41.248 E6.4807
G1 X21.884 Y-40.98 E6.49967
G1 X22.339 Y-40.644 E6.51867
G1 X22.742 Y-40.247 E6.53767
G1 X23.085 Y-39.797 E6.55668
G1 X23.36 Y-39.304 E6.57564
G1 X23.564 Y-38.776 E6.59466
G1 X23.691 Y-38.226 E6.61362
G1 X23.74 Y-37.602 E6.63465
G1 X23.738 Y-31.105 E6.8529
G1 X23.711 Y-30.641 E6.86851
G1 X23.302 Y-27.14 E6.98692
G1 X22.915 Y-21.708 E7.16986
G1 X22.837 Y-16.258 E7.35296
G1 X23.065 Y-10.865 E7.53429
G1 X23.718 Y-4.523 E7.74846
G1 X23.739 Y-4.113 E7.76225
G0 F3600 X23.339 Y-4.113
G1 F1800 X23.339 Y5.881 E8.09797
G1 X23.299 Y6.416 E8.116
G1 X23.18 Y6.939 E8.13401
G1 X22.924 Y7.559 E8.15655
G1 X21.147 Y10.932 E8.28462
G1 X19.968 Y13.354 E8.37511
G1 X17.783 Y18.372 E8.55896
G1 X15.885 Y23.512 E8.74303
G1 X15.045 Y26.118 E8.835
G1 X13.539 Y31.348 E9.01783
G1 X13.349 Y31.859 E9.03615
G1 X12.582 Y33.523 E9.0977
G1 X12.359 Y33.935 E9.11343
G1 X11.751 Y34.9 E9.15175
G1 X11.489 Y35.263 E9.16679
G1 X10.539 Y36.422 E9.21713
G1 X10.14 Y36.837 E9.23647
G1 X8.616 Y38.185 E9.30482
G1 X8.091 Y38.57 E9.32669
G1 X6.421 Y39.578 E9.39221
G1 X5.916 Y39.831 E9.41119
G1 X4.542 Y40.389 E9.46101
G1 X4.081 Y40.541 E9.47731
G1 X2.618 Y40.916 E9.52805
G1 X2.153 Y41.003 E9.54394
G1 X.877 Y41.156 E9.58711
G1 X.49 Y41.182 E9.60014
G1 X-.71 Y41.196 E9.64045
G1 X-1.241 Y41.163 E9.65833
G1 X-3.224 Y40.891 E9.72556
G1 X-3.778 Y40.77 E9.74461
G1 X-5.169 Y40.349 E9.79343
G1 X-5.696 Y40.142 E9.81245
G1 X-7.503 Y39.266 E9.87991
G1 X-8.061 Y38.931 E9.90178
G1 X-9.651 Y37.766 E9.96799
G1 X-10.139 Y37.335 E9.98986
G1 X-11.515 Y35.879 E10.05716
G1 X-11.917 Y35.368 E10.079
G1 X-12.989 Y33.719 E10.14507
G1 X-13.258 Y33.224 E10.164
G1 X-13.861 Y31.873 E10.2137
G1 X-13.974 Y31.588 E10.224
G1 X-14.53 Y29.989 E10.28087
G1 X-14.605 Y29.749 E10.28931
G1 X-16.042 Y24.447 E10.47385
G1 X-17.768 Y19.251 E10.65777
G1 X-19.765 Y14.212 E10.83986
G1 X-22.08 Y9.217 E11.0248
G1 X-22.949 Y7.51 E11.08914
G1 X-23.156 Y7.015 E11.10717
G1 X-23.287 Y6.495 E11.12518
G1 X-23.341 Y5.876 E11.14605
G1 X-23.34 Y-37.604 E12.60666
G1 X-23.3 Y-38.139 E12.62469
G1 X-23.181 Y-38.662 E12.64271
G1 X-22.986 Y-39.161 E12.6607
G1 X-22.718 Y-39.626 E12.67873
G1 X-22.385 Y-40.046 E12.69674
G1 X-21.993 Y-40.412 E12.71475
G1 X-21.551 Y-40.715 E12.73275
G1 X-21.068 Y-40.95 E12.7508
G1 X-20.557 Y-41.11 E12.76879
G1 X-20.027 Y-41.193 E12.78681
G1 X-19.74 Y-41.204 E12.79646
G1 X19.74 Y-41.203 E14.1227
G1 X20.275 Y-41.163 E14.14072
G1 X20.798 Y-41.044 E14.15874
G1 X21.297 Y-40.849 E14.17673
G1 X21.762 Y-40.581 E14.19476
G1 X22.182 Y-40.248 E14.21277
G1 X22.548 Y-39.856 E14.23079
G1 X22.851 Y-39.414 E14.24879
G1 X23.086 Y-38.931 E14.26683
G1 X23.246 Y-38.42 E14.28482
G1 X23.329 Y-37.89 E14.30284
G1 X23.34 Y-37.602 E14.31252
G1 X23.338 Y-31.105 E14.53077
G1 X23.314 Y-30.688 E14.5448
G1 X22.903 Y-27.171 E14.66375
G1 X22.516 Y-21.725 E14.84716
G1 X22.437 Y-16.264 E15.03063
G1 X22.667 Y-10.824 E15.21354
G1 X23.32 Y-4.482 E15.42771
G1 X23.339 Y-4.113 E15.44012
G0 F3600 X22.939 Y-4.113
G1 F1800 X22.939 Y5.881 E15.77585
G1 X22.899 Y6.385 E15.79283
G1 X22.78 Y6.876 E15.8098
G1 X22.57 Y7.372 E15.8279
G1 X20.791 Y10.749 E15.95612
G1 X19.604 Y13.188 E16.04724
G1 X17.417 Y18.21 E16.23124
G1 X15.501 Y23.398 E16.41703
G1 X14.671 Y25.973 E16.50791
G1 X13.155 Y31.238 E16.69196
G1 X12.986 Y31.692 E16.70824
G1 X12.219 Y33.356 E16.76979
G1 X12.02 Y33.722 E16.78378
G1 X11.412 Y34.687 E16.8221
G1 X11.18 Y35.01 E16.83546
G1 X10.23 Y36.169 E16.8858
G1 X9.875 Y36.537 E16.90298
G1 X8.351 Y37.885 E16.97132
G1 X7.885 Y38.228 E16.99076
G1 X6.215 Y39.236 E17.05629
G1 X5.765 Y39.461 E17.07319
G1 X4.391 Y40.019 E17.12301
G1 X3.982 Y40.154 E17.13748
G1 X2.519 Y40.529 E17.18821
G1 X2.105 Y40.606 E17.20236
G1 X.829 Y40.759 E17.24553
G1 X.485 Y40.782 E17.25711
G1 X-.715 Y40.796 E17.29742
G1 X-1.187 Y40.766 E17.31331
G1 X-3.17 Y40.494 E17.38055
G1 X-3.662 Y40.387 E17.39746
G1 X-5.053 Y39.966 E17.44629
G1 X-5.522 Y39.782 E17.46321
G1 X-7.329 Y38.906 E17.53067
G1 X-7.824 Y38.608 E17.55008
G1 X-9.414 Y37.443 E17.61629
G1 X-9.849 Y37.06 E17.63576
G1 X-11.225 Y35.604 E17.70306
G1 X-11.582 Y35.15 E17.72246
G1 X-12.654 Y33.501 E17.78853
G1 X-12.893 Y33.061 E17.80535
G1 X-13.496 Y31.71 E17.85505
G1 X-13.596 Y31.457 E17.86419
G1 X-14.152 Y29.858 E17.92106
G1 X-14.219 Y29.644 E17.92859
G1 X-15.66 Y24.326 E18.11368
G1 X-17.384 Y19.135 E18.29743
G1 X-19.405 Y14.04 E18.48156
G1 X-21.728 Y9.025 E18.66722
G1 X-22.592 Y7.328 E18.73119
G1 X-22.786 Y6.861 E18.74818
G1 X-22.903 Y6.369 E18.76516
G1 X-22.941 Y5.876 E18.78178
G1 X-22.94 Y-37.604 E20.24239
G1 X-22.9 Y-38.108 E20.25937
G1 X-22.781 Y-38.599 E20.27634
G1 X-22.586 Y-39.066 E20.29334
G1 X-22.321 Y-39.496 E20.31031
G1 X-21.99 Y-39.879 E20.32732
G1 X-21.604 Y-40.205 E20.34429
G1 X-21.171 Y-40.466 E20.36127
G1 X-20.703 Y-40.656 E20.37824
G1 X-20.21 Y-40.769 E20.39523
G1 X-19.74 Y-40.804 E20.41106
G1 X19.74 Y-40.803 E21.7373
G1 X20.244 Y-40.763 E21.75429
G1 X20.735 Y-40.644 E21.77126
G1 X21.202 Y-40.449 E21.78826
G1 X21.632 Y-40.184 E21.80523
G1 X22.015 Y-39.853 E21.82223
G1 X22.341 Y-39.467 E21.83921
G1 X22.602 Y-39.034 E21.85619
G1 X22.792 Y-38.566 E21.87316
G1 X22.905 Y-38.073 E21.89015
G1 X22.94 Y-37.602 E21.90601
G1 X22.938 Y-31.105 E22.12427
G1 X22.916 Y-30.734 E22.13675
G1 X22.505 Y-27.224 E22.25547
G1 X22.116 Y-21.741 E22.44012
G1 X22.037 Y-16.254 E22.62446
G1 X22.267 Y-10.799 E22.80787
G1 X22.922 Y-4.441 E23.02258
G1 X22.939 Y-4.113 E23.03362
G1 F1500 E19.03362
G1 Z1.95
G0 F3600 X19.149 Y-2.093 Z1.95
;TYPE:WALL-INNER
G1 Z.2
G1 F1500 E23.03362
G1 F1800 X19.149 Y-2.007 E23.03651
G1 X19.149 Y-1.809 E23.04316
G1 X19.149 Y-1.589 E23.05055
G1 X19.149 Y-1.503 E23.05344
G0 X19.111 Y-1.589
G0 X18.978 Y-1.809
G1 X18.821 Y-2.007 E23.05644
G1 X18.761 Y-2.067 E23.05905
G1 X18.643 Y-2.185 E23.06465
G1 X18.445 Y-2.342 E23.07314
G1 X18.225 Y-2.475 E23.08178
G1 X17.993 Y-2.578 E23.09031
G1 X17.753 Y-2.653 E23.09875
G1 X17.502 Y-2.7 E23.10733
G1 X17.249 Y-2.714 E23.11584
G1 X16.997 Y-2.7 E23.12432
G1 X16.746 Y-2.653 E23.1329
G1 X16.506 Y-2.578 E23.14135
G1 X16.274 Y-2.475 E23.14987
G1 X16.054 Y-2.342 E23.15851
G1 X15.856 Y-2.185 E23.167
G1 X15.678 Y-2.007 E23.17545
G1 X15.521 Y-1.809 E23.18394
G1 X15.388 Y-1.589 E23.19258
G1 X15.285 Y-1.357 E23.20111
G1 X15.21 Y-1.117 E23.20955
G1 X15.163 Y-.867 E23.2181
G1 X15.148 Y-.613 E23.22665
G1 X15.163 Y-.36 E23.23516
G1 X15.21 Y-.11 E23.2437
G1 X15.285 Y.131 E23.25218
G1 X15.389 Y.362 E23.26069
G1 X15.52 Y.58 E23.26924
G1 X15.678 Y.779 E23.27777
G1 X15.856 Y.957 E23.28623
G1 X16.054 Y1.114 E23.29472
G1 X16.274 Y1.247 E23.30335
G1 X16.506 Y1.35 E23.31188
G1 X16.746 Y1.425 E23.32033
G1 X16.996 Y1.472 E23.32887
G1 X17.249 Y1.487 E23.33739
G1 X17.503 Y1.472 E23.34593
G1 X17.753 Y1.425 E23.35448
G1 X17.993 Y1.35 E23.36293
G1 X18.225 Y1.247 E23.37145
G1 X18.445 Y1.114 E23.38009
G1 X18.643 Y.957 E23.38858
G1 X18.761 Y.839 E23.39418
G1 X18.821 Y.779 E23.39703
G1 X18.979 Y.58 E23.40557
G1 X19.11 Y.362 E23.41411
G1 X19.149 Y.275 E23.41732
G0 X19.149 Y.362
G0 X19.149 Y.58
G1 X19.149 Y.779 E23.41767
G1 X19.149 Y.865 E23.42032
G1 X19.149 Y5.286 E23.56883
G1 X-19.15 Y5.286 E24.8554
G1 X-19.15 Y.018 E25.03237
G1 X-19.15 Y-.11 E25.03667
G1 X-19.15 Y-.36 E25.04507
G1 X-19.15 Y-.613 E25.05357
G1 X-19.15 Y-.867 E25.0621
G1 X-19.15 Y-1.117 E25.0705
G1 X-19.15 Y-1.244 E25.07476
G1 X-19.15 Y-33.983 E26.17455
G1 X-19.15 Y-34.11 E26.17882
G1 X-19.15 Y-34.36 E26.18722
G1 X-19.15 Y-34.613 E26.19572
G1 X-19.15 Y-34.867 E26.20425
G1 X-19.15 Y-35.117 E26.21265
G1 X-19.15 Y-35.244 E26.21692
G1 X-19.15 Y-37.013 E26.27634
G1 X-17.384 Y-37.013 E26.33567
G1 X-17.253 Y-37.013 E26.34007
G1 X-17.002 Y-37.013 E26.3485
G1 X-16.75 Y-37.013 E26.35696
G1 X-16.497 Y-37.013 E26.36546
G1 X-16.246 Y-37.013 E26.37389
G1 X-16.115 Y-37.013 E26.37829
G1 X16.615 Y-37.013 E27.47779
G1 X16.746 Y-37.013 E27.48219
G1 X16.997 Y-37.013 E27.49062
G1 X17.249 Y-37.013 E27.49908
G1 X17.502 Y-37.013 E27.50758
G1 X17.753 Y-37.013 E27.51601
G1 X17.884 Y-37.013 E27.52041
G1 X19.149 Y-37.013 E27.56291
G1 X19.149 Y-36.093 E27.59381
G1 X19.149 Y-36.007 E27.5967
G1 X19.149 Y-35.809 E27.60335
G1 X19.149 Y-35.589 E27.61075
G1 X19.149 Y-35.503 E27.61363
G0 X19.111 Y-35.589
G0 X18.978 Y-35.809
G1 X18.821 Y-36.007 E27.61663
G1 X18.761 Y-36.067 E27.61924
G1 X18.643 Y-36.185 E27.62485
G1 X18.445 Y-36.342 E27.63334
G1 X18.225 Y-36.475 E27.64198
G1 X17.993 Y-36.578 E27.6505
G1 X17.878 Y-36.614 E27.65455
G1 X17.753 Y-36.653 E27.65873
G1 X17.502 Y-36.7 E27.66596
G1 X17.249 Y-36.714 E27.6708
G1 X16.997 Y-36.7 E27.67677
G1 X16.746 Y-36.653 E27.68401
G1 X16.621 Y-36.614 E27.68819
G1 X16.506 Y-36.578 E27.69223
G1 X16.274 Y-36.475 E27.70076
G1 X16.054 Y-36.342 E27.7094
G1 X15.856 Y-36.185 E27.71789
G1 X15.678 Y-36.007 E27.72634
G1 X15.521 Y-35.809 E27.73483
G1 X15.388 Y-35.589 E27.74347
G1 X15.285 Y-35.357 E27.75199
G1 X15.21 Y-35.117 E27.76044
G1 X15.163 Y-34.867 E27.76899
G1 X15.148 Y-34.613 E27.77753
G1 X15.163 Y-34.36 E27.78605
G1 X15.21 Y-34.11 E27.79459
G1 X15.285 Y-33.87 E27.80304
G1 X15.388 Y-33.638 E27.81157
G1 X15.521 Y-33.418 E27.8202
G1 X15.678 Y-33.22 E27.82869
G1 X15.856 Y-33.042 E27.83715
G1 X16.054 Y-32.885 E27.84564
G1 X16.274 Y-32.752 E27.85427
G1 X16.506 Y-32.649 E27.8628
G1 X16.746 Y-32.574 E27.87125
G1 X16.996 Y-32.527 E27.87979
G1 X17.249 Y-32.512 E27.8883
G1 X17.503 Y-32.527 E27.89685
G1 X17.753 Y-32.574 E27.9054
G1 X17.993 Y-32.649 E27.91384
G1 X18.225 Y-32.752 E27.92237
G1 X18.445 Y-32.885 E27.93101
G1 X18.643 Y-33.042 E27.9395
G1 X18.761 Y-33.16 E27.9451
G1 X18.821 Y-33.22 E27.94795
G1 X18.978 Y-33.418 E27.95644
G1 X19.111 Y-33.638 E27.96508
G1 X19.149 Y-33.724 E27.96824
G0 X19.149 Y-33.638
G0 X19.149 Y-33.418
G1 X19.149 Y-33.22 E27.9686
G1 X19.149 Y-33.134 E27.97125
G1 X19.149 Y-31.713 E28.01899
G1 X12.649 Y-31.713 E28.23734
G1 X12.649 Y-3.513 E29.18466
G1 X19.149 Y-3.513 E29.40301
G1 X19.149 Y-2.093 E29.45071
G0 F3600 X19.049 Y-2.093
G0 X18.007 Y-2.615
G0 X17.249 Y-2.754
G0 X-14.549 Y-.613
G0 X-14.649 Y-.613
G1 F1800 X-14.663 Y-.866 E29.45922
G1 X-14.71 Y-1.117 E29.4678
G1 X-14.785 Y-1.357 E29.47625
G1 X-14.888 Y-1.589 E29.48477
G1 X-15.021 Y-1.809 E29.49341
G1 X-15.178 Y-2.007 E29.5019
G1 X-15.356 Y-2.185 E29.51036
G1 X-15.554 Y-2.342 E29.51884
G1 X-15.774 Y-2.475 E29.52748
G1 X-16.006 Y-2.578 E29.53601
G1 X-16.246 Y-2.653 E29.54445
G1 X-16.497 Y-2.7 E29.55303
G1 X-16.75 Y-2.714 E29.56154
G1 X-17.002 Y-2.7 E29.57002
G1 X-17.253 Y-2.653 E29.5786
G1 X-17.493 Y-2.578 E29.58705
G1 X-17.725 Y-2.475 E29.59557
G1 X-17.945 Y-2.342 E29.60421
G1 X-18.143 Y-2.185 E29.6127
G1 X-18.321 Y-2.007 E29.62116
G1 X-18.478 Y-1.809 E29.62964
G1 X-18.611 Y-1.589 E29.63828
G1 X-18.714 Y-1.357 E29.64681
G1 X-18.752 Y-1.238 E29.651
G1 X-18.789 Y-1.117 E29.65505
G1 X-18.836 Y-.867 E29.66227
G1 X-18.851 Y-.613 E29.66715
G1 X-18.836 Y-.36 E29.67317
G1 X-18.789 Y-.11 E29.6804
G1 X-18.751 Y.012 E29.68448
G1 X-18.714 Y.131 E29.68867
G1 X-18.61 Y.362 E29.69718
G1 X-18.479 Y.58 E29.70572
G1 X-18.321 Y.779 E29.71426
G1 X-18.143 Y.957 E29.72272
G1 X-17.945 Y1.114 E29.7312
G1 X-17.725 Y1.247 E29.73984
G1 X-17.493 Y1.35 E29.74837
G1 X-17.253 Y1.425 E29.75681
G1 X-17.003 Y1.472 E29.76536
G1 X-16.75 Y1.487 E29.77387
G1 X-16.496 Y1.472 E29.78242
G1 X-16.246 Y1.425 E29.79097
G1 X-16.006 Y1.35 E29.79941
G1 X-15.774 Y1.247 E29.80794
G1 X-15.554 Y1.114 E29.81658
G1 X-15.356 Y.957 E29.82506
G1 X-15.178 Y.779 E29.83352
G1 X-15.02 Y.58 E29.84206
G1 X-14.889 Y.362 E29.8506
G1 X-14.785 Y.131 E29.85911
G1 X-14.71 Y-.11 E29.86759
G1 X-14.663 Y-.361 E29.87617
G1 X-14.649 Y-.613 E29.88465
G0 F3600 X-14.549 Y-.613
G0 X-16.484 Y-32.428
G0 X-16.496 Y-32.527
G1 F1800 X-16.246 Y-32.574 E29.89319
G1 X-16.006 Y-32.649 E29.90164
G1 X-15.774 Y-32.752 E29.91016
G1 X-15.554 Y-32.885 E29.9188
G1 X-15.356 Y-33.042 E29.92729
G1 X-15.178 Y-33.22 E29.93575
G1 X-15.021 Y-33.418 E29.94423
G1 X-14.888 Y-33.638 E29.95287
G1 X-14.785 Y-33.87 E29.9614
G1 X-14.71 Y-34.11 E29.96984
G1 X-14.663 Y-34.361 E29.97842
G1 X-14.649 Y-34.613 E29.9869
G1 X-14.663 Y-34.866 E29.99541
G1 X-14.71 Y-35.117 E30.00399
G1 X-14.785 Y-35.357 E30.01244
G1 X-14.888 Y-35.589 E30.02096
G1 X-15.021 Y-35.809 E30.0296
G1 X-15.178 Y-36.007 E30.03809
G1 X-15.356 Y-36.185 E30.04655
G1 X-15.554 Y-36.342 E30.05503
G1 X-15.774 Y-36.475 E30.06367
G1 X-16.006 Y-36.578 E30.0722
G1 X-16.121 Y-36.614 E30.07625
G1 X-16.246 Y-36.653 E30.08043
G1 X-16.497 Y-36.7 E30.08766
G1 X-16.75 Y-36.714 E30.09249
G1 X-17.002 Y-36.7 E30.09847
G1 X-17.253 Y-36.653 E30.1057
G1 X-17.378 Y-36.614 E30.10988
G1 X-17.493 Y-36.578 E30.11393
G1 X-17.725 Y-36.475 E30.12246
G1 X-17.945 Y-36.342 E30.13109
G1 X-18.143 Y-36.185 E30.13958
G1 X-18.321 Y-36.007 E30.14804
G1 X-18.478 Y-35.809 E30.15653
G1 X-18.611 Y-35.589 E30.16516
G1 X-18.714 Y-35.357 E30.17369
G1 X-18.752 Y-35.238 E30.17789
G1 X-18.789 Y-35.117 E30.18193
G1 X-18.836 Y-34.867 E30.18916
G1 X-18.851 Y-34.613 E30.19404
G1 X-18.836 Y-34.36 E30.20005
G1 X-18.789 Y-34.11 E30.20728
G1 X-18.752 Y-33.989 E30.21133
G1 X-18.714 Y-33.87 E30.21552
G1 X-18.611 Y-33.638 E30.22405
G1 X-18.478 Y-33.418 E30.23268
G1 X-18.321 Y-33.22 E30.24117
G1 X-18.143 Y-33.042 E30.24963
G1 X-17.945 Y-32.885 E30.25812
G1 X-17.725 Y-32.752 E30.26675
G1 X-17.493 Y-32.649 E30.27528
G1 X-17.253 Y-32.574 E30.28373
G1 X-17.003 Y-32.527 E30.29227
G1 X-16.75 Y-32.512 E30.30079
G1 X-16.496 Y-32.527 E30.30933
G0 F3600 X-16.545 Y-32.925
;TYPE:WALL-OUTER
G1 F1800 X-16.343 Y-32.963 E30.31624
G1 X-16.147 Y-33.024 E30.32313
G1 X-15.959 Y-33.107 E30.33004
G1 X-15.783 Y-33.214 E30.33696
G1 X-15.622 Y-33.341 E30.34385
G1 X-15.477 Y-33.486 E30.35073
