;FLAVOR:RepRap
;TIME:3078
;Generated with Cura_SteamEngine 2.3.1
M190 S60
M104 S230
M109 S230
G21 ;metric values
G90 ;absolute positioning
M82 ;set extruder to absolute mode
M107 ;start with the fan off
G28 ;Home all axes (max endstops)
G29 ;Auto Trim/Level
G1 Z15.0 F9000 ;move the platform down 15mm
G92 E0 ;zero the extruded length
G1 F200 E6 ;extrude 6mm of feed stock
G92 E0 ;zero the extruded length again

G1 F9000
M117 Printing...

;LAYER_COUNT:249
;LAYER:0
M107
G1 F1500 E-4
G1 Z21.75
G0 F3600 X-28.262 Y3.879 Z1.95
;TYPE:SKIRT
G1 Z.2
G1 F1500 E0
G1 F1800 X-28.238 Y-5.068 E0.30056
G1 X-28.23 Y-5.409 E0.31201
G1 X-27.821 Y-14.222 E0.60838
G1 X-27.8 Y-14.528 E0.61869
G1 X-27.272 Y-20.668 E0.82571
G1 X-27.165 Y-21.451 E0.85226
G1 X-26.979 Y-22.218 E0.87877
G1 X-26.716 Y-22.963 E0.90531
G1 X-26.38 Y-23.677 E0.93182
G1 X-25.973 Y-24.354 E0.95835
G1 X-25.499 Y-24.986 E0.98489
G1 X-24.964 Y-25.567 E1.01142
G1 X-24.374 Y-26.091 E1.03793
G1 X-23.733 Y-26.552 E1.06445
G1 X-23.049 Y-26.947 E1.09099
G1 X-22.328 Y-27.27 E1.11753
G1 X-21.578 Y-27.518 E1.14406
G1 X-20.808 Y-27.69 E1.17057
G1 X-20.224 Y-27.766 E1.19035
G1 X-16.604 Y-28.103 E1.31248
G1 X-16.422 Y-28.118 E1.31862
G1 X-11.473 Y-28.462 E1.48527
G1 X-11.198 Y-28.476 E1.49452
G1 X-2.324 Y-28.779 E1.7928
G1 X-2.058 Y-28.784 E1.80173
G1 X3.058 Y-28.784 E1.97359
G1 X3.252 Y-28.782 E1.98011
G1 X8.346 Y-28.655 E2.15128
G1 X8.541 Y-28.647 E2.15784
G1 X13.57 Y-28.396 E2.32699
G1 X13.824 Y-28.379 E2.33554
G1 X21.143 Y-27.774 E2.58224
G1 X21.925 Y-27.67 E2.60875
G1 X22.693 Y-27.486 E2.63527
G1 X23.439 Y-27.226 E2.66181
G1 X24.154 Y-26.892 E2.68832
G1 X24.832 Y-26.487 E2.71485
G1 X25.466 Y-26.016 E2.74139
G1 X26.049 Y-25.483 E2.76792
G1 X26.575 Y-24.894 E2.79445
G1 X27.038 Y-24.254 E2.82098
G1 X27.435 Y-23.572 E2.84749
G1 X27.76 Y-22.852 E2.87403
G1 X28.011 Y-22.103 E2.90057
G1 X28.185 Y-21.333 E2.92708
G1 X28.281 Y-20.549 E2.95362
G1 X28.3 Y-20.001 E2.97204
G1 X28.3 Y20 E4.31578
G1 X28.26 Y20.789 E4.34232
G1 X28.141 Y21.569 E4.36882
G1 X27.943 Y22.334 E4.39537
G1 X27.669 Y23.074 E4.42188
G1 X27.321 Y23.783 E4.44841
G1 X26.903 Y24.454 E4.47497
G1 X26.42 Y25.078 E4.50147
G1 X25.877 Y25.651 E4.52799
G1 X25.278 Y26.166 E4.55453
G1 X24.63 Y26.617 E4.58105
G1 X23.939 Y27.001 E4.60761
G1 X23.214 Y27.313 E4.63412
G1 X22.461 Y27.55 E4.66064
G1 X21.687 Y27.709 E4.68718
G1 X21.223 Y27.766 E4.70289
G1 X17.604 Y28.103 E4.82499
G1 X17.422 Y28.118 E4.83112
G1 X12.473 Y28.462 E4.99777
G1 X12.198 Y28.476 E5.00702
G1 X3.324 Y28.779 E5.3053
G1 X3.058 Y28.784 E5.31423
G1 X-2.058 Y28.784 E5.4861
G1 X-2.252 Y28.782 E5.49261
G1 X-7.346 Y28.655 E5.66379
G1 X-7.541 Y28.647 E5.67034
G1 X-12.57 Y28.396 E5.83949
G1 X-12.824 Y28.379 E5.84804
G1 X-20.143 Y27.774 E6.09475
G1 X-20.925 Y27.67 E6.12125
G1 X-21.693 Y27.486 E6.14778
G1 X-22.439 Y27.226 E6.17432
G1 X-23.154 Y26.892 E6.20083
G1 X-23.832 Y26.487 E6.22736
G1 X-24.466 Y26.016 E6.25389
G1 X-25.049 Y25.483 E6.28042
G1 X-25.575 Y24.894 E6.30695
G1 X-26.038 Y24.254 E6.33349
G1 X-26.435 Y23.572 E6.36
G1 X-26.76 Y22.852 E6.38653
G1 X-27.011 Y22.103 E6.41307
G1 X-27.185 Y21.333 E6.43959
G1 X-27.275 Y20.619 E6.46376
G1 X-27.951 Y12.114 E6.75037
G1 X-27.97 Y11.789 E6.76131
G1 X-28.256 Y4.193 E7.01666
G1 X-28.262 Y3.879 E7.02721
G0 F3600 X-27.862 Y3.88
G1 F1800 X-27.838 Y-5.067 E7.32776
G1 X-27.83 Y-5.39 E7.33862
G1 X-27.421 Y-14.203 E7.63499
G1 X-27.402 Y-14.494 E7.64478
G1 X-26.874 Y-20.634 E7.8518
G1 X-26.768 Y-21.396 E7.87765
G1 X-26.584 Y-22.143 E7.90349
G1 X-26.323 Y-22.866 E7.92931
G1 X-25.989 Y-23.559 E7.95516
G1 X-25.584 Y-24.213 E7.981
G1 X-25.114 Y-24.822 E8.00684
G1 X-24.583 Y-25.379 E8.03269
G1 X-23.998 Y-25.877 E8.0585
G1 X-23.363 Y-26.312 E8.08436
G1 X-22.687 Y-26.679 E8.11019
G1 X-21.977 Y-26.974 E8.13602
G1 X-21.24 Y-27.193 E8.16185
G1 X-20.187 Y-27.368 E8.19771
G1 X-16.567 Y-27.705 E8.31984
G1 X-16.394 Y-27.719 E8.32567
G1 X-11.445 Y-28.063 E8.49232
G1 X-11.185 Y-28.077 E8.50107
G1 X-2.311 Y-28.38 E8.79934
G1 X-2.058 Y-28.384 E8.80784
G1 X3.058 Y-28.384 E8.97971
G1 X3.242 Y-28.382 E8.98589
G1 X8.336 Y-28.255 E9.15706
G1 X8.521 Y-28.248 E9.16328
G1 X13.55 Y-27.997 E9.33243
G1 X13.791 Y-27.981 E9.34054
G1 X21.11 Y-27.376 E9.58725
G1 X21.872 Y-27.273 E9.61308
G1 X22.619 Y-27.091 E9.6389
G1 X23.344 Y-26.833 E9.66476
G1 X24.037 Y-26.501 E9.69057
G1 X24.693 Y-26.098 E9.71643
G1 X25.303 Y-25.63 E9.74226
G1 X25.862 Y-25.101 E9.76811
G1 X26.362 Y-24.517 E9.79394
G1 X26.799 Y-23.884 E9.81978
G1 X27.168 Y-23.209 E9.84562
G1 X27.465 Y-22.5 E9.87144
G1 X27.687 Y-21.763 E9.8973
G1 X27.831 Y-21.008 E9.92312
G1 X27.9 Y-20.001 E9.95703
G1 X27.9 Y20 E11.30077
G1 X27.86 Y20.768 E11.3266
G1 X27.741 Y21.528 E11.35245
G1 X27.543 Y22.271 E11.37828
G1 X27.269 Y22.99 E11.40412
G1 X26.922 Y23.676 E11.42995
G1 X26.506 Y24.323 E11.45579
G1 X26.025 Y24.923 E11.48162
G1 X25.484 Y25.47 E11.50747
G1 X24.889 Y25.958 E11.53332
G1 X24.247 Y26.381 E11.55914
G1 X23.564 Y26.736 E11.585
G1 X22.849 Y27.017 E11.61081
G1 X22.107 Y27.223 E11.63668
G1 X21.186 Y27.368 E11.668
G1 X17.567 Y27.705 E11.79009
G1 X17.394 Y27.719 E11.79592
G1 X12.445 Y28.063 E11.96258
G1 X12.185 Y28.077 E11.97132
G1 X3.311 Y28.38 E12.2696
G1 X3.058 Y28.384 E12.2781
G1 X-2.058 Y28.384 E12.44996
G1 X-2.242 Y28.382 E12.45614
G1 X-7.336 Y28.255 E12.62732
G1 X-7.521 Y28.248 E12.63353
G1 X-12.55 Y27.997 E12.80268
G1 X-12.791 Y27.981 E12.8108
G1 X-20.11 Y27.376 E13.0575
G1 X-20.872 Y27.273 E13.08333
G1 X-21.619 Y27.091 E13.10916
G1 X-22.344 Y26.833 E13.13501
G1 X-23.037 Y26.501 E13.16082
G1 X-23.693 Y26.098 E13.18669
G1 X-24.303 Y25.63 E13.21251
G1 X-24.862 Y25.101 E13.23837
G1 X-25.362 Y24.517 E13.26419
G1 X-25.799 Y23.884 E13.29003
G1 X-26.168 Y23.209 E13.31587
G1 X-26.465 Y22.5 E13.3417
G1 X-26.687 Y21.763 E13.36755
G1 X-26.831 Y21.008 E13.39337
G1 X-26.877 Y20.587 E13.4076
G1 X-27.553 Y12.082 E13.69421
G1 X-27.571 Y11.774 E13.70457
G1 X-27.857 Y4.178 E13.95992
G1 X-27.862 Y3.88 E13.96993
G0 F3600 X-27.462 Y3.881
G1 F1800 X-27.438 Y-5.066 E14.27049
G1 X-27.43 Y-5.372 E14.28077
G1 X-27.021 Y-14.185 E14.57714
G1 X-27.003 Y-14.46 E14.5864
G1 X-26.475 Y-20.6 E14.79342
G1 X-26.371 Y-21.341 E14.81856
G1 X-26.189 Y-22.066 E14.84367
G1 X-25.93 Y-22.768 E14.86881
G1 X-25.598 Y-23.438 E14.89392
G1 X-25.197 Y-24.069 E14.91904
G1 X-24.73 Y-24.654 E14.94419
G1 X-24.203 Y-25.185 E14.96932
G1 X-23.623 Y-25.658 E14.99446
G1 X-22.996 Y-26.065 E15.01957
G1 X-22.329 Y-26.403 E15.04469
G1 X-21.629 Y-26.669 E15.06984
G1 X-20.905 Y-26.858 E15.09498
G1 X-20.15 Y-26.97 E15.12062
G1 X-16.53 Y-27.307 E15.24275
G1 X-16.366 Y-27.32 E15.24828
G1 X-11.417 Y-27.664 E15.41493
G1 X-11.171 Y-27.677 E15.4232
G1 X-2.297 Y-27.98 E15.72148
G1 X-2.058 Y-27.984 E15.72951
G1 X3.058 Y-27.984 E15.90137
G1 X3.232 Y-27.982 E15.90722
G1 X8.326 Y-27.855 E16.07839
G1 X8.501 Y-27.848 E16.08427
G1 X13.53 Y-27.597 E16.25342
G1 X13.758 Y-27.582 E16.2611
G1 X21.077 Y-26.977 E16.5078
G1 X21.818 Y-26.876 E16.53292
G1 X22.544 Y-26.696 E16.55805
G1 X23.247 Y-26.44 E16.58318
G1 X23.918 Y-26.11 E16.6083
G1 X24.55 Y-25.71 E16.63343
G1 X25.137 Y-25.245 E16.65858
G1 X25.67 Y-24.721 E16.68369
G1 X26.144 Y-24.142 E16.70883
G1 X26.554 Y-23.516 E16.73397
G1 X26.894 Y-22.85 E16.75909
G1 X27.162 Y-22.151 E16.78424
G1 X27.353 Y-21.428 E16.80936
G1 X27.466 Y-20.689 E16.83447
G1 X27.5 Y-20.001 E16.85761
G1 X27.5 Y20 E18.20135
G1 X27.46 Y20.747 E18.22648
G1 X27.341 Y21.485 E18.25159
G1 X27.143 Y22.207 E18.27674
G1 X26.87 Y22.903 E18.30186
G1 X26.523 Y23.566 E18.327
G1 X26.108 Y24.189 E18.35214
G1 X25.629 Y24.763 E18.37726
G1 X25.092 Y25.284 E18.40239
G1 X24.502 Y25.743 E18.4275
G1 X23.866 Y26.138 E18.45265
G1 X23.192 Y26.462 E18.47777
G1 X22.487 Y26.712 E18.5029
G1 X21.759 Y26.886 E18.52805
G1 X21.149 Y26.97 E18.54873
G1 X17.53 Y27.307 E18.67083
G1 X17.366 Y27.32 E18.67636
G1 X12.417 Y27.664 E18.84301
G1 X12.171 Y27.677 E18.85128
G1 X3.297 Y27.98 E19.14956
G1 X3.058 Y27.984 E19.15759
G1 X-2.058 Y27.984 E19.32945
G1 X-2.232 Y27.982 E19.33529
G1 X-7.326 Y27.855 E19.50647
G1 X-7.501 Y27.848 E19.51235
G1 X-12.53 Y27.597 E19.6815
G1 X-12.758 Y27.582 E19.68918
G1 X-20.077 Y26.977 E19.93588
G1 X-20.818 Y26.876 E19.961
G1 X-21.544 Y26.696 E19.98613
G1 X-22.247 Y26.44 E20.01126
G1 X-22.918 Y26.11 E20.03638
G1 X-23.55 Y25.71 E20.06151
G1 X-24.137 Y25.245 E20.08666
G1 X-24.67 Y24.721 E20.11177
G1 X-25.144 Y24.142 E20.13691
G1 X-25.554 Y23.516 E20.16205
G1 X-25.894 Y22.85 E20.18717
G1 X-26.162 Y22.151 E20.21231
G1 X-26.353 Y21.428 E20.23743
G1 X-26.478 Y20.556 E20.26703
G1 X-27.154 Y12.051 E20.55363
G1 X-27.171 Y11.759 E20.56346
G1 X-27.457 Y4.163 E20.81881
G1 X-27.462 Y3.881 E20.82829
G0 F3600 X-27.062 Y3.882
G1 F1800 X-27.038 Y-5.065 E21.12884
G1 X-27.031 Y-5.353 E21.13852
G1 X-26.622 Y-14.166 E21.43489
G1 X-26.605 Y-14.425 E21.44361
G1 X-26.077 Y-20.565 E21.65063
G1 X-25.975 Y-21.285 E21.67506
G1 X-25.794 Y-21.988 E21.69944
G1 X-25.538 Y-22.668 E21.72385
G1 X-25.208 Y-23.315 E21.74825
G1 X-24.809 Y-23.922 E21.77265
G1 X-24.346 Y-24.482 E21.79706
G1 X-23.824 Y-24.987 E21.82146
G1 X-23.25 Y-25.432 E21.84586
G1 X-22.631 Y-25.811 E21.87024
G1 X-21.973 Y-26.12 E21.89466
G1 X-21.286 Y-26.354 E21.91904
G1 X-20.577 Y-26.512 E21.94344
G1 X-20.113 Y-26.572 E21.95916
G1 X-16.493 Y-26.909 E22.08129
G1 X-16.339 Y-26.921 E22.08648
G1 X-11.39 Y-27.265 E22.25313
G1 X-11.157 Y-27.277 E22.26097
G1 X-2.283 Y-27.58 E22.55924
G1 X-2.058 Y-27.584 E22.5668
G1 X3.058 Y-27.584 E22.73866
G1 X3.222 Y-27.582 E22.74417
G1 X8.316 Y-27.455 E22.91535
G1 X8.481 Y-27.449 E22.92089
G1 X13.51 Y-27.198 E23.09004
G1 X13.725 Y-27.184 E23.09728
G1 X21.044 Y-26.579 E23.34398
G1 X21.763 Y-26.479 E23.36837
G1 X22.467 Y-26.301 E23.39276
G1 X23.148 Y-26.047 E23.41718
G1 X23.796 Y-25.719 E23.44158
G1 X24.404 Y-25.322 E23.46597
G1 X24.966 Y-24.861 E23.49039
G1 X25.473 Y-24.341 E23.51478
G1 X25.919 Y-23.768 E23.53918
G1 X26.3 Y-23.15 E23.56357
G1 X26.611 Y-22.493 E23.58798
G1 X26.848 Y-21.807 E23.61237
G1 X27.008 Y-21.098 E23.63678
G1 X27.089 Y-20.376 E23.66119
G1 X27.1 Y-20.001 E23.67379
G1 X27.1 Y20 E25.01753
G1 X27.06 Y20.725 E25.04192
G1 X26.941 Y21.442 E25.06634
G1 X26.743 Y22.141 E25.09075
G1 X26.47 Y22.814 E25.11514
G1 X26.125 Y23.453 E25.13954
G1 X25.711 Y24.05 E25.16394
G1 X25.235 Y24.598 E25.18833
G1 X24.701 Y25.091 E25.21274
G1 X24.116 Y25.521 E25.23713
G1 X23.487 Y25.885 E25.26154
G1 X22.822 Y26.178 E25.28595
G1 X22.129 Y26.396 E25.31036
G1 X21.112 Y26.572 E25.34503
G1 X17.493 Y26.909 E25.46713
G1 X17.339 Y26.921 E25.47232
G1 X12.39 Y27.265 E25.63897
G1 X12.157 Y27.277 E25.64681
G1 X3.283 Y27.58 E25.94508
G1 X3.058 Y27.584 E25.95264
G1 X-2.058 Y27.584 E26.1245
G1 X-2.222 Y27.582 E26.13001
G1 X-7.316 Y27.455 E26.30119
G1 X-7.481 Y27.449 E26.30673
G1 X-12.51 Y27.198 E26.47588
G1 X-12.725 Y27.184 E26.48312
G1 X-20.044 Y26.579 E26.72982
G1 X-20.763 Y26.479 E26.75421
G1 X-21.467 Y26.301 E26.7786
G1 X-22.148 Y26.047 E26.80302
G1 X-22.796 Y25.719 E26.82742
G1 X-23.404 Y25.322 E26.85181
G1 X-23.966 Y24.861 E26.87623
G1 X-24.473 Y24.341 E26.90062
G1 X-24.919 Y23.768 E26.92502
G1 X-25.3 Y23.15 E26.9494
G1 X-25.611 Y22.493 E26.97382
G1 X-25.848 Y21.807 E26.9982
G1 X-26.008 Y21.098 E27.02262
G1 X-26.079 Y20.524 E27.04205
G1 X-26.755 Y12.019 E27.32866
G1 X-26.771 Y11.744 E27.33791
G1 X-27.057 Y4.148 E27.59326
G1 X-27.062 Y3.882 E27.6022
G0 F3600 X-26.662 Y3.883
G1 F1800 X-26.638 Y-5.064 E27.90275
G1 X-26.631 Y-5.334 E27.91183
G1 X-26.222 Y-14.147 E28.2082
G1 X-26.206 Y-14.391 E28.21641
G1 X-25.678 Y-20.531 E28.42343
G1 X-25.578 Y-21.228 E28.44709
G1 X-25.4 Y-21.909 E28.47073
G1 X-25.145 Y-22.565 E28.49438
G1 X-24.818 Y-23.189 E28.51804
G1 X-24.422 Y-23.771 E28.54169
G1 X-23.963 Y-24.305 E28.56534
G1 X-23.446 Y-24.783 E28.589
G1 X-22.879 Y-25.199 E28.61262
G1 X-22.268 Y-25.549 E28.63627
G1 X-21.621 Y-25.826 E28.65992
G1 X-20.947 Y-26.029 E28.68356
G1 X-20.076 Y-26.173 E28.71322
G1 X-16.456 Y-26.51 E28.83535
G1 X-16.311 Y-26.522 E28.84024
G1 X-11.362 Y-26.866 E29.00689
G1 X-11.144 Y-26.877 E29.01422
G1 X-2.27 Y-27.18 E29.3125
G1 X-2.058 Y-27.184 E29.31962
G1 X3.058 Y-27.184 E29.49148
G1 X3.213 Y-27.182 E29.49669
G1 X8.307 Y-27.055 E29.66786
G1 X8.461 Y-27.049 E29.67304
G1 X13.49 Y-26.798 E29.84219
G1 X13.692 Y-26.785 E29.84899
G1 X21.011 Y-26.18 E30.09569
G1 X21.708 Y-26.082 E30.11934
G1 X22.39 Y-25.906 E30.143
G1 X23.047 Y-25.654 E30.16664
G1 X23.671 Y-25.329 E30.19027
G1 X24.255 Y-24.935 E30.21394
G1 X24.79 Y-24.477 E30.23759
G1 X25.27 Y-23.962 E30.26124
G1 X25.688 Y-23.396 E30.28488
G1 X26.039 Y-22.786 E30.30852
G1 X26.319 Y-22.14 E30.33217
G1 X26.524 Y-21.467 E30.35581
G1 X26.652 Y-20.774 E30.37948
G1 X26.7 Y-20.001 E30.4055
G1 X26.7 Y20 E31.74924
G1 X26.66 Y20.703 E31.77289
G1 X26.541 Y21.397 E31.79655
G1 X26.343 Y22.072 E31.82018
G1 X26.071 Y22.721 E31.84382
G1 X25.726 Y23.335 E31.86748
G1 X25.315 Y23.906 E31.89111
G1 X24.841 Y24.427 E31.91477
G1 X24.311 Y24.891 E31.93843
G1 X23.732 Y25.291 E31.96208
G1 X23.111 Y25.623 E31.98573
G1 X22.457 Y25.883 E32.00937
G1 X21.777 Y26.067 E32.03304
G1 X21.075 Y26.173 E32.05689
G1 X17.456 Y26.51 E32.17898
G1 X17.311 Y26.522 E32.18387
G1 X12.362 Y26.866 E32.35052
G1 X12.144 Y26.877 E32.35786
G1 X3.27 Y27.18 E32.65613
G1 X3.058 Y27.184 E32.66325
G1 X-2.058 Y27.184 E32.83512
G1 X-2.213 Y27.182 E32.84032
G1 X-7.307 Y27.055 E33.0115
G1 X-7.461 Y27.049 E33.01667
G1 X-12.49 Y26.798 E33.18582
G1 X-12.692 Y26.785 E33.19262
G1 X-20.011 Y26.18 E33.43933
G1 X-20.708 Y26.082 E33.46297
G1 X-21.39 Y25.906 E33.48663
G1 X-22.047 Y25.654 E33.51027
G1 X-22.671 Y25.329 E33.5339
G1 X-23.255 Y24.935 E33.55757
G1 X-23.79 Y24.477 E33.58123
G1 X-24.27 Y23.962 E33.60488
G1 X-24.688 Y23.396 E33.62851
G1 X-25.039 Y22.786 E33.65216
G1 X-25.319 Y22.14 E33.67581
G1 X-25.524 Y21.467 E33.69944
G1 X-25.681 Y20.492 E33.73262
G1 X-26.357 Y11.987 E34.01922
G1 X-26.372 Y11.729 E34.0279
G1 X-26.658 Y4.133 E34.28326
G1 X-26.662 Y3.883 E34.29166
G0 F3600 X-26.262 Y3.884
G1 F1800 X-26.238 Y-5.063 E34.59221
G1 X-26.232 Y-5.316 E34.60071
G1 X-25.823 Y-14.129 E34.89708
G1 X-25.808 Y-14.357 E34.90476
G1 X-25.28 Y-20.497 E35.11178
G1 X-25.182 Y-21.171 E35.13466
G1 X-25.005 Y-21.828 E35.15752
G1 X-24.753 Y-22.461 E35.1804
G1 X-24.429 Y-23.059 E35.20325
G1 X-24.036 Y-23.616 E35.22615
G1 X-23.581 Y-24.122 E35.24901
G1 X-23.07 Y-24.572 E35.27188
G1 X-22.509 Y-24.959 E35.29478
G1 X-21.908 Y-25.277 E35.31762
G1 X-21.273 Y-25.523 E35.3405
G1 X-20.613 Y-25.692 E35.36338
G1 X-20.039 Y-25.775 E35.38286
G1 X-16.419 Y-26.112 E35.505
G1 X-16.283 Y-26.123 E35.50958
G1 X-11.334 Y-26.467 E35.67623
G1 X-11.13 Y-26.478 E35.68309
G1 X-2.256 Y-26.781 E35.98137
G1 X-2.058 Y-26.784 E35.98802
G1 X3.058 Y-26.784 E36.15988
G1 X3.203 Y-26.782 E36.16475
G1 X8.297 Y-26.655 E36.33593
G1 X8.441 Y-26.65 E36.34077
G1 X13.47 Y-26.399 E36.50992
G1 X13.659 Y-26.386 E36.51628
G1 X20.978 Y-25.781 E36.76298
G1 X21.652 Y-25.685 E36.78585
G1 X22.31 Y-25.511 E36.80872
G1 X22.943 Y-25.261 E36.83158
G1 X23.543 Y-24.939 E36.85446
G1 X24.101 Y-24.548 E36.87734
G1 X24.609 Y-24.095 E36.90021
G1 X25.06 Y-23.585 E36.92308
G1 X25.449 Y-23.026 E36.94596
G1 X25.769 Y-22.425 E36.96883
G1 X26.017 Y-21.791 E36.9917
G1 X26.189 Y-21.132 E37.01458
G1 X26.282 Y-20.458 E37.03743
G1 X26.3 Y-20.001 E37.0528
G1 X26.3 Y20 E38.39654
G1 X26.26 Y20.68 E38.41942
G1 X26.141 Y21.35 E38.44228
G1 X25.944 Y22.002 E38.46516
G1 X25.672 Y22.626 E38.48803
G1 X25.328 Y23.214 E38.51091
G1 X24.918 Y23.758 E38.5338
G1 X24.447 Y24.249 E38.55665
G1 X23.922 Y24.683 E38.57954
G1 X23.35 Y25.052 E38.6024
G1 X22.738 Y25.351 E38.62528
G1 X22.096 Y25.576 E38.64814
G1 X21.431 Y25.725 E38.67103
G1 X21.038 Y25.775 E38.68434
G1 X17.419 Y26.112 E38.80644
G1 X17.283 Y26.123 E38.81102
G1 X12.334 Y26.467 E38.97767
G1 X12.13 Y26.478 E38.98453
G1 X3.256 Y26.781 E39.28281
G1 X3.058 Y26.784 E39.28946
G1 X-2.058 Y26.784 E39.46132
G1 X-2.203 Y26.782 E39.46619
G1 X-7.297 Y26.655 E39.63737
G1 X-7.441 Y26.65 E39.64221
G1 X-12.47 Y26.399 E39.81136
G1 X-12.659 Y26.386 E39.81772
G1 X-19.978 Y25.781 E40.06442
G1 X-20.652 Y25.685 E40.08729
G1 X-21.31 Y25.511 E40.11016
G1 X-21.943 Y25.261 E40.13302
G1 X-22.543 Y24.939 E40.1559
