;FLAVOR:RepRap
;TIME:2134
;Filament used: 1.95274m
;Layer height: 0.175
;Generated with Cura_SteamEngine 2.4.0
M190 S105
;;M104 S240
;;M109 S240
G21 ;metric values
G90 ;absolute positioning
M82 ;set extruder to absolute mode
M107 ;start with the fan off
G28 ;Home all axes (max endstops)

M0 Add PROBE
M106 S255 ;	Turn fan on 100% power, cool the probe
M117 Auto leveling...
G29   ; DAQ -- auto level
M500
G1 x0 y0
M0 Remove PROBE

M104 S240
M109 S240

G1 Z75.0 F9000 ;move the platform down 15mm
G92 E0 ;zero the extruded length
G1 F200 E3 ;extrude 3mm of feed stock
G92 E0 ;zero the extruded length again

G1 Z100 F9000
M0 CLEAN ME...

M106 S191 ;	Turn fan on 50% power

G1 F9000
M117 Printing...
;LAYER_COUNT:57
;LAYER:0
M107
G1 F1500 E-6.5
G1 Z21
G0 F3600 X7.377 Y2.075 Z1.2
;TYPE:SKIRT
G1 Z0.2
G1 F1500 E0
G1 F1800 X7.44 Y7.596 E0.18364
G1 X7.81 Y13.032 E0.36486
G1 X8.492 Y18.475 E0.54731
G1 X9.479 Y23.861 E0.72943
G1 X10.072 Y26.468 E0.81836
G1 X10.754 Y29.121 E0.90947
G1 X12.347 Y34.379 E1.0922
G1 X14.22 Y39.498 E1.2735
G1 X16.536 Y44.841 E1.46718
G1 X16.706 Y45.334 E1.48453
G1 X16.798 Y45.846 E1.50183
G1 X16.816 Y46.182 E1.51302
G1 X16.898 Y70.969 E2.33744
G1 X16.86 Y71.489 E2.35478
G1 X16.743 Y71.996 E2.37209
G1 X16.549 Y72.48 E2.38943
G1 X16.284 Y72.929 E2.40677
G1 X15.953 Y73.332 E2.42412
G1 X15.565 Y73.679 E2.44143
G1 X15.128 Y73.964 E2.45879
G1 X14.653 Y74.178 E2.47611
G1 X14.151 Y74.317 E2.49344
G1 X13.633 Y74.377 E2.51078
G1 X13.112 Y74.358 E2.52812
G1 X12.601 Y74.259 E2.54543
G1 X12.11 Y74.084 E2.56277
G1 X11.801 Y73.926 E2.57431
G1 X-14.839 Y58.586 E3.59676
G1 X-15.269 Y58.293 E3.61407
G1 X-15.649 Y57.936 E3.63141
G1 X-15.971 Y57.526 E3.64875
G1 X-16.226 Y57.072 E3.66607
G1 X-16.408 Y56.583 E3.68342
G1 X-16.514 Y56.073 E3.70075
G1 X-16.542 Y55.651 E3.71481
G1 X-16.897 Y-55.657 E7.41695
G1 X-16.859 Y-56.177 E7.43429
G1 X-16.741 Y-56.685 E7.45164
G1 X-16.548 Y-57.169 E7.46897
G1 X-16.283 Y-57.617 E7.48628
G1 X-15.952 Y-58.02 E7.50363
G1 X-15.564 Y-58.368 E7.52096
G1 X-15.196 Y-58.613 E7.53567
G1 X11.346 Y-73.929 E8.55489
G1 X11.816 Y-74.154 E8.57222
G1 X12.315 Y-74.305 E8.58956
G1 X12.831 Y-74.377 E8.60689
G1 X13.352 Y-74.37 E8.62422
G1 X13.866 Y-74.283 E8.64156
G1 X14.36 Y-74.119 E8.65887
G1 X14.824 Y-73.881 E8.67622
G1 X15.246 Y-73.576 E8.69354
G1 X15.616 Y-73.209 E8.71087
G1 X15.926 Y-72.79 E8.7282
G1 X16.168 Y-72.328 E8.74555
G1 X16.337 Y-71.835 E8.76288
G1 X16.428 Y-71.322 E8.78021
G1 X16.445 Y-70.995 E8.7911
G1 X16.536 Y-42.171 E9.7498
G1 X16.498 Y-41.651 E9.76714
G1 X16.38 Y-41.143 E9.78449
G1 X16.245 Y-40.783 E9.79727
G1 X15.316 Y-38.685 E9.87359
G1 X13.27 Y-33.535 E10.0579
G1 X12.396 Y-31.026 E10.14627
G1 X10.811 Y-25.772 E10.3288
G1 X9.531 Y-20.464 E10.5104
G1 X8.553 Y-15.089 E10.69211
G1 X7.879 Y-9.659 E10.8741
G1 X7.513 Y-4.199 E11.05611
G1 X7.377 Y2.075 E11.26483
G0 F3600 X6.976 Y2.07
G1 F1800 X7.04 Y7.61 E11.4491
G1 X7.412 Y13.075 E11.63129
G1 X8.095 Y18.525 E11.81398
G1 X9.089 Y23.948 E11.99735
G1 X9.681 Y26.55 E12.08611
G1 X10.373 Y29.245 E12.17865
G1 X11.967 Y34.506 E12.36149
G1 X13.847 Y39.643 E12.54343
G1 X16.169 Y45 E12.73762
G1 X16.326 Y45.464 E12.75391
G1 X16.416 Y46.183 E12.77801
G1 X16.498 Y70.97 E13.60243
G1 X16.46 Y71.458 E13.61871
G1 X16.342 Y71.933 E13.63499
G1 X16.15 Y72.383 E13.65127
G1 X15.886 Y72.796 E13.66757
G1 X15.559 Y73.16 E13.68384
G1 X15.177 Y73.466 E13.70012
G1 X14.75 Y73.706 E13.71641
G1 X14.291 Y73.873 E13.73266
G1 X13.809 Y73.964 E13.74897
G1 X13.32 Y73.975 E13.76524
G1 X12.835 Y73.906 E13.78154
G1 X12.368 Y73.759 E13.79782
G1 X12.001 Y73.58 E13.8114
G1 X-14.639 Y58.24 E14.83385
G1 X-15.042 Y57.962 E14.85013
G1 X-15.394 Y57.622 E14.86641
G1 X-15.686 Y57.229 E14.88269
G1 X-15.911 Y56.794 E14.89898
G1 X-16.062 Y56.329 E14.91524
G1 X-16.142 Y55.65 E14.93798
G1 X-16.497 Y-55.658 E18.64012
G1 X-16.459 Y-56.146 E18.6564
G1 X-16.341 Y-56.622 E18.67271
G1 X-16.148 Y-57.072 E18.689
G1 X-15.885 Y-57.484 E18.70526
G1 X-15.558 Y-57.848 E18.72153
G1 X-14.996 Y-58.266 E18.74483
G1 X11.546 Y-73.582 E19.76405
G1 X11.988 Y-73.792 E19.78033
G1 X12.459 Y-73.926 E19.79661
G1 X12.945 Y-73.982 E19.81288
G1 X13.434 Y-73.959 E19.82917
G1 X13.912 Y-73.856 E19.84543
G1 X14.368 Y-73.677 E19.86172
G1 X14.788 Y-73.426 E19.878
G1 X15.162 Y-73.11 E19.89428
G1 X15.48 Y-72.737 E19.91058
G1 X15.732 Y-72.318 E19.92685
G1 X15.913 Y-71.863 E19.94313
G1 X16.018 Y-71.385 E19.95941
G1 X16.045 Y-70.993 E19.97248
G1 X16.136 Y-42.169 E20.93118
G1 X16.098 Y-41.681 E20.94746
G1 X15.98 Y-41.206 E20.96373
G1 X15.879 Y-40.945 E20.97304
G1 X14.949 Y-38.846 E21.0494
G1 X12.891 Y-33.667 E21.23476
G1 X12.019 Y-31.161 E21.32301
G1 X10.423 Y-25.871 E21.50679
G1 X9.143 Y-20.561 E21.68846
G1 X8.156 Y-15.138 E21.87179
G1 X7.481 Y-9.7 E22.05405
G1 X7.113 Y-4.211 E22.23702
G1 X6.976 Y2.07 E22.44598
G0 F3600 X6.576 Y2.067
G1 F1800 X6.64 Y7.625 E22.63085
G1 X7.014 Y13.116 E22.81391
G1 X7.7 Y18.593 E22.99749
G1 X8.694 Y24.017 E23.1809
G1 X9.297 Y26.667 E23.27129
G1 X9.984 Y29.341 E23.36312
G1 X11.583 Y34.617 E23.54648
G1 X13.481 Y39.803 E23.73016
G1 X15.802 Y45.159 E23.92431
G1 X15.945 Y45.591 E23.93944
G1 X16.016 Y46.184 E23.95931
G1 X16.098 Y70.971 E24.78373
G1 X16.06 Y71.425 E24.79888
G1 X15.942 Y71.866 E24.81407
G1 X15.75 Y72.279 E24.82921
G1 X15.489 Y72.652 E24.84436
G1 X15.167 Y72.974 E24.8595
G1 X14.793 Y73.235 E24.87467
G1 X14.379 Y73.426 E24.88984
G1 X13.939 Y73.542 E24.90497
G1 X13.485 Y73.58 E24.92012
G1 X13.031 Y73.538 E24.93529
G1 X12.592 Y73.417 E24.95043
G1 X12.201 Y73.233 E24.96481
G1 X-14.439 Y57.893 E25.98725
G1 X-14.813 Y57.632 E26.00242
G1 X-15.135 Y57.31 E26.01757
G1 X-15.396 Y56.936 E26.03274
G1 X-15.588 Y56.523 E26.04789
G1 X-15.704 Y56.082 E26.06305
G1 X-15.742 Y55.648 E26.07754
G1 X-16.097 Y-55.66 E29.77968
G1 X-16.059 Y-56.114 E29.79483
G1 X-15.941 Y-56.554 E29.80998
G1 X-15.749 Y-56.967 E29.82513
G1 X-15.488 Y-57.34 E29.84027
G1 X-15.165 Y-57.662 E29.85544
G1 X-14.796 Y-57.92 E29.87042
G1 X11.746 Y-73.236 E30.88964
G1 X12.159 Y-73.428 E30.90479
G1 X12.599 Y-73.545 E30.91994
G1 X13.053 Y-73.584 E30.93509
G1 X13.507 Y-73.543 E30.95025
G1 X13.946 Y-73.423 E30.96539
G1 X14.358 Y-73.228 E30.98055
G1 X14.73 Y-72.964 E30.99572
G1 X15.05 Y-72.64 E31.01087
G1 X15.308 Y-72.264 E31.02604
G1 X15.497 Y-71.85 E31.04117
G1 X15.61 Y-71.409 E31.05631
G1 X15.645 Y-70.992 E31.07023
G1 X15.736 Y-42.168 E32.02893
G1 X15.697 Y-41.714 E32.04408
G1 X15.513 Y-41.107 E32.06518
G1 X14.579 Y-38.999 E32.14186
G1 X12.519 Y-33.813 E32.32746
G1 X11.638 Y-31.281 E32.41663
G1 X10.042 Y-25.993 E32.60034
G1 X8.747 Y-20.621 E32.78414
G1 X7.762 Y-15.205 E32.96723
G1 X7.083 Y-9.742 E33.15033
G1 X6.714 Y-4.225 E33.33423
G1 X6.576 Y2.067 E33.54356
G0 F3600 X6.176 Y2.063
G1 F1800 X6.24 Y7.639 E33.72903
G1 X6.616 Y13.158 E33.91301
G1 X7.303 Y18.644 E34.0969
G1 X8.305 Y24.108 E34.28167
G1 X8.901 Y26.73 E34.3711
G1 X9.604 Y29.465 E34.46502
G1 X11.205 Y34.75 E34.64869
G1 X13.105 Y39.942 E34.83258
G1 X15.435 Y45.318 E35.02746
G1 X15.564 Y45.717 E35.0414
G1 X15.616 Y46.186 E35.0571
G1 X15.698 Y70.973 E35.88152
G1 X15.659 Y71.39 E35.89545
G1 X15.543 Y71.792 E35.90937
G1 X15.351 Y72.165 E35.92332
G1 X15.093 Y72.495 E35.93725
G1 X14.777 Y72.77 E35.95119
G1 X14.414 Y72.98 E35.96513
G1 X14.018 Y73.118 E35.97908
G1 X13.604 Y73.177 E35.99299
G1 X13.185 Y73.158 E36.00694
G1 X12.778 Y73.059 E36.02087
G1 X12.4 Y72.887 E36.03469
G1 X-14.24 Y57.547 E37.05713
G1 X-14.581 Y57.304 E37.07106
G1 X-14.871 Y57.001 E37.08501
G1 X-15.097 Y56.648 E37.09895
G1 X-15.253 Y56.259 E37.11289
G1 X-15.342 Y55.647 E37.13346
G1 X-15.697 Y-55.661 E40.8356
G1 X-15.658 Y-56.078 E40.84953
G1 X-15.541 Y-56.481 E40.86349
G1 X-15.35 Y-56.854 E40.87742
G1 X-15.092 Y-57.183 E40.89133
G1 X-14.776 Y-57.458 E40.90526
G1 X-14.597 Y-57.574 E40.91236
G1 X11.945 Y-72.89 E41.93158
G1 X12.327 Y-73.063 E41.94553
G1 X12.734 Y-73.162 E41.95946
G1 X13.153 Y-73.181 E41.97341
G1 X13.567 Y-73.121 E41.98732
G1 X13.963 Y-72.983 E42.00127
G1 X14.325 Y-72.773 E42.01519
G1 X14.641 Y-72.498 E42.02912
G1 X14.899 Y-72.168 E42.04306
G1 X15.09 Y-71.794 E42.05702
G1 X15.207 Y-71.392 E42.07095
G1 X15.245 Y-70.991 E42.08435
G1 X15.336 Y-42.167 E43.04304
G1 X15.297 Y-41.75 E43.05697
G1 X15.147 Y-41.269 E43.07373
G1 X14.218 Y-39.173 E43.14998
G1 X12.144 Y-33.952 E43.33683
G1 X11.254 Y-31.395 E43.42689
G1 X9.655 Y-26.096 E43.61098
G1 X8.358 Y-20.714 E43.79511
G1 X7.365 Y-15.254 E43.97969
G1 X6.685 Y-9.782 E44.16309
G1 X6.314 Y-4.239 E44.34786
G1 X6.176 Y2.063 E44.55752
G1 F1500 E38.05752
G1 Z1.2
G0 F3600 X2.898 Y0.995 Z1.2
;TYPE:WALL-INNER
G1 Z0.2
G1 F1500 E44.55752
G1 F1800 X2.817 Y1.283 E44.56747
G1 X2.705 Y1.605 E44.57881
G1 X2.607 Y1.841 E44.58731
G1 X2.447 Y2.165 E44.59933
G1 X2.321 Y2.386 E44.60779
G1 X2.002 Y2.879 E44.62732
G1 X2.042 Y4.682 E44.6873
G1 X2.096 Y6.184 E44.73729
G1 X2.175 Y7.685 E44.78728
G1 X2.275 Y9.185 E44.83728
G1 X2.398 Y10.681 E44.88721
G1 X2.54 Y12.177 E44.93719
G1 X2.707 Y13.671 E44.98719
G1 X2.897 Y15.163 E45.03721
G1 X3.106 Y16.651 E45.08719
G1 X3.34 Y18.135 E45.13716
G1 X3.594 Y19.616 E45.18714
G1 X3.872 Y21.094 E45.23716
G1 X4.172 Y22.566 E45.28712
G1 X4.493 Y24.034 E45.3371
G1 X4.835 Y25.498 E45.38711
G1 X5.2 Y26.957 E45.43713
G1 X5.585 Y28.41 E45.48712
G1 X5.994 Y29.856 E45.5371
G1 X6.423 Y31.296 E45.58708
G1 X6.873 Y32.73 E45.63707
G1 X7.345 Y34.158 E45.68709
G1 X7.839 Y35.576 E45.73703
G1 X8.353 Y36.99 E45.78707
G1 X8.888 Y38.393 E45.83701
G1 X9.443 Y39.79 E45.88701
G1 X10.021 Y41.177 E45.93699
G1 X10.617 Y42.558 E45.98702
G1 X11.236 Y43.927 E46.03699
G1 X11.874 Y45.287 E46.08695
G1 X12.427 Y46.427 E46.12909
G1 X12.501 Y68.919 E46.87718
G1 X12.502 Y68.92 E46.87723
G1 X12.502 Y69.266 E46.88874
G1 X12.202 Y69.093 E46.89527
G1 X-12.153 Y55.067 E47.83005
G1 X-12.505 Y-55.103 E51.49434
G1 X11.762 Y-69.101 E52.42611
G1 X12.059 Y-69.272 E52.43751
G1 X12.059 Y-68.93 E52.44397
G1 X12.06 Y-68.928 E52.44404
G1 X12.146 Y-42.384 E53.3269
G1 X11.595 Y-41.236 E53.36925
G1 X10.963 Y-39.866 E53.41944
G1 X10.353 Y-38.487 E53.46959
G1 X9.763 Y-37.1 E53.51972
G1 X9.193 Y-35.703 E53.5699
G1 X8.644 Y-34.299 E53.62004
G1 X8.117 Y-32.886 E53.6702
G1 X7.61 Y-31.465 E53.72038
G1 X7.125 Y-30.037 E53.77054
G1 X6.661 Y-28.602 E53.82071
G1 X6.22 Y-27.159 E53.87089
G1 X5.8 Y-25.712 E53.921
G1 X5.4 Y-24.257 E53.97119
G1 X5.023 Y-22.797 E54.02135
G1 X4.669 Y-21.331 E54.07151
G1 X4.334 Y-19.862 E54.12162
G1 X4.023 Y-18.386 E54.17179
G1 X3.734 Y-16.905 E54.22198
G1 X3.467 Y-15.421 E54.27213
G1 X3.221 Y-13.933 E54.32229
G1 X2.999 Y-12.441 E54.37246
G1 X2.798 Y-10.946 E54.42263
G1 X2.619 Y-9.448 E54.47281
G1 X2.465 Y-7.948 E54.52296
G1 X2.331 Y-6.446 E54.57312
G1 X2.22 Y-4.942 E54.62328
G1 X2.115 Y-3.146 E54.68312
G1 X2.457 Y-2.554 E54.70585
G1 X2.594 Y-2.275 E54.71619
G1 X2.704 Y-2.015 E54.72558
G1 X2.819 Y-1.685 E54.73721
G1 X2.891 Y-1.427 E54.74611
G1 X2.964 Y-1.093 E54.75749
G1 X3.005 Y-.826 E54.76647
G1 X3.033 Y-.536 E54.77616
G1 X3.044 Y-.207 E54.78711
G1 X3.033 Y0.122 E54.79806
G1 X3.007 Y0.408 E54.80761
G1 X2.964 Y0.691 E54.81713
G1 X2.898 Y0.995 E54.82748
G0 F3600 X0.704 Y0.502
G1 F1800 X0.765 Y0.203 E54.83763
G1 X0.794 Y-.1 E54.84775
G1 X0.79 Y-.411 E54.8581
G1 X0.747 Y-.72 E54.86847
G1 X0.673 Y-1.016 E54.87862
G1 X0.566 Y-1.305 E54.88887
G1 X0.427 Y-1.581 E54.89915
G1 X0.257 Y-1.841 E54.90948
G1 X0.058 Y-2.08 E54.91982
G1 X-.164 Y-2.291 E54.93001
G1 X-.407 Y-2.478 E54.94021
G1 X-.672 Y-2.636 E54.95047
G1 X-.951 Y-2.766 E54.96071
G1 X-1.246 Y-2.862 E54.97103
G1 X-1.548 Y-2.924 E54.98128
G1 X-1.855 Y-2.952 E54.99153
G1 X-2.161 Y-2.948 E55.00171
G1 X-2.472 Y-2.907 E55.01215
G1 X-2.772 Y-2.829 E55.02246
G1 X-3.057 Y-2.725 E55.03255
G1 X-3.333 Y-2.585 E55.04284
G1 X-3.593 Y-2.415 E55.05317
G1 X-3.83 Y-2.216 E55.06346
G1 X-4.042 Y-1.996 E55.07363
G1 X-4.231 Y-1.75 E55.08394
G1 X-4.388 Y-1.486 E55.09416
G1 X-4.518 Y-1.206 E55.10443
G1 X-4.614 Y-.909 E55.11481
G1 X-4.675 Y-.61 E55.12496
G1 X-4.704 Y-.307 E55.13508
G1 X-4.7 Y0.004 E55.14543
G1 X-4.658 Y0.314 E55.15583
G1 X-4.581 Y0.612 E55.16607
G1 X-4.477 Y0.898 E55.17619
G1 X-4.337 Y1.174 E55.18648
G1 X-4.167 Y1.434 E55.19682
G1 X-3.968 Y1.671 E55.20711
G1 X-3.748 Y1.883 E55.21727
G1 X-3.502 Y2.072 E55.22759
G1 X-3.238 Y2.229 E55.2378
G1 X-2.958 Y2.359 E55.24807
G1 X-2.661 Y2.455 E55.25845
G1 X-2.362 Y2.516 E55.2686
G1 X-2.058 Y2.545 E55.27876
G1 X-1.747 Y2.541 E55.28911
G1 X-1.438 Y2.498 E55.29948
G1 X-1.142 Y2.424 E55.30963
G1 X-.852 Y2.317 E55.31991
G1 X-.576 Y2.176 E55.33022
G1 X-.319 Y2.008 E55.34043
G1 X-0.078 Y1.807 E55.35087
G1 X0.132 Y1.587 E55.36098
G1 X0.319 Y1.345 E55.37116
G1 X0.478 Y1.081 E55.38141
G1 X0.608 Y0.799 E55.39173
G1 X0.704 Y0.502 E55.40212
G0 F3600 X0.317 Y0.4
G1 F1800 X0.369 Y0.144 E55.4108
G1 X0.394 Y-.116 E55.41949
G1 X0.39 Y-.381 E55.42831
G1 X0.354 Y-.644 E55.43714
G1 X0.29 Y-.898 E55.44585
G1 X0.199 Y-1.145 E55.4546
G1 X0.08 Y-1.381 E55.46339
G1 X-0.065 Y-1.602 E55.47219
G1 X-.235 Y-1.806 E55.48102
G1 X-.425 Y-1.987 E55.48975
G1 X-.632 Y-2.147 E55.49845
G1 X-.859 Y-2.282 E55.50723
G1 X-1.098 Y-2.393 E55.516
G1 X-1.349 Y-2.475 E55.52478
G1 X-1.607 Y-2.528 E55.53354
G1 X-1.87 Y-2.552 E55.54232
G1 X-2.132 Y-2.548 E55.55104
G1 X-2.396 Y-2.514 E55.55989
G1 X-2.652 Y-2.447 E55.56869
G1 X-2.897 Y-2.357 E55.57737
G1 X-3.133 Y-2.238 E55.58616
G1 X-3.354 Y-2.093 E55.59496
G1 X-3.557 Y-1.923 E55.60376
G1 X-3.738 Y-1.735 E55.61244
G1 X-3.899 Y-1.525 E55.62124
G1 X-4.034 Y-1.299 E55.63
G1 X-4.145 Y-1.06 E55.63876
G1 X-4.227 Y-.807 E55.64761
G1 X-4.279 Y-.551 E55.6563
G1 X-4.304 Y-.291 E55.66499
G1 X-4.3 Y-0.026 E55.6738
G1 X-4.265 Y0.237 E55.68263
G1 X-4.199 Y0.493 E55.69142
G1 X-4.109 Y0.738 E55.7001
G1 X-3.99 Y0.974 E55.70889
G1 X-3.845 Y1.195 E55.71768
G1 X-3.675 Y1.398 E55.72649
G1 X-3.487 Y1.579 E55.73517
G1 X-3.277 Y1.74 E55.74397
G1 X-3.051 Y1.875 E55.75273
G1 X-2.812 Y1.986 E55.76149
G1 X-2.559 Y2.068 E55.77034
G1 X-2.303 Y2.12 E55.77902
G1 X-2.042 Y2.145 E55.78774
G1 X-1.777 Y2.141 E55.79656
G1 X-1.514 Y2.105 E55.80539
G1 X-1.26 Y2.041 E55.8141
G1 X-1.012 Y1.95 E55.82289
G1 X-.777 Y1.83 E55.83166
G1 X-.557 Y1.686 E55.84041
G1 X-.352 Y1.515 E55.84929
G1 X-.172 Y1.326 E55.85797
G1 X-0.012 Y1.119 E55.86667
G1 X0.124 Y0.893 E55.87544
G1 X0.235 Y0.653 E55.88424
G1 X0.317 Y0.4 E55.89308
G0 F3600 X0.413 Y0.425
G0 X2.309 Y2.966
G0 X2.405 Y2.993
G1 F1800 X2.442 Y4.67 E55.94887
G1 X2.496 Y6.166 E55.99866
G1 X2.574 Y7.661 E56.04846
G1 X2.674 Y9.155 E56.09826
G1 X2.796 Y10.646 E56.14801
G1 X2.938 Y12.136 E56.1978
G1 X3.104 Y13.624 E56.24759
G1 X3.293 Y15.11 E56.29742
G1 X3.502 Y16.592 E56.3472
G1 X3.735 Y18.07 E56.39696
G1 X3.988 Y19.545 E56.44674
G1 X4.265 Y21.017 E56.49656
G1 X4.563 Y22.483 E56.54631
G1 X4.883 Y23.946 E56.59612
G1 X5.224 Y25.404 E56.64592
G1 X5.587 Y26.857 E56.69574
G1 X5.971 Y28.304 E56.74553
G1 X6.378 Y29.744 E56.7953
G1 X6.806 Y31.179 E56.84511
G1 X7.254 Y32.607 E56.89488
G1 X7.724 Y34.029 E56.9447
G1 X8.216 Y35.442 E56.99446
G1 X8.728 Y36.85 E57.04429
G1 X9.261 Y38.248 E57.09405
G1 X9.814 Y39.639 E57.14384
G1 X10.389 Y41.021 E57.19363
G1 X10.983 Y42.396 E57.24344
G1 X11.599 Y43.76 E57.29322
G1 X12.235 Y45.115 E57.34301
G1 X12.827 Y46.334 E57.38808
G1 X12.903 Y69.613 E58.16235
G1 X12.904 Y69.614 E58.16239
G1 X12.904 Y69.96 E58.1739
G1 X12.604 Y69.787 E58.18043
G1 X-12.552 Y55.299 E59.14597
G1 X-12.906 Y-55.333 E62.82562
G1 X12.16 Y-69.792 E63.78808
G1 X12.457 Y-69.963 E63.79948
G1 X12.457 Y-69.621 E63.80593
G1 X12.458 Y-69.619 E63.80601
G1 X12.546 Y-42.293 E64.71488
G1 X11.957 Y-41.066 E64.76015
G1 X11.328 Y-39.701 E64.81013
G1 X10.72 Y-38.328 E64.86008
G1 X10.132 Y-36.946 E64.91003
G1 X9.564 Y-35.555 E64.96
G1 X9.018 Y-34.156 E65.00995
G1 X8.493 Y-32.749 E65.0599
G1 X7.988 Y-31.333 E65.1099
G1 X7.505 Y-29.911 E65.15985
G1 X7.043 Y-28.482 E65.2098
G1 X6.603 Y-27.045 E65.25979
G1 X6.185 Y-25.603 E65.30972
G1 X5.787 Y-24.154 E65.3597
G1 X5.411 Y-22.7 E65.40965
G1 X5.058 Y-21.24 E65.45961
G1 X4.725 Y-19.776 E65.50955
G1 X4.415 Y-18.306 E65.55952
G1 X4.127 Y-16.831 E65.6095
G1 X3.861 Y-15.353 E65.65945
G1 X3.616 Y-13.871 E65.70941
G1 X3.395 Y-12.385 E65.75938
G1 X3.195 Y-10.896 E65.80935
