;FLAVOR:RepRap
;TIME:5431
;Filament used: 4.77059m
;Layer height: 0.175
;Generated with Cura_SteamEngine 2.4.0
M190 S105
M104 S240
M109 S240
G21 ;metric values
G90 ;absolute positioning
M82 ;set extruder to absolute mode
M107 ;start with the fan off
G28 ;Home all axes (max endstops)

M0 Add PROBE
;;M106 S255 ;	Turn fan on 100% power, cool the probe
M117 Auto leveling...
G29   ; DAQ -- auto level
M500
G1 x0 y0
M0 Remove PROBE

G1 Z75.0 F9000 ;move the platform down 15mm
G92 E0 ;zero the extruded length
G1 F200 E3 ;extrude 3mm of feed stock
G92 E0 ;zero the extruded length again

G1 Z100 F9000
M0 CLEAN ME...

M106 S191 ;	Turn fan on 50% power

G1 F9000
M117 Printing...
;LAYER_COUNT:51
;LAYER:0
M107
G1 F1500 E-6.5
G1 Z21
G0 F3600 X23.842 Y-.222 Z1.2
;TYPE:SKIRT
G1 Z0.2
G1 F1500 E0
G1 F1800 X23.995 Y5.242 E0.1818
G1 X24.459 Y10.692 E0.36373
G1 X25.23 Y16.122 E0.54614
G1 X25.773 Y19.274 E0.65252
G1 X25.822 Y19.793 E0.66986
G1 X25.79 Y20.313 E0.68719
G1 X25.68 Y20.823 E0.70454
G1 X25.493 Y21.309 E0.72186
G1 X25.216 Y21.789 E0.74029
G1 X23.711 Y23.959 E0.82813
G1 X20.781 Y28.588 E1.01034
G1 X18.122 Y33.368 E1.19227
G1 X15.75 Y38.269 E1.37336
G1 X13.62 Y43.384 E1.55765
G1 X12.712 Y45.864 E1.64549
G1 X11.042 Y51.084 E1.82777
G1 X9.666 Y56.408 E2.01067
G1 X9.094 Y59.081 E2.10159
G1 X8.609 Y61.714 E2.19063
G1 X7.842 Y67.169 E2.37385
G1 X7.467 Y71.29 E2.51148
G1 X7.38 Y71.804 E2.52882
G1 X7.216 Y72.299 E2.54617
G1 X6.978 Y72.762 E2.56348
G1 X6.672 Y73.184 E2.58082
G1 X6.305 Y73.554 E2.59815
G1 X5.885 Y73.864 E2.61551
G1 X5.424 Y74.106 E2.63283
G1 X4.931 Y74.274 E2.65016
G1 X4.418 Y74.365 E2.66748
G1 X3.897 Y74.377 E2.68482
G1 X3.38 Y74.309 E2.70216
G1 X2.88 Y74.163 E2.71949
G1 X2.382 Y73.927 E2.73781
G1 X-24.156 Y58.62 E3.75678
G1 X-24.586 Y58.326 E3.7741
G1 X-24.966 Y57.969 E3.79144
G1 X-25.287 Y57.559 E3.80876
G1 X-25.542 Y57.104 E3.82611
G1 X-25.724 Y56.616 E3.84343
G1 X-25.83 Y56.106 E3.86076
G1 X-25.857 Y55.675 E3.87512
G1 X-25.861 Y-55.668 E7.5784
G1 X-25.821 Y-56.187 E7.59572
G1 X-25.702 Y-56.695 E7.61307
G1 X-25.507 Y-57.178 E7.63039
G1 X-25.241 Y-57.626 E7.64772
G1 X-24.909 Y-58.028 E7.66506
G1 X-24.519 Y-58.374 E7.68241
G1 X-24.16 Y-58.613 E7.69675
G1 X2.382 Y-73.929 E8.71597
G1 X2.852 Y-74.154 E8.73331
G1 X3.351 Y-74.305 E8.75065
G1 X3.867 Y-74.377 E8.76797
G1 X4.388 Y-74.37 E8.7853
G1 X4.902 Y-74.283 E8.80264
G1 X5.396 Y-74.119 E8.81996
G1 X5.86 Y-73.881 E8.8373
G1 X6.282 Y-73.576 E8.85462
G1 X6.652 Y-73.209 E8.87195
G1 X6.962 Y-72.79 E8.88929
G1 X7.204 Y-72.328 E8.90663
G1 X7.373 Y-71.835 E8.92397
G1 X7.468 Y-71.28 E8.9427
G1 X7.691 Y-68.731 E9.0278
G1 X8.394 Y-63.284 E9.21047
G1 X9.399 Y-57.906 E9.39244
G1 X10.006 Y-55.282 E9.48202
G1 X11.469 Y-49.994 E9.66451
G1 X13.233 Y-44.782 E9.84752
G1 X14.202 Y-42.278 E9.93682
G1 X15.25 Y-39.774 E10.0271
G1 X17.594 Y-34.79 E10.21029
G1 X20.186 Y-30.002 E10.39138
G1 X23.071 Y-25.323 E10.5742
G1 X25.263 Y-22.123 E10.70321
G1 X25.524 Y-21.672 E10.72054
G1 X25.712 Y-21.186 E10.73788
G1 X25.825 Y-20.677 E10.75522
G1 X25.858 Y-20.157 E10.77255
G1 X25.8 Y-19.576 E10.79197
G1 X25.234 Y-16.556 E10.89416
G1 X24.461 Y-11.131 E11.07642
G1 X23.997 Y-5.685 E11.25821
G1 X23.842 Y-.222 E11.43998
G0 F3600 X23.441 Y-.222
G1 F1800 X23.596 Y5.27 E11.62272
G1 X24.06 Y10.729 E11.80494
G1 X24.835 Y16.18 E11.98807
G1 X25.379 Y19.342 E12.09478
G1 X25.422 Y19.83 E12.11108
G1 X25.385 Y20.318 E12.12735
G1 X25.27 Y20.793 E12.14361
G1 X25.079 Y21.244 E12.1599
G1 X24.887 Y21.561 E12.17222
G1 X23.38 Y23.733 E12.26015
G1 X20.44 Y28.379 E12.44302
G1 X17.767 Y33.185 E12.62593
G1 X15.385 Y38.105 E12.80774
G1 X13.25 Y43.233 E12.99249
G1 X12.33 Y45.744 E13.08143
G1 X10.654 Y50.984 E13.26441
G1 X9.281 Y56.293 E13.4468
G1 X8.703 Y58.997 E13.53877
G1 X8.213 Y61.659 E13.62879
G1 X7.446 Y67.116 E13.81208
G1 X7.069 Y71.254 E13.95028
G1 X6.985 Y71.736 E13.96655
G1 X6.823 Y72.198 E13.98283
G1 X6.589 Y72.628 E13.99912
G1 X6.288 Y73.014 E14.0154
G1 X5.928 Y73.346 E14.03168
G1 X5.519 Y73.615 E14.04797
G1 X5.072 Y73.814 E14.06424
G1 X4.598 Y73.937 E14.08053
G1 X4.111 Y73.982 E14.0968
G1 X3.623 Y73.947 E14.11307
G1 X3.147 Y73.833 E14.12935
G1 X2.582 Y73.581 E14.14992
G1 X-23.956 Y58.274 E15.16888
G1 X-24.359 Y57.995 E15.18519
G1 X-24.711 Y57.655 E15.20146
G1 X-25.003 Y57.262 E15.21775
G1 X-25.227 Y56.827 E15.23402
G1 X-25.377 Y56.362 E15.25027
G1 X-25.457 Y55.675 E15.27328
G1 X-25.461 Y-55.668 E18.97656
G1 X-25.421 Y-56.156 E18.99285
G1 X-25.302 Y-56.631 E19.00913
G1 X-25.108 Y-57.08 E19.0254
G1 X-24.843 Y-57.492 E19.04169
G1 X-24.515 Y-57.855 E19.05797
G1 X-23.96 Y-58.266 E19.08094
G1 X2.582 Y-73.582 E20.10016
G1 X3.024 Y-73.792 E20.11644
G1 X3.495 Y-73.926 E20.13272
G1 X3.981 Y-73.982 E20.14899
G1 X4.47 Y-73.959 E20.16528
G1 X4.948 Y-73.856 E20.18154
G1 X5.404 Y-73.677 E20.19783
G1 X5.824 Y-73.426 E20.21411
G1 X6.198 Y-73.11 E20.23039
G1 X6.516 Y-72.737 E20.24669
G1 X6.768 Y-72.318 E20.26296
G1 X6.949 Y-71.863 E20.27924
G1 X7.07 Y-71.245 E20.30019
G1 X7.295 Y-68.67 E20.38616
G1 X7.997 Y-63.228 E20.56866
G1 X9.006 Y-57.834 E20.75118
G1 X9.623 Y-55.166 E20.84226
G1 X11.085 Y-49.881 E21.02464
G1 X12.858 Y-44.642 E21.2086
G1 X13.826 Y-42.14 E21.29783
G1 X14.886 Y-39.61 E21.38906
G1 X17.238 Y-34.609 E21.57287
G1 X19.843 Y-29.794 E21.75496
G1 X22.73 Y-25.113 E21.93788
G1 X24.933 Y-21.897 E22.06753
G1 X25.176 Y-21.472 E22.08381
G1 X25.346 Y-21.013 E22.10009
G1 X25.44 Y-20.533 E22.11636
G1 X25.454 Y-20.043 E22.13266
G1 X25.407 Y-19.65 E22.14583
G1 X24.839 Y-16.617 E22.24846
G1 X24.063 Y-11.17 E22.43146
G1 X23.598 Y-5.712 E22.61365
G1 X23.441 Y-.222 E22.79632
G0 F3600 X23.041 Y-.222
G1 F1800 X23.196 Y5.28 E22.97939
G1 X23.663 Y10.782 E23.16305
G1 X24.444 Y16.272 E23.34748
G1 X24.984 Y19.41 E23.45339
G1 X25.022 Y19.864 E23.46854
G1 X24.98 Y20.318 E23.48371
G1 X24.859 Y20.757 E23.49885
G1 X24.558 Y21.333 E23.52047
G1 X23.05 Y23.507 E23.60847
G1 X20.095 Y28.177 E23.79228
G1 X17.414 Y32.995 E23.97566
G1 X15.013 Y37.956 E24.15897
G1 X12.882 Y43.074 E24.34337
G1 X11.952 Y45.612 E24.43327
G1 X10.272 Y50.867 E24.61677
G1 X8.885 Y56.229 E24.80098
G1 X8.311 Y58.913 E24.89227
G1 X7.821 Y61.577 E24.98236
G1 X7.046 Y67.084 E25.16733
G1 X6.67 Y71.218 E25.30539
G1 X6.589 Y71.666 E25.32053
G1 X6.431 Y72.093 E25.33568
G1 X6.201 Y72.487 E25.35085
G1 X5.906 Y72.834 E25.366
G1 X5.555 Y73.124 E25.38114
G1 X5.158 Y73.348 E25.3963
G1 X4.729 Y73.5 E25.41144
G1 X4.279 Y73.574 E25.42661
G1 X3.824 Y73.569 E25.44174
G1 X3.376 Y73.485 E25.4569
G1 X2.782 Y73.234 E25.47835
G1 X-23.756 Y57.927 E26.49731
G1 X-24.129 Y57.666 E26.51245
G1 X-24.451 Y57.343 E26.52762
G1 X-24.712 Y56.97 E26.54276
G1 X-24.903 Y56.556 E26.55793
G1 X-25.019 Y56.116 E26.57306
G1 X-25.057 Y55.675 E26.58778
G1 X-25.061 Y-55.668 E30.29107
G1 X-25.021 Y-56.122 E30.30623
G1 X-24.903 Y-56.562 E30.32138
G1 X-24.709 Y-56.974 E30.33652
G1 X-24.447 Y-57.347 E30.35168
G1 X-24.123 Y-57.667 E30.36683
G1 X-23.76 Y-57.92 E30.38155
G1 X2.782 Y-73.236 E31.40077
G1 X3.195 Y-73.428 E31.41592
G1 X3.635 Y-73.545 E31.43106
G1 X4.089 Y-73.584 E31.44622
G1 X4.543 Y-73.543 E31.46138
G1 X4.982 Y-73.423 E31.47652
G1 X5.394 Y-73.228 E31.49168
G1 X5.766 Y-72.964 E31.50685
G1 X6.086 Y-72.64 E31.522
G1 X6.344 Y-72.264 E31.53716
G1 X6.533 Y-71.85 E31.5523
G1 X6.671 Y-71.21 E31.57408
G1 X6.894 Y-68.657 E31.65931
G1 X7.604 Y-63.158 E31.84373
G1 X8.617 Y-57.74 E32.02705
G1 X9.232 Y-55.083 E32.11776
G1 X10.706 Y-49.751 E32.30176
G1 X12.478 Y-44.517 E32.48555
G1 X13.46 Y-41.977 E32.57612
G1 X14.517 Y-39.454 E32.6671
G1 X16.875 Y-34.441 E32.85136
G1 X19.502 Y-29.586 E33.03496
G1 X22.399 Y-24.889 E33.21851
G1 X24.603 Y-21.671 E33.34824
G1 X24.827 Y-21.274 E33.3634
G1 X24.977 Y-20.844 E33.37855
G1 X25.051 Y-20.394 E33.39371
G1 X25.014 Y-19.723 E33.41607
G1 X24.444 Y-16.678 E33.5191
G1 X23.666 Y-11.224 E33.70234
G1 X23.198 Y-5.722 E33.886
G1 X23.041 Y-.222 E34.069
G0 F3600 X22.641 Y-.222
G1 F1800 X22.796 Y5.308 E34.253
G1 X23.265 Y10.819 E34.43696
G1 X24.048 Y16.33 E34.6221
G1 X24.59 Y19.478 E34.72834
G1 X24.622 Y19.896 E34.74229
G1 X24.573 Y20.312 E34.75622
G1 X24.447 Y20.711 E34.77014
G1 X24.23 Y21.105 E34.7851
G1 X22.709 Y23.298 E34.87386
G1 X19.753 Y27.968 E35.05769
G1 X17.059 Y32.812 E35.24204
G1 X14.651 Y37.786 E35.42584
G1 X12.509 Y42.931 E35.6112
G1 X11.57 Y45.493 E35.70196
G1 X9.889 Y50.75 E35.88553
G1 X8.495 Y56.142 E36.07077
G1 X7.923 Y58.813 E36.16162
G1 X7.425 Y61.522 E36.25323
G1 X6.649 Y67.033 E36.43833
G1 X6.272 Y71.181 E36.57687
G1 X6.194 Y71.593 E36.59081
G1 X6.04 Y71.983 E36.60476
G1 X5.815 Y72.336 E36.61868
G1 X5.527 Y72.64 E36.63261
G1 X5.186 Y72.884 E36.64656
G1 X4.805 Y73.059 E36.6605
G1 X4.398 Y73.159 E36.67444
G1 X3.98 Y73.18 E36.68836
G1 X3.565 Y73.121 E36.7023
G1 X3.169 Y72.984 E36.71624
G1 X2.982 Y72.888 E36.72323
G1 X-23.556 Y57.581 E37.74219
G1 X-23.898 Y57.338 E37.75614
G1 X-24.187 Y57.034 E37.77009
G1 X-24.413 Y56.682 E37.78401
G1 X-24.569 Y56.293 E37.79795
G1 X-24.657 Y55.675 E37.81871
G1 X-24.661 Y-55.668 E41.52199
G1 X-24.621 Y-56.085 E41.53593
G1 X-24.503 Y-56.487 E41.54986
G1 X-24.31 Y-56.859 E41.5638
G1 X-24.051 Y-57.188 E41.57773
G1 X-23.561 Y-57.574 E41.59847
G1 X2.981 Y-72.89 E42.6177
G1 X3.363 Y-73.063 E42.63165
G1 X3.77 Y-73.162 E42.64558
G1 X4.189 Y-73.181 E42.65953
G1 X4.603 Y-73.121 E42.67344
G1 X4.999 Y-72.983 E42.68739
G1 X5.361 Y-72.773 E42.70131
G1 X5.677 Y-72.498 E42.71524
G1 X5.935 Y-72.168 E42.72917
G1 X6.126 Y-71.794 E42.74314
G1 X6.243 Y-71.392 E42.75707
G1 X6.273 Y-71.176 E42.76432
G1 X6.499 Y-68.595 E42.85049
G1 X7.208 Y-63.102 E43.03471
G1 X8.227 Y-57.65 E43.21918
G1 X8.845 Y-54.977 E43.31043
G1 X10.321 Y-49.642 E43.49454
G1 X12.1 Y-44.385 E43.67913
G1 X13.09 Y-41.827 E43.77036
G1 X14.156 Y-39.281 E43.86216
G1 X16.518 Y-34.258 E44.04677
G1 X19.148 Y-29.399 E44.23054
G1 X22.067 Y-24.665 E44.41552
G1 X24.273 Y-21.445 E44.54534
G1 X24.476 Y-21.078 E44.55929
G1 X24.605 Y-20.68 E44.5732
G1 X24.657 Y-20.264 E44.58715
G1 X24.62 Y-19.797 E44.60273
G1 X24.051 Y-16.761 E44.70547
G1 X23.268 Y-11.262 E44.89021
G1 X22.798 Y-5.75 E45.0742
G1 X22.641 Y-.222 E45.25814
G1 F1500 E38.75814
G1 Z1.2
G0 F3600 X-5.922 Y-.353 Z1.2
;TYPE:WALL-INNER
G1 Z0.2
G1 F1500 E45.25814
G1 F1800 X-5.921 Y-0.039 E45.26858
G1 X-5.938 Y0.236 E45.27775
G1 X-5.973 Y0.525 E45.28743
G1 X-6.031 Y0.848 E45.29834
G1 X-6.094 Y1.108 E45.30724
G1 X-6.188 Y1.417 E45.31798
G1 X-6.292 Y1.69 E45.3277
G1 X-6.399 Y1.935 E45.33659
G1 X-6.56 Y2.244 E45.34818
G1 X-6.866 Y2.767 E45.36834
G1 X-6.774 Y4.471 E45.42509
G1 X-6.672 Y5.936 E45.47394
G1 X-6.55 Y7.401 E45.52283
G1 X-6.407 Y8.864 E45.57172
G1 X-6.242 Y10.325 E45.62063
G1 X-6.055 Y11.782 E45.66948
G1 X-5.85 Y13.237 E45.71835
G1 X-5.621 Y14.69 E45.76728
G1 X-5.372 Y16.138 E45.81615
G1 X-5.1 Y17.584 E45.86508
G1 X-4.808 Y19.022 E45.91389
G1 X-4.495 Y20.459 E45.9628
G1 X-4.162 Y21.889 E46.01164
G1 X-3.81 Y23.317 E46.06055
G1 X-3.434 Y24.738 E46.10944
G1 X-3.037 Y26.155 E46.15839
G1 X-2.622 Y27.563 E46.20721
G1 X-2.186 Y28.968 E46.25614
G1 X-1.728 Y30.363 E46.30497
G1 X-1.251 Y31.753 E46.35385
G1 X-.754 Y33.137 E46.40276
G1 X-.237 Y34.514 E46.45168
G1 X0.3 Y35.88 E46.5005
G1 X0.856 Y37.239 E46.54934
G1 X1.434 Y38.593 E46.5983
G1 X2.031 Y39.935 E46.64716
G1 X2.646 Y41.269 E46.69601
G1 X3.182 Y42.384 E46.73716
G1 X3.096 Y68.928 E47.62002
G1 X3.095 Y68.93 E47.6201
G1 X3.095 Y69.272 E47.63147
G1 X2.798 Y69.101 E47.63794
G1 X-21.47 Y55.101 E48.56978
G1 X-21.471 Y-55.101 E52.23511
G1 X2.798 Y-69.101 E53.16698
G1 X3.095 Y-69.272 E53.17838
G1 X3.095 Y-68.93 E53.18483
G1 X3.096 Y-68.928 E53.1849
G1 X3.182 Y-42.383 E54.0678
G1 X2.631 Y-41.235 E54.11015
G1 X1.999 Y-39.866 E54.1603
G1 X1.389 Y-38.487 E54.21046
G1 X0.799 Y-37.1 E54.26059
G1 X0.229 Y-35.702 E54.3108
G1 X-.32 Y-34.299 E54.36091
G1 X-.847 Y-32.885 E54.4111
G1 X-1.352 Y-31.464 E54.46126
G1 X-1.838 Y-30.037 E54.5114
G1 X-2.302 Y-28.601 E54.56159
G1 X-2.743 Y-27.159 E54.61175
G1 X-3.163 Y-25.712 E54.66186
G1 X-3.563 Y-24.257 E54.71205
G1 X-3.94 Y-22.797 E54.7622
G1 X-4.294 Y-21.331 E54.81236
G1 X-4.628 Y-19.862 E54.86247
G1 X-4.94 Y-18.386 E54.91264
G1 X-5.229 Y-16.905 E54.96283
G1 X-5.496 Y-15.421 E55.01298
G1 X-5.741 Y-13.933 E55.06314
G1 X-5.964 Y-12.441 E55.11332
G1 X-6.165 Y-10.946 E55.16349
G1 X-6.344 Y-9.448 E55.21366
G1 X-6.498 Y-7.948 E55.26382
G1 X-6.632 Y-6.446 E55.31397
G1 X-6.743 Y-4.942 E55.36413
G1 X-6.848 Y-3.141 E55.42413
G1 X-6.542 Y-2.62 E55.44423
G1 X-6.399 Y-2.339 E55.45472
G1 X-6.275 Y-2.054 E55.46506
G1 X-6.184 Y-1.809 E55.47375
G1 X-6.098 Y-1.524 E55.48365
G1 X-6.027 Y-1.229 E55.49374
G1 X-5.97 Y-.911 E55.50449
G1 X-5.939 Y-.646 E55.51336
G1 X-5.922 Y-.353 E55.52312
G0 F3600 X-7.42 Y-.318
G1 F1800 X-7.446 Y-.646 E55.53407
G1 X-7.502 Y-.972 E55.54507
G1 X-7.59 Y-1.288 E55.55598
G1 X-7.706 Y-1.593 E55.56683
G1 X-7.851 Y-1.888 E55.57776
G1 X-8.02 Y-2.166 E55.58858
G1 X-8.217 Y-2.429 E55.59951
G1 X-8.44 Y-2.676 E55.61058
G1 X-8.683 Y-2.897 E55.62151
G1 X-8.944 Y-3.093 E55.63236
G1 X-9.222 Y-3.265 E55.64324
G1 X-9.517 Y-3.411 E55.65418
G1 X-9.825 Y-3.529 E55.66515
G1 X-10.14 Y-3.615 E55.67601
G1 X-10.464 Y-3.675 E55.68697
G1 X-10.793 Y-3.701 E55.69795
G1 X-11.117 Y-3.698 E55.70873
G1 X-11.445 Y-3.665 E55.71969
G1 X-11.77 Y-3.598 E55.73073
G1 X-12.079 Y-3.506 E55.74145
G1 X-12.387 Y-3.383 E55.75248
G1 X-12.671 Y-3.233 E55.76316
G1 X-12.944 Y-3.059 E55.77393
G1 X-13.204 Y-2.856 E55.7849
G1 X-13.443 Y-2.631 E55.79582
G1 X-13.659 Y-2.383 E55.80676
G1 X-13.852 Y-2.116 E55.81772
G1 X-14.018 Y-1.831 E55.82869
G1 X-14.155 Y-1.534 E55.83957
G1 X-14.266 Y-1.229 E55.85036
G1 X-14.347 Y-.91 E55.86131
G1 X-14.399 Y-.585 E55.87225
G1 X-14.419 Y-.256 E55.88322
G1 X-14.409 Y0.073 E55.89416
G1 X-14.367 Y0.397 E55.90503
G1 X-14.296 Y0.718 E55.91597
G1 X-14.195 Y1.029 E55.92684
G1 X-14.065 Y1.331 E55.93778
G1 X-13.909 Y1.616 E55.94858
G1 X-13.725 Y1.891 E55.95959
G1 X-13.515 Y2.145 E55.97055
G1 X-13.285 Y2.377 E55.98142
G1 X-13.032 Y2.587 E55.99235
G1 X-12.762 Y2.773 E56.00326
G1 X-12.474 Y2.933 E56.01421
G1 X-12.175 Y3.065 E56.02509
G1 X-11.86 Y3.169 E56.03612
G1 X-11.538 Y3.241 E56.04709
G1 X-11.216 Y3.284 E56.0579
G1 X-10.888 Y3.296 E56.06881
G1 X-10.557 Y3.278 E56.07984
G1 X-10.236 Y3.229 E56.09064
G1 X-9.919 Y3.151 E56.1015
G1 X-9.607 Y3.042 E56.11249
G1 X-9.307 Y2.903 E56.12349
G1 X-9.024 Y2.74 E56.13435
G1 X-8.757 Y2.549 E56.14527
G1 X-8.507 Y2.333 E56.15626
G1 X-8.281 Y2.097 E56.16712
G1 X-8.078 Y1.842 E56.17797
G1 X-7.899 Y1.569 E56.18882
G1 X-7.744 Y1.274 E56.19991
G1 X-7.619 Y0.969 E56.21087
G1 X-7.526 Y0.659 E56.22163
G1 X-7.458 Y0.336 E56.23261
G1 X-7.424 Y0.008 E56.24358
G1 X-7.42 Y-.318 E56.25442
G0 F3600 X-10.032 Y-12.074
G1 F1800 X-9.728 Y-12.18 E56.26513
G1 X-9.438 Y-12.308 E56.27568
G1 X-9.154 Y-12.472 E56.28658
G1 X-8.892 Y-12.66 E56.29731
G1 X-8.647 Y-12.878 E56.30822
G1 X-8.43 Y-13.111 E56.31881
G1 X-8.231 Y-13.373 E56.32975
G1 X-8.064 Y-13.648 E56.34045
G1 X-7.923 Y-13.941 E56.35127
G1 X-7.812 Y-14.243 E56.36197
G1 X-7.731 Y-14.56 E56.37285
G1 X-7.683 Y-14.879 E56.38358
G1 X-7.669 Y-15.205 E56.39443
G1 X-7.683 Y-15.523 E56.40502
G1 X-7.732 Y-15.851 E56.41605
G1 X-7.814 Y-16.164 E56.42681
G1 X-7.924 Y-16.465 E56.43747
G1 X-8.062 Y-16.755 E56.44815
G1 X-8.234 Y-17.037 E56.45914
G1 X-8.427 Y-17.292 E56.46977
G1 X-8.651 Y-17.532 E56.48069
G1 X-8.89 Y-17.743 E56.4913
G1 X-9.156 Y-17.936 E56.50223
G1 X-9.435 Y-18.094 E56.51289
G1 X-9.73 Y-18.229 E56.52368
G1 X-10.038 Y-18.334 E56.53451
G1 X-10.357 Y-18.404 E56.54537
G1 X-10.675 Y-18.445 E56.55603
G1 X-11.001 Y-18.452 E56.56688
G1 X-11.32 Y-18.431 E56.57751
G1 X-11.647 Y-18.372 E56.58856
G1 X-11.954 Y-18.284 E56.59918
G1 X-12.254 Y-18.167 E56.60989
G1 X-12.544 Y-18.021 E56.62069
G1 X-12.819 Y-17.84 E56.63164
G1 X-13.07 Y-17.641 E56.6423
G1 X-13.304 Y-17.412 E56.65319
G1 X-13.508 Y-17.168 E56.66376
G1 X-13.695 Y-16.897 E56.67472
G1 X-13.847 Y-16.615 E56.68537
G1 X-13.974 Y-16.315 E56.69621
G1 X-14.069 Y-16.004 E56.70702
G1 X-14.134 Y-15.686 E56.71782
G1 X-14.166 Y-15.366 E56.72851
G1 X-14.166 Y-15.039 E56.73939
G1 X-14.134 Y-14.719 E56.75009
G1 X-14.069 Y-14.396 E56.76104
G1 X-13.973 Y-14.09 E56.77171
G1 X-13.848 Y-13.794 E56.7824
