;FLAVOR:RepRap
;TIME:1508
;Filament used: 0.512542m
;Layer height: 0.1
;Generated with Cura_SteamEngine 2.4.0
M190 S60
M104 S205
M109 S205
G21 ;metric values
G90 ;absolute positioning
M82 ;set extruder to absolute mode
M107 ;start with the fan off
G28 ;Home all axes (max endstops)

M0 Add PROBE
M106 S255 ;	Turn fan on 100% power, cool the probe
M117 Auto leveling...
G29   ; DAQ -- auto level
M500
G1 x0 y0
M0 Remove PROBE

G1 Z75.0 F9000 ;move the platform down 15mm
G92 E0 ;zero the extruded length
G1 F200 E3 ;extrude 3mm of feed stock
G92 E0 ;zero the extruded length again

G1 Z100 F9000
M0 CLEAN ME...

M106 S191 ;	Turn fan on 50% power

G1 F9000
M117 Printing...
;LAYER_COUNT:70
;LAYER:0
M107
G1 F1500 E-6.5
G1 Z21
G0 F3600 X-24.994 Y-2.636 Z1.125
;TYPE:SKIRT
G1 Z0.125
G1 F1500 E0
G1 F1800 X-24.991 Y-8.025 E0.11202
G1 X-25.061 Y-12.02 E0.19508
G1 X-25.031 Y-12.57 E0.20653
G1 X-24.859 Y-13.31 E0.22233
G1 X-22.855 Y-19.199 E0.35164
G1 X-21.408 Y-24.464 E0.46514
G1 X-20.797 Y-27.115 E0.5217
G1 X-20.271 Y-29.753 E0.57761
G1 X-19.429 Y-35.137 E0.69089
G1 X-18.845 Y-41.2 E0.81751
G1 X-18.753 Y-41.744 E0.82898
G1 X-18.583 Y-42.268 E0.84043
G1 X-18.339 Y-42.762 E0.85189
G1 X-18.026 Y-43.215 E0.86333
G1 X-17.651 Y-43.619 E0.87479
G1 X-17.221 Y-43.964 E0.88625
G1 X-16.746 Y-44.243 E0.8977
G1 X-16.236 Y-44.45 E0.90914
G1 X-15.701 Y-44.582 E0.9206
G1 X-15.063 Y-44.636 E0.93391
G1 X20.918 Y-44.635 E1.68187
G1 X21.468 Y-44.595 E1.69333
G1 X22.006 Y-44.476 E1.70478
G1 X22.521 Y-44.28 E1.71624
G1 X23.002 Y-44.012 E1.72769
G1 X23.44 Y-43.678 E1.73914
G1 X23.824 Y-43.283 E1.75059
G1 X24.148 Y-42.837 E1.76205
G1 X24.403 Y-42.349 E1.77349
G1 X24.586 Y-41.829 E1.78495
G1 X24.708 Y-41.11 E1.80011
G1 X25.107 Y-35.61 E1.91474
G1 X25.117 Y-35.334 E1.92048
G1 X25.107 Y33.836 E3.35836
G1 X25.097 Y34.108 E3.36402
G1 X24.7 Y39.627 E3.47904
G1 X24.621 Y40.172 E3.49049
G1 X24.464 Y40.7 E3.50194
G1 X24.232 Y41.2 E3.5134
G1 X23.93 Y41.661 E3.52486
G1 X23.564 Y42.073 E3.53631
G1 X23.181 Y42.401 E3.54679
G1 X21.205 Y43.874 E3.59803
G1 X20.741 Y44.17 E3.60947
G1 X20.238 Y44.396 E3.62093
G1 X19.708 Y44.547 E3.63239
G1 X18.935 Y44.627 E3.64854
G1 X-13.065 Y44.634 E4.31374
G1 X-13.615 Y44.594 E4.32521
G1 X-14.153 Y44.475 E4.33666
G1 X-14.668 Y44.28 E4.34811
G1 X-15.335 Y43.883 E4.36424
G1 X-17.332 Y42.397 E4.41599
G1 X-17.749 Y42.036 E4.42746
G1 X-18.109 Y41.62 E4.43889
G1 X-18.406 Y41.155 E4.45036
G1 X-18.632 Y40.653 E4.46181
G1 X-18.783 Y40.123 E4.47326
G1 X-18.836 Y39.799 E4.48009
G1 X-19.648 Y33 E4.62242
G1 X-20.625 Y27.654 E4.7354
G1 X-21.905 Y22.368 E4.84845
G1 X-23.488 Y17.133 E4.96214
G1 X-24.799 Y13.324 E5.04588
G1 X-24.94 Y12.791 E5.05734
G1 X-25.006 Y12.043 E5.07295
G1 X-24.98 Y9.741 E5.12081
G1 X-25.111 Y4.086 E5.23839
G1 X-25.111 Y3.93 E5.24164
G1 X-24.994 Y-2.636 E5.37815
G0 F3600 X-24.594 Y-2.629
G1 F1800 X-24.591 Y-8.025 E5.49032
G1 X-24.661 Y-12.027 E5.57352
G1 X-24.631 Y-12.547 E5.58435
G1 X-24.481 Y-13.181 E5.5979
G1 X-22.469 Y-19.095 E5.72775
G1 X-21.02 Y-24.365 E5.84137
G1 X-20.401 Y-27.051 E5.89867
G1 X-19.881 Y-29.659 E5.95395
G1 X-19.032 Y-35.087 E6.06816
G1 X-18.447 Y-41.162 E6.19502
G1 X-18.358 Y-41.675 E6.20585
G1 X-18.191 Y-42.169 E6.21669
G1 X-17.95 Y-42.631 E6.22752
G1 X-17.642 Y-43.052 E6.23836
G1 X-17.273 Y-43.42 E6.2492
G1 X-16.852 Y-43.727 E6.26003
G1 X-16.389 Y-43.967 E6.27087
G1 X-15.895 Y-44.133 E6.2817
G1 X-15.382 Y-44.221 E6.29252
G1 X-15.063 Y-44.236 E6.29916
G1 X20.918 Y-44.235 E7.04712
G1 X21.438 Y-44.195 E7.05796
G1 X21.945 Y-44.076 E7.06879
G1 X22.428 Y-43.881 E7.07961
G1 X22.876 Y-43.614 E7.09046
G1 X23.278 Y-43.283 E7.10128
G1 X23.624 Y-42.893 E7.11212
G1 X23.907 Y-42.455 E7.12296
G1 X24.12 Y-41.98 E7.13378
G1 X24.257 Y-41.477 E7.14462
G1 X24.309 Y-41.081 E7.15292
G1 X24.708 Y-35.581 E7.26755
G1 X24.717 Y-35.335 E7.27267
G1 X24.707 Y33.835 E8.71055
G1 X24.698 Y34.079 E8.71562
G1 X24.301 Y39.598 E8.83064
G1 X24.224 Y40.113 E8.84147
G1 X24.069 Y40.611 E8.85231
G1 X23.84 Y41.079 E8.86314
G1 X23.542 Y41.506 E8.87397
G1 X23.182 Y41.883 E8.8848
G1 X22.942 Y42.08 E8.89126
G1 X20.966 Y43.553 E8.94249
G1 X20.526 Y43.831 E8.95331
G1 X20.048 Y44.039 E8.96415
G1 X19.544 Y44.172 E8.97498
G1 X18.935 Y44.227 E8.98769
G1 X-13.065 Y44.234 E9.6529
G1 X-13.585 Y44.194 E9.66374
G1 X-14.092 Y44.075 E9.67456
G1 X-14.576 Y43.88 E9.68541
G1 X-15.096 Y43.562 E9.69808
G1 X-17.093 Y42.076 E9.74982
G1 X-17.486 Y41.733 E9.76067
G1 X-17.822 Y41.335 E9.7715
G1 X-18.093 Y40.89 E9.78233
G1 X-18.293 Y40.409 E9.79316
G1 X-18.439 Y39.751 E9.80717
G1 X-19.252 Y32.946 E9.94963
G1 X-20.233 Y27.576 E10.06311
G1 X-21.523 Y22.247 E10.17708
G1 X-23.104 Y17.021 E10.29058
G1 X-24.421 Y13.194 E10.37472
G1 X-24.552 Y12.689 E10.38556
G1 X-24.606 Y12.048 E10.39893
G1 X-24.58 Y9.752 E10.44666
G1 X-24.711 Y4.077 E10.56467
G1 X-24.711 Y3.937 E10.56758
G1 X-24.594 Y-2.629 E10.70409
G0 F3600 X-24.194 Y-2.677
G1 F1800 X-24.191 Y-7.971 E10.81414
G1 X-24.262 Y-12.034 E10.89861
G1 X-24.23 Y-12.522 E10.90878
G1 X-24.102 Y-13.052 E10.92011
G1 X-22.091 Y-18.961 E11.04986
G1 X-20.627 Y-24.289 E11.16473
G1 X-20.014 Y-26.948 E11.22145
G1 X-19.488 Y-29.589 E11.27743
G1 X-18.635 Y-35.039 E11.3921
G1 X-18.049 Y-41.124 E11.51918
G1 X-17.963 Y-41.605 E11.52933
G1 X-17.799 Y-42.067 E11.53953
G1 X-17.562 Y-42.495 E11.5497
G1 X-17.259 Y-42.88 E11.55988
G1 X-16.898 Y-43.21 E11.57005
G1 X-16.487 Y-43.476 E11.58022
G1 X-16.039 Y-43.673 E11.5904
G1 X-15.565 Y-43.794 E11.60057
G1 X-15.063 Y-43.836 E11.61104
G1 X20.918 Y-43.835 E12.359
G1 X21.406 Y-43.795 E12.36918
G1 X21.881 Y-43.676 E12.37935
G1 X22.33 Y-43.482 E12.38952
G1 X22.742 Y-43.217 E12.39971
G1 X23.105 Y-42.889 E12.40988
G1 X23.41 Y-42.506 E12.42005
G1 X23.648 Y-42.078 E12.43023
G1 X23.814 Y-41.618 E12.4404
G1 X23.91 Y-41.052 E12.45233
G1 X24.309 Y-35.552 E12.56696
G1 X24.317 Y-35.335 E12.57148
G1 X24.307 Y33.835 E14.00936
G1 X24.299 Y34.05 E14.01383
G1 X23.902 Y39.569 E14.12885
G1 X23.827 Y40.053 E14.13903
G1 X23.675 Y40.518 E14.1492
G1 X23.449 Y40.952 E14.15937
G1 X23.155 Y41.344 E14.16956
G1 X22.703 Y41.759 E14.18232
G1 X20.727 Y43.232 E14.23355
G1 X20.312 Y43.492 E14.24373
G1 X19.86 Y43.68 E14.25391
G1 X19.384 Y43.793 E14.26408
G1 X18.935 Y43.827 E14.27344
G1 X-13.065 Y43.834 E14.93864
G1 X-13.553 Y43.794 E14.94882
G1 X-14.028 Y43.676 E14.95899
G1 X-14.477 Y43.481 E14.96917
G1 X-14.857 Y43.241 E14.97851
G1 X-16.854 Y41.755 E15.03025
G1 X-17.221 Y41.432 E15.04042
G1 X-17.532 Y41.053 E15.05061
G1 X-17.776 Y40.629 E15.06078
G1 X-17.948 Y40.17 E15.07097
G1 X-18.042 Y39.704 E15.08085
G1 X-18.858 Y32.874 E15.22384
G1 X-19.84 Y27.499 E15.33742
G1 X-21.133 Y22.159 E15.45163
G1 X-22.73 Y16.877 E15.56634
G1 X-24.043 Y13.063 E15.65019
G1 X-24.164 Y12.589 E15.66036
G1 X-24.206 Y12.052 E15.67156
G1 X-24.179 Y9.747 E15.71948
G1 X-24.311 Y4.067 E15.83758
G1 X-24.312 Y3.945 E15.84012
G1 X-24.194 Y-2.677 E15.9778
G0 F3600 X-23.794 Y-2.67
G1 F1800 X-23.791 Y-7.978 E16.08814
G1 X-23.862 Y-12.041 E16.17261
G1 X-23.83 Y-12.495 E16.18207
G1 X-23.723 Y-12.924 E16.19126
G1 X-21.707 Y-18.848 E16.32134
G1 X-20.245 Y-24.167 E16.43601
G1 X-19.62 Y-26.878 E16.49385
G1 X-19.093 Y-29.523 E16.54991
G1 X-18.238 Y-34.99 E16.66494
G1 X-17.651 Y-41.085 E16.79223
G1 X-17.568 Y-41.533 E16.8017
G1 X-17.408 Y-41.96 E16.81118
G1 X-17.175 Y-42.352 E16.82066
G1 X-16.878 Y-42.697 E16.83012
G1 X-16.526 Y-42.986 E16.83959
G1 X-16.128 Y-43.208 E16.84906
G1 X-15.697 Y-43.357 E16.85854
G1 X-15.063 Y-43.436 E16.87182
G1 X20.918 Y-43.435 E17.61978
G1 X21.372 Y-43.395 E17.62925
G1 X21.812 Y-43.277 E17.63872
G1 X22.224 Y-43.083 E17.64819
G1 X22.597 Y-42.82 E17.65768
G1 X22.918 Y-42.497 E17.66714
G1 X23.177 Y-42.122 E17.67662
G1 X23.367 Y-41.708 E17.68609
G1 X23.482 Y-41.267 E17.69556
G1 X23.511 Y-41.023 E17.70067
G1 X23.91 Y-35.523 E17.8153
G1 X23.917 Y-35.335 E17.81921
G1 X23.907 Y33.835 E19.25709
G1 X23.9 Y34.022 E19.26098
G1 X23.503 Y39.541 E19.376
G1 X23.431 Y39.99 E19.38545
G1 X23.281 Y40.421 E19.39494
G1 X23.058 Y40.818 E19.40441
G1 X22.77 Y41.171 E19.41388
G1 X22.464 Y41.439 E19.42233
G1 X20.488 Y42.912 E19.47356
G1 X20.1 Y43.151 E19.48304
G1 X19.677 Y43.319 E19.4925
G1 X19.23 Y43.41 E19.50198
G1 X18.935 Y43.427 E19.50812
G1 X-13.065 Y43.434 E20.17333
G1 X-13.519 Y43.394 E20.1828
G1 X-13.959 Y43.276 E20.19227
G1 X-14.372 Y43.082 E20.20176
G1 X-14.618 Y42.92 E20.20788
G1 X-16.615 Y41.434 E20.25962
G1 X-16.955 Y41.131 E20.26909
G1 X-17.238 Y40.773 E20.27858
G1 X-17.453 Y40.372 E20.28804
G1 X-17.595 Y39.939 E20.29751
G1 X-17.645 Y39.656 E20.30348
G1 X-18.461 Y32.82 E20.4466
G1 X-19.451 Y27.404 E20.56105
G1 X-20.745 Y22.059 E20.67537
G1 X-22.356 Y16.734 E20.79101
G1 X-23.664 Y12.933 E20.87458
G1 X-23.774 Y12.491 E20.88404
G1 X-23.806 Y12.057 E20.89309
G1 X-23.779 Y9.741 E20.94124
G1 X-23.911 Y4.058 E21.0594
G1 X-23.912 Y3.952 E21.06161
G1 X-23.794 Y-2.67 E21.19929
G0 F3600 X-23.394 Y-2.663
G1 F1800 X-23.391 Y-7.985 E21.30992
G1 X-23.462 Y-12.048 E21.39439
G1 X-23.429 Y-12.465 E21.40309
G1 X-23.345 Y-12.795 E21.41016
G1 X-21.321 Y-18.745 E21.54081
G1 X-19.857 Y-24.068 E21.65557
G1 X-19.233 Y-26.775 E21.71332
G1 X-18.699 Y-29.456 E21.77015
G1 X-17.841 Y-34.94 E21.88553
G1 X-17.253 Y-41.047 E22.01307
G1 X-17.173 Y-41.458 E22.02177
G1 X-17.017 Y-41.847 E22.03048
G1 X-16.79 Y-42.199 E22.03919
G1 X-16.5 Y-42.502 E22.04791
G1 X-16.158 Y-42.744 E22.05662
G1 X-15.776 Y-42.917 E22.06534
G1 X-15.369 Y-43.015 E22.07404
G1 X-15.063 Y-43.036 E22.08042
G1 X20.918 Y-43.035 E22.82837
G1 X21.335 Y-42.995 E22.83708
G1 X21.737 Y-42.877 E22.84579
G1 X22.109 Y-42.684 E22.8545
G1 X22.439 Y-42.425 E22.86322
G1 X22.712 Y-42.108 E22.87192
G1 X22.921 Y-41.744 E22.88064
G1 X23.057 Y-41.348 E22.88935
G1 X23.112 Y-40.994 E22.8968
G1 X23.511 Y-35.494 E23.01143
G1 X23.517 Y-35.335 E23.01474
G1 X23.507 Y33.835 E24.45261
G1 X23.501 Y33.993 E24.4559
G1 X23.104 Y39.512 E24.57092
G1 X23.035 Y39.925 E24.57963
G1 X22.888 Y40.318 E24.58835
G1 X22.669 Y40.675 E24.59706
G1 X22.225 Y41.118 E24.61009
G1 X20.249 Y42.591 E24.66133
G1 X19.891 Y42.808 E24.67003
G1 X19.498 Y42.954 E24.67874
G1 X18.934 Y43.027 E24.69057
G1 X-13.066 Y43.034 E25.35577
G1 X-13.483 Y42.994 E25.36448
G1 X-13.885 Y42.876 E25.37319
G1 X-14.379 Y42.599 E25.38496
G1 X-16.376 Y41.113 E25.4367
G1 X-16.687 Y40.832 E25.44542
G1 X-16.939 Y40.497 E25.45413
G1 X-17.123 Y40.12 E25.46285
G1 X-17.247 Y39.609 E25.47378
G1 X-18.064 Y32.767 E25.61702
G1 X-19.059 Y27.324 E25.73204
G1 X-20.359 Y21.954 E25.8469
G1 X-21.971 Y16.623 E25.96267
G1 X-23.286 Y12.803 E26.04665
G1 X-23.384 Y12.396 E26.05536
G1 X-23.406 Y12.062 E26.06231
G1 X-23.379 Y9.738 E26.11063
G1 X-23.511 Y4.049 E26.22892
G1 X-23.512 Y3.959 E26.23079
G1 X-23.394 Y-2.663 E26.36847
G1 F1500 E19.86847
G1 Z1.125
G0 F3600 X-20.585 Y-3.519 Z1.125
;TYPE:WALL-INNER
G1 Z0.125
G1 F1500 E26.36847
G1 F1800 X-20.61 Y-3.61 E26.37043
G1 X-20.62 Y-3.684 E26.37198
G1 X-20.62 Y-3.782 E26.37402
G1 X-20.61 Y-3.859 E26.37563
G1 X-20.586 Y-3.947 E26.37753
G1 X-20.553 Y-4.023 E26.37925
G1 X-20.506 Y-4.102 E26.38116
G1 X-20.455 Y-4.168 E26.3829
G1 X-20.392 Y-4.228 E26.38471
G1 X-20.329 Y-4.274 E26.38633
G1 X-20.247 Y-4.319 E26.38827
G1 X-20.156 Y-4.353 E26.39029
G1 X-20.081 Y-4.372 E26.3919
G1 X-19.996 Y-4.381 E26.39368
G1 X-19.902 Y-4.377 E26.39563
G1 X-19.743 Y-4.339 E26.39903
G1 X-19.657 Y-4.299 E26.401
G1 X-19.593 Y-4.257 E26.40259
G1 X-19.517 Y-4.194 E26.40464
G1 X-19.468 Y-4.139 E26.40618
G1 X-19.414 Y-4.06 E26.40817
G1 X-19.377 Y-3.986 E26.40989
G1 X-19.347 Y-3.9 E26.41178
G1 X-19.33 Y-3.819 E26.4135
G1 X-19.325 Y-3.731 E26.41533
G1 X-19.33 Y-3.644 E26.41714
G1 X-19.347 Y-3.561 E26.4189
G1 X-19.375 Y-3.479 E26.42071
G1 X-19.415 Y-3.402 E26.42251
G1 X-19.464 Y-3.33 E26.42432
G1 X-19.524 Y-3.264 E26.42617
G1 X-19.586 Y-3.212 E26.42786
G1 X-19.654 Y-3.168 E26.42954
G1 X-19.749 Y-3.125 E26.43171
G1 X-19.825 Y-3.101 E26.43336
G1 X-19.904 Y-3.088 E26.43503
G1 X-19.998 Y-3.084 E26.43698
G1 X-20.083 Y-3.093 E26.43876
G1 X-20.253 Y-3.148 E26.44247
G1 X-20.323 Y-3.186 E26.44413
G1 X-20.393 Y-3.238 E26.44594
G1 X-20.455 Y-3.298 E26.44774
G1 X-20.505 Y-3.361 E26.44941
G1 X-20.553 Y-3.443 E26.45138
G1 X-20.585 Y-3.519 E26.4531
G0 F3600 X-20.839 Y-3.14
;TYPE:WALL-OUTER
G1 F1800 X-20.911 Y-3.261 E26.45602
G1 X-20.964 Y-3.387 E26.45887
G1 X-21.002 Y-3.527 E26.46188
G1 X-21.02 Y-3.661 E26.46469
G1 X-21.02 Y-3.806 E26.46771
G1 X-21.002 Y-3.939 E26.4705
G1 X-20.964 Y-4.08 E26.47353
G1 X-20.912 Y-4.202 E26.47629
G1 X-20.836 Y-4.329 E26.47937
G1 X-20.751 Y-4.437 E26.48222
G1 X-20.647 Y-4.537 E26.48522
G1 X-20.543 Y-4.613 E26.4879
G1 X-20.413 Y-4.684 E26.49098
G1 X-20.277 Y-4.736 E26.49401
G1 X-20.149 Y-4.767 E26.49674
G1 X-20.008 Y-4.782 E26.49969
G1 X-19.865 Y-4.776 E26.50267
G1 X-19.73 Y-4.753 E26.50551
G1 X-19.598 Y-4.713 E26.50838
G1 X-19.467 Y-4.652 E26.51138
G1 X-19.35 Y-4.576 E26.51428
G1 X-19.24 Y-4.484 E26.51727
G1 X-19.152 Y-4.386 E26.52
G1 X-19.069 Y-4.264 E26.52307
G1 X-19.007 Y-4.142 E26.52592
G1 X-18.96 Y-4.007 E26.52889
G1 X-18.933 Y-3.876 E26.53167
G1 X-18.924 Y-3.731 E26.53469
G1 X-18.933 Y-3.587 E26.53769
G1 X-18.96 Y-3.456 E26.54047
G1 X-19.006 Y-3.323 E26.54339
G1 X-19.071 Y-3.196 E26.54636
G1 X-19.15 Y-3.081 E26.54926
G1 X-19.242 Y-2.979 E26.55211
G1 X-19.352 Y-2.886 E26.55511
G1 X-19.466 Y-2.814 E26.55791
G1 X-19.599 Y-2.753 E26.56095
G1 X-19.735 Y-2.71 E26.56392
G1 X-19.865 Y-2.689 E26.56666
G1 X-20.01 Y-2.683 E26.56967
G1 X-20.151 Y-2.698 E26.57262
G1 X-20.279 Y-2.729 E26.57536
G1 X-20.415 Y-2.781 E26.57838
G1 X-20.542 Y-2.85 E26.58139
G1 X-20.65 Y-2.931 E26.58419
G1 X-20.753 Y-3.03 E26.58716
G1 X-20.839 Y-3.14 E26.59007
G0 F3600 X-20.911 Y-3.261
G0 X-20.934 Y-3.316
G0 X-20.472 Y-3.509
G0 X-20.375 Y-3.97
;TYPE:SKIN
G1 F1800 X-19.734 Y-3.329 E26.60891
G0 X-19.664 Y-3.259
G0 F3600 X-19.507 Y-3.668
G1 F1800 X-20.035 Y-4.195 E26.62442
G0 F3600 X-20.012 Y-3.974
G1 F1500 E20.12442
G1 Z1.125
G0 F3600 X-20.179 Y3.328 Z1.125
;TYPE:WALL-INNER
G1 Z0.125
G1 F1500 E26.62442
G1 F1800 X-20.096 Y3.319 E26.62615
G1 X-20.004 Y3.323 E26.62807
G1 X-19.921 Y3.337 E26.62982
G1 X-19.754 Y3.402 E26.63354
G1 X-19.688 Y3.444 E26.63517
G1 X-19.621 Y3.502 E26.63701
G1 X-19.563 Y3.566 E26.63881
G1 X-19.514 Y3.637 E26.6406
G1 X-19.476 Y3.713 E26.64237
G1 X-19.445 Y3.802 E26.64433
G1 X-19.431 Y3.874 E26.64585
G1 X-19.424 Y3.975 E26.64796
G1 X-19.447 Y4.134 E26.65129
G1 X-19.48 Y4.229 E26.65339
G1 X-19.566 Y4.372 E26.65685
G1 X-19.618 Y4.428 E26.65844
G1 X-19.698 Y4.496 E26.66063
G1 X-19.759 Y4.535 E26.66213
G1 X-19.834 Y4.569 E26.66384
G1 X-19.925 Y4.598 E26.66583
G1 X-20.012 Y4.612 E26.66766
G1 X-20.096 Y4.614 E26.66941
G1 X-20.184 Y4.605 E26.67125
G1 X-20.263 Y4.586 E26.67293
G1 X-20.349 Y4.552 E26.67486
G1 X-20.426 Y4.51 E26.67668
G1 X-20.492 Y4.461 E26.67839
G1 X-20.555 Y4.399 E26.68023
G1 X-20.609 Y4.331 E26.68203
G1 X-20.651 Y4.259 E26.68376
G1 X-20.689 Y4.172 E26.68574
G1 X-20.708 Y4.1 E26.68729
G1 X-20.72 Y4.006 E26.68926
G1 X-20.72 Y3.919 E26.69106
G1 X-20.709 Y3.839 E26.69274
G1 X-20.685 Y3.753 E26.6946
G1 X-20.65 Y3.671 E26.69645
G1 X-20.611 Y3.605 E26.69805
G1 X-20.543 Y3.521 E26.70029
G1 X-20.489 Y3.469 E26.70185
G1 X-20.421 Y3.419 E26.7036
G1 X-20.352 Y3.382 E26.70523
G1 X-20.26 Y3.346 E26.70729
G1 X-20.179 Y3.328 E26.70901
G0 F3600 X-20.243 Y2.932
;TYPE:WALL-OUTER
G1 F1800 X-20.106 Y2.918 E26.71187
G1 X-19.963 Y2.924 E26.71485
G1 X-19.829 Y2.946 E26.71767
G1 X-19.695 Y2.989 E26.7206
G1 X-19.561 Y3.05 E26.72366
G1 X-19.45 Y3.121 E26.7264
G1 X-19.34 Y3.216 E26.72942
G1 X-19.249 Y3.317 E26.73224
G1 X-19.17 Y3.432 E26.73514
G1 X-19.105 Y3.561 E26.73815
G1 X-19.058 Y3.696 E26.74112
G1 X-19.034 Y3.824 E26.74383
G1 X-19.023 Y3.977 E26.74701
G1 X-19.033 Y4.106 E26.7497
G1 X-19.061 Y4.243 E26.75261
G1 X-19.11 Y4.383 E26.75569
G1 X-19.172 Y4.504 E26.75852
G1 X-19.252 Y4.621 E26.76147
G1 X-19.343 Y4.719 E26.76425
G1 X-19.457 Y4.816 E26.76736
G1 X-19.569 Y4.888 E26.77013
G1 X-19.697 Y4.946 E26.77305
G1 X-19.831 Y4.988 E26.77597
G1 X-19.974 Y5.011 E26.77898
G1 X-20.111 Y5.015 E26.78183
G1 X-20.254 Y5 E26.78482
G1 X-20.385 Y4.968 E26.78762
G1 X-20.513 Y4.918 E26.79048
G1 X-20.643 Y4.848 E26.79354
