;FLAVOR:RepRap
;TIME:2714
;Generated with Cura_SteamEngine 2.3.1
M190 S60
M104 S230
M109 S230
G21 ;metric values
G90 ;absolute positioning
M82 ;set extruder to absolute mode
M107 ;start with the fan off
G28 ;Home all axes (max endstops)
G29 ;Auto Trim/Level
G1 Z15.0 F9000 ;move the platform down 15mm
G92 E0 ;zero the extruded length
G1 F200 E6 ;extrude 6mm of feed stock
G92 E0 ;zero the extruded length again

G1 F9000
M117 Printing...


;LAYER_COUNT:35
;LAYER:0
M107
G1 F1500 E-4
G1 Z21.75
G0 F3600 X.524 Y-21.264 Z1.95
;TYPE:SKIRT
G1 Z.2
G1 F1500 E0
G1 F1800 X.919 Y-21.36 E0.01366
G1 X1.701 Y-21.466 E0.04017
G1 X2.491 Y-21.493 E0.06672
G1 X3.278 Y-21.44 E0.09322
G1 X4.057 Y-21.307 E0.11976
G1 X4.818 Y-21.097 E0.14628
G1 X5.353 Y-20.897 E0.16547
G1 X5.601 Y-20.794 E0.17449
G1 X6.159 Y-20.529 E0.19524
G1 X6.334 Y-20.666 E0.20271
G1 X6.98 Y-21.121 E0.22925
G1 X7.668 Y-21.509 E0.25579
G1 X8.194 Y-21.747 E0.27518
G1 X8.891 Y-22.032 E0.30048
G1 X9.636 Y-22.293 E0.32699
G1 X10.404 Y-22.478 E0.35353
G1 X10.807 Y-22.543 E0.36724
G1 X11.762 Y-22.671 E0.39961
G1 X12.549 Y-22.736 E0.42614
G1 X13.358 Y-22.72 E0.45332
G1 X13.955 Y-22.677 E0.47343
G1 X14.739 Y-22.58 E0.49997
G1 X15.644 Y-22.366 E0.5312
G1 X16.826 Y-22.01 E0.57267
G1 X17.57 Y-21.744 E0.59922
G1 X18.424 Y-21.326 E0.63116
G1 X18.533 Y-21.264 E0.63537
G1 X18.929 Y-21.36 E0.64906
G1 X19.711 Y-21.466 E0.67557
G1 X20.501 Y-21.493 E0.70212
G1 X21.288 Y-21.44 E0.72862
G1 X22.067 Y-21.307 E0.75516
G1 X22.828 Y-21.097 E0.78168
G1 X23.363 Y-20.897 E0.80087
G1 X23.611 Y-20.794 E0.80989
G1 X24.324 Y-20.455 E0.83641
G1 X24.999 Y-20.045 E0.86294
G1 X25.629 Y-19.569 E0.88947
G1 X26.208 Y-19.032 E0.916
G1 X26.729 Y-18.439 E0.94251
G1 X27.188 Y-17.796 E0.96905
G1 X27.58 Y-17.111 E0.99556
G1 X27.9 Y-16.389 E1.02209
G1 X28.146 Y-15.638 E1.04864
G1 X28.314 Y-14.867 E1.07515
G1 X28.404 Y-14.082 E1.10169
G1 X28.419 Y-13.591 E1.11819
G1 X28.419 Y13.598 E2.03155
G1 X28.379 Y14.387 E2.05809
G1 X28.26 Y15.167 E2.08459
G1 X28.062 Y15.932 E2.11114
G1 X27.788 Y16.672 E2.13764
G1 X27.44 Y17.381 E2.16418
G1 X27.022 Y18.052 E2.19073
G1 X26.539 Y18.676 E2.21724
G1 X25.996 Y19.249 E2.24376
G1 X25.397 Y19.764 E2.2703
G1 X24.749 Y20.215 E2.29682
G1 X23.817 Y20.712 E2.3323
G1 X23.579 Y20.819 E2.34106
G1 X22.844 Y21.106 E2.36757
G1 X22.083 Y21.317 E2.3941
G1 X21.304 Y21.45 E2.42065
G1 X20.516 Y21.504 E2.44718
G1 X19.727 Y21.478 E2.4737
G1 X18.945 Y21.372 E2.50021
G1 X18.546 Y21.276 E2.51399
G1 X18.194 Y21.47 E2.5275
G1 X17.484 Y21.815 E2.55401
G1 X16.738 Y22.088 E2.5807
G1 X15.746 Y22.395 E2.61558
G1 X14.981 Y22.59 E2.6421
G1 X14.2 Y22.707 E2.66863
G1 X13.728 Y22.739 E2.68452
G1 X12.728 Y22.776 E2.71814
G1 X11.939 Y22.765 E2.74465
G1 X10.897 Y22.627 E2.77996
G1 X10.243 Y22.495 E2.80237
G1 X9.478 Y22.3 E2.82889
G1 X8.74 Y22.03 E2.85529
G1 X8.219 Y21.809 E2.8743
G1 X7.509 Y21.464 E2.90082
G1 X6.835 Y21.048 E2.92742
G1 X6.306 Y20.683 E2.94901
G1 X6.124 Y20.543 E2.95673
G1 X5.807 Y20.712 E2.96879
G1 X5.569 Y20.819 E2.97756
G1 X4.834 Y21.106 E3.00407
G1 X4.073 Y21.317 E3.03059
G1 X3.294 Y21.45 E3.05714
G1 X2.506 Y21.504 E3.08368
G1 X1.717 Y21.478 E3.11019
G1 X.935 Y21.372 E3.1367
G1 X.537 Y21.276 E3.15046
G1 X.185 Y21.47 E3.16396
G1 X-.525 Y21.815 E3.19048
G1 X-1.271 Y22.088 E3.21716
G1 X-2.263 Y22.395 E3.25205
G1 X-3.028 Y22.59 E3.27857
G1 X-3.809 Y22.707 E3.30509
G1 X-4.281 Y22.739 E3.32099
G1 X-5.281 Y22.776 E3.3546
G1 X-6.07 Y22.765 E3.38111
G1 X-7.112 Y22.627 E3.41642
G1 X-7.766 Y22.495 E3.43883
G1 X-8.531 Y22.3 E3.46535
G1 X-9.269 Y22.03 E3.49175
G1 X-9.79 Y21.809 E3.51076
G1 X-10.5 Y21.464 E3.53728
G1 X-11.174 Y21.048 E3.56389
G1 X-11.703 Y20.683 E3.58548
G1 X-11.89 Y20.54 E3.59338
G1 X-12.215 Y20.713 E3.60575
G1 X-12.453 Y20.82 E3.61452
G1 X-13.188 Y21.107 E3.64102
G1 X-13.949 Y21.318 E3.66755
G1 X-14.728 Y21.451 E3.6941
G1 X-15.516 Y21.505 E3.72063
G1 X-16.305 Y21.479 E3.74715
G1 X-17.087 Y21.373 E3.77366
G1 X-17.488 Y21.276 E3.78752
G1 X-17.842 Y21.471 E3.8011
G1 X-18.552 Y21.817 E3.82763
G1 X-19.295 Y22.088 E3.8542
G1 X-20.287 Y22.395 E3.88908
G1 X-21.052 Y22.59 E3.9156
G1 X-22.083 Y22.727 E3.95054
G1 X-22.877 Y22.779 E3.97727
G1 X-23.667 Y22.791 E4.00381
G1 X-24.487 Y22.718 E4.03147
G1 X-25.168 Y22.621 E4.05457
G1 X-25.943 Y22.47 E4.0811
G1 X-26.67 Y22.252 E4.10659
G1 X-27.204 Y22.063 E4.12562
G1 X-27.935 Y21.762 E4.15218
G1 X-28.834 Y21.262 E4.18674
G1 X-29.537 Y20.808 E4.21485
G1 X-30.177 Y20.347 E4.24134
G1 X-30.768 Y19.823 E4.26788
G1 X-31.264 Y19.289 E4.29236
G1 X-31.857 Y18.587 E4.32323
G1 X-32.335 Y17.959 E4.34974
G1 X-32.747 Y17.286 E4.37625
G1 X-32.994 Y16.793 E4.39477
G1 X-33.314 Y16.092 E4.42066
G1 X-33.605 Y15.358 E4.44718
G1 X-33.82 Y14.598 E4.47372
G1 X-33.904 Y14.181 E4.48801
G1 X-34.098 Y13.058 E4.52629
G1 X-34.193 Y12.274 E4.55282
G1 X-34.201 Y11.312 E4.58514
G1 X-34.159 Y10.529 E4.61148
G1 X-34.077 Y9.744 E4.63799
G1 X-33.995 Y9.303 E4.65306
G1 X-33.829 Y8.533 E4.67952
G1 X-33.624 Y7.771 E4.70603
G1 X-33.344 Y7.037 E4.73242
G1 X-32.833 Y5.875 E4.77506
G1 X-32.479 Y5.169 E4.80159
G1 X-31.832 Y4.203 E4.84065
G1 X-31.02 Y3.167 E4.88487
G1 X-30.502 Y2.571 E4.91139
G1 X-29.966 Y2.064 E4.93618
G1 X-29.683 Y1.82 E4.94873
G1 X-29.742 Y.811 E4.98268
G1 X-30.134 Y-1.902 E5.07477
G1 X-30.438 Y-2.21 E5.0893
G1 X-30.975 Y-2.882 E5.1182
G1 X-31.775 Y-4.006 E5.16455
G1 X-32.2 Y-4.672 E5.19109
G1 X-32.453 Y-5.156 E5.20943
G1 X-32.945 Y-6.182 E5.24766
G1 X-33.25 Y-6.911 E5.2742
G1 X-33.382 Y-7.309 E5.28829
G1 X-33.719 Y-8.43 E5.32761
G1 X-33.908 Y-9.197 E5.35415
G1 X-33.975 Y-9.607 E5.3681
G1 X-34.081 Y-10.373 E5.39408
G1 X-34.154 Y-11.545 E5.43353
G1 X-34.144 Y-12.303 E5.45899
G1 X-34.094 Y-13.091 E5.48552
G1 X-33.98 Y-13.797 E5.50954
G1 X-33.83 Y-14.514 E5.53415
G1 X-33.629 Y-15.278 E5.56069
G1 X-33.352 Y-16.018 E5.58723
G1 X-33.08 Y-16.583 E5.60829
G1 X-32.587 Y-17.509 E5.64353
G1 X-32.181 Y-18.186 E5.67005
G1 X-31.709 Y-18.819 E5.69658
G1 X-31.074 Y-19.498 E5.72781
G1 X-30.554 Y-19.992 E5.7519
G1 X-29.955 Y-20.506 E5.77842
G1 X-29.307 Y-20.957 E5.80494
G1 X-28.769 Y-21.263 E5.82573
G1 X-27.962 Y-21.681 E5.85626
G1 X-27.244 Y-22.008 E5.88276
G1 X-26.276 Y-22.32 E5.91693
G1 X-25.719 Y-22.46 E5.93622
G1 X-24.945 Y-22.613 E5.96272
G1 X-23.831 Y-22.695 E6.00025
G1 X-22.651 Y-22.697 E6.03989
G1 X-21.862 Y-22.658 E6.06642
G1 X-21.082 Y-22.54 E6.09293
G1 X-20.39 Y-22.366 E6.11689
G1 X-19.207 Y-22.01 E6.1584
G1 X-18.464 Y-21.745 E6.18489
G1 X-17.609 Y-21.327 E6.21687
G1 X-17.496 Y-21.263 E6.22123
G1 X-17.048 Y-21.368 E6.23669
G1 X-16.265 Y-21.469 E6.26321
G1 X-15.475 Y-21.491 E6.28975
G1 X-14.688 Y-21.433 E6.31626
G1 X-13.91 Y-21.295 E6.34281
G1 X-13.15 Y-21.08 E6.36934
G1 X-12.55 Y-20.848 E6.39095
G1 X-12.308 Y-20.743 E6.39981
G1 X-11.873 Y-20.528 E6.41611
G1 X-11.398 Y-20.887 E6.43611
G1 X-10.396 Y-21.465 E6.47497
G1 X-9.742 Y-21.78 E6.49936
G1 X-9.014 Y-22.087 E6.5259
G1 X-8.265 Y-22.316 E6.55221
G1 X-7.702 Y-22.458 E6.57171
G1 X-6.927 Y-22.612 E6.59826
G1 X-5.807 Y-22.695 E6.63598
G1 X-4.627 Y-22.697 E6.67562
G1 X-3.838 Y-22.658 E6.70216
G1 X-3.058 Y-22.54 E6.72866
G1 X-2.365 Y-22.366 E6.75266
G1 X-1.183 Y-22.01 E6.79413
G1 X-.439 Y-21.744 E6.82067
G1 X.415 Y-21.326 E6.85261
G1 X.524 Y-21.264 E6.85683
G0 F3600 X.46 Y-20.841
G1 F1800 X1.111 Y-20.988 E6.87925
G1 X1.875 Y-21.078 E6.90509
G1 X2.644 Y-21.089 E6.93092
G1 X3.41 Y-21.019 E6.95676
G1 X4.165 Y-20.871 E6.98261
G1 X5.199 Y-20.528 E7.0192
G1 X5.447 Y-20.425 E7.02823
G1 X6.141 Y-20.093 E7.05407
G1 X6.203 Y-20.055 E7.05651
G1 X6.581 Y-20.351 E7.07264
G1 X7.21 Y-20.794 E7.09848
G1 X7.882 Y-21.168 E7.12432
G1 X8.345 Y-21.377 E7.14138
G1 X9.042 Y-21.662 E7.16668
G1 X9.768 Y-21.915 E7.19251
G1 X10.86 Y-22.146 E7.23
G1 X11.815 Y-22.274 E7.26237
G1 X12.582 Y-22.337 E7.28822
G1 X13.33 Y-22.321 E7.31336
G1 X13.927 Y-22.278 E7.33346
G1 X14.69 Y-22.183 E7.35929
G1 X15.529 Y-21.983 E7.38827
G1 X16.711 Y-21.627 E7.42973
G1 X17.435 Y-21.367 E7.45558
G1 X18.227 Y-20.978 E7.48522
G1 X18.47 Y-20.84 E7.4946
G1 X19.121 Y-20.988 E7.51703
G1 X19.885 Y-21.078 E7.54287
G1 X20.654 Y-21.089 E7.56871
G1 X21.42 Y-21.019 E7.59455
G1 X22.175 Y-20.871 E7.62039
G1 X23.209 Y-20.528 E7.65699
G1 X23.457 Y-20.425 E7.66601
G1 X24.151 Y-20.093 E7.69185
G1 X24.807 Y-19.692 E7.71768
G1 X25.418 Y-19.224 E7.74354
G1 X25.977 Y-18.695 E7.76939
G1 X26.478 Y-18.112 E7.79521
G1 X26.915 Y-17.479 E7.82105
G1 X27.285 Y-16.805 E7.84688
G1 X27.582 Y-16.095 E7.87273
G1 X27.805 Y-15.359 E7.89857
G1 X27.949 Y-14.604 E7.92439
G1 X28.019 Y-13.591 E7.9585
G1 X28.019 Y13.598 E8.87185
G1 X27.979 Y14.366 E8.89769
G1 X27.86 Y15.126 E8.92353
G1 X27.662 Y15.869 E8.94936
G1 X27.388 Y16.588 E8.97521
G1 X27.041 Y17.274 E9.00103
G1 X26.625 Y17.921 E9.02687
G1 X26.144 Y18.521 E9.0527
G1 X25.603 Y19.068 E9.07855
G1 X25.008 Y19.556 E9.1044
G1 X24.366 Y19.979 E9.13022
G1 X23.653 Y20.347 E9.15718
G1 X23.415 Y20.454 E9.16594
G1 X22.698 Y20.733 E9.19179
G1 X21.956 Y20.935 E9.21762
G1 X21.197 Y21.06 E9.24346
G1 X20.43 Y21.105 E9.26927
G1 X19.661 Y21.07 E9.29513
G1 X18.901 Y20.955 E9.32095
G1 X18.491 Y20.849 E9.33518
G1 X18.001 Y21.119 E9.35397
G1 X17.309 Y21.455 E9.37981
G1 X16.62 Y21.706 E9.40445
G1 X15.628 Y22.013 E9.43933
G1 X14.882 Y22.202 E9.46518
G1 X14.121 Y22.313 E9.49102
G1 X13.714 Y22.339 E9.50472
G1 X12.714 Y22.376 E9.53833
G1 X11.945 Y22.364 E9.56417
G1 X10.976 Y22.235 E9.59701
G1 X10.322 Y22.103 E9.61942
G1 X9.577 Y21.912 E9.64526
G1 X8.896 Y21.661 E9.66964
G1 X8.375 Y21.44 E9.68865
G1 X7.684 Y21.104 E9.71446
G1 X7.062 Y20.719 E9.73903
G1 X6.533 Y20.354 E9.76062
G1 X6.17 Y20.075 E9.776
G1 X5.643 Y20.347 E9.79593
G1 X5.405 Y20.454 E9.80469
G1 X4.688 Y20.733 E9.83054
G1 X3.946 Y20.935 E9.85637
G1 X3.187 Y21.06 E9.88221
G1 X2.42 Y21.105 E9.90802
G1 X1.651 Y21.07 E9.93388
G1 X.891 Y20.955 E9.9597
G1 X.482 Y20.849 E9.97389
G1 X-.008 Y21.119 E9.99269
G1 X-.7 Y21.455 E10.01853
G1 X-1.389 Y21.706 E10.04316
G1 X-2.381 Y22.013 E10.07805
G1 X-3.127 Y22.202 E10.1039
G1 X-3.888 Y22.313 E10.12973
G1 X-4.295 Y22.339 E10.14343
G1 X-5.295 Y22.376 E10.17705
G1 X-6.064 Y22.364 E10.20289
G1 X-7.033 Y22.235 E10.23572
G1 X-7.687 Y22.103 E10.25814
G1 X-8.432 Y21.912 E10.28397
G1 X-9.113 Y21.661 E10.30835
G1 X-9.634 Y21.44 E10.32736
G1 X-10.325 Y21.104 E10.35318
G1 X-10.947 Y20.719 E10.37775
G1 X-11.476 Y20.354 E10.39934
G1 X-11.843 Y20.071 E10.41491
G1 X-12.379 Y20.348 E10.43518
G1 X-12.617 Y20.455 E10.44394
G1 X-13.334 Y20.734 E10.46979
G1 X-14.076 Y20.936 E10.49562
G1 X-14.835 Y21.061 E10.52146
G1 X-15.602 Y21.106 E10.54727
G1 X-16.371 Y21.071 E10.57313
G1 X-17.131 Y20.956 E10.59895
G1 X-17.542 Y20.85 E10.61321
G1 X-18.035 Y21.121 E10.63211
G1 X-18.727 Y21.456 E10.65793
G1 X-19.413 Y21.706 E10.68246
G1 X-20.405 Y22.013 E10.71735
G1 X-21.151 Y22.202 E10.7432
G1 X-22.109 Y22.328 E10.77566
G1 X-22.903 Y22.38 E10.80239
G1 X-23.672 Y22.39 E10.82822
G1 X-24.431 Y22.322 E10.85382
G1 X-25.112 Y22.225 E10.87693
G1 X-25.866 Y22.077 E10.90274
G1 X-26.537 Y21.875 E10.92628
G1 X-27.071 Y21.686 E10.94531
G1 X-27.782 Y21.392 E10.97115
G1 X-28.617 Y20.926 E11.00328
G1 X-29.32 Y20.472 E11.03139
G1 X-29.943 Y20.022 E11.05721
G1 X-30.517 Y19.51 E11.08304
G1 X-30.958 Y19.031 E11.10492
G1 X-31.551 Y18.329 E11.13579
G1 X-32.016 Y17.717 E11.16161
G1 X-32.415 Y17.059 E11.18746
G1 X-32.63 Y16.627 E11.20367
G1 X-32.95 Y15.926 E11.22955
G1 X-33.232 Y15.211 E11.25537
G1 X-33.51 Y14.113 E11.29342
G1 X-33.704 Y12.99 E11.3317
G1 X-33.795 Y12.226 E11.35755
G1 X-33.801 Y11.334 E11.38752
G1 X-33.759 Y10.551 E11.41386
G1 X-33.678 Y9.786 E11.4397
G1 X-33.604 Y9.388 E11.4533
G1 X-33.438 Y8.618 E11.47976
G1 X-33.237 Y7.875 E11.50562
G1 X-32.978 Y7.198 E11.52996
G1 X-32.467 Y6.036 E11.57261
G1 X-32.121 Y5.349 E11.59845
G1 X-31.517 Y4.45 E11.63483
G1 X-30.705 Y3.414 E11.67905
G1 X-30.2 Y2.834 E11.70488
G1 X-29.705 Y2.368 E11.72772
G1 X-29.276 Y2 E11.74671
G1 X-29.274 Y1.947 E11.74849
G1 X-29.342 Y.778 E11.78783
G1 X-29.757 Y-2.089 E11.88514
G1 X-30.153 Y-2.491 E11.9041
G1 X-30.649 Y-3.114 E11.93085
G1 X-31.449 Y-4.238 E11.97719
G1 X-31.862 Y-4.887 E12.00303
G1 X-32.092 Y-5.329 E12.01977
G1 X-32.584 Y-6.355 E12.058
G1 X-32.999 Y-7.425 E12.09655
G1 X-33.336 Y-8.546 E12.13587
G1 X-33.579 Y-9.662 E12.17424
G1 X-33.685 Y-10.428 E12.20022
G1 X-33.754 Y-11.54 E12.23764
G1 X-33.744 Y-12.298 E12.26311
G1 X-33.694 Y-13.065 E12.28893
G1 X-33.588 Y-13.715 E12.31105
G1 X-33.438 Y-14.432 E12.33566
G1 X-33.242 Y-15.176 E12.36151
G1 X-32.969 Y-15.895 E12.38734
G1 X-32.727 Y-16.395 E12.406
G1 X-32.234 Y-17.321 E12.44124
G1 X-31.838 Y-17.98 E12.46707
G1 X-31.375 Y-18.594 E12.4929
G1 X-30.799 Y-19.208 E12.52118
G1 X-30.279 Y-19.702 E12.54528
G1 X-29.694 Y-20.202 E12.57113
G1 X-29.061 Y-20.639 E12.59697
G1 X-28.585 Y-20.908 E12.61534
G1 X-27.778 Y-21.326 E12.64587
G1 X-27.078 Y-21.644 E12.67169
G1 X-26.179 Y-21.932 E12.7034
G1 X-25.622 Y-22.072 E12.7227
G1 X-24.867 Y-22.22 E12.74854
G1 X-23.831 Y-22.295 E12.78344
G1 X-22.651 Y-22.297 E12.82308
G1 X-21.882 Y-22.258 E12.84894
G1 X-21.122 Y-22.14 E12.87478
G1 X-20.506 Y-21.983 E12.89613
G1 X-19.323 Y-21.627 E12.93763
G1 X-18.599 Y-21.367 E12.96348
G1 X-17.806 Y-20.979 E12.99313
G1 X-17.562 Y-20.84 E13.00257
G1 X-16.858 Y-20.995 E13.02678
G1 X-16.094 Y-21.08 E13.0526
G1 X-15.325 Y-21.086 E13.07844
G1 X-14.559 Y-21.011 E13.10429
G1 X-13.805 Y-20.858 E13.13014
G1 X-13.072 Y-20.627 E13.15596
G1 X-12.71 Y-20.482 E13.16906
G1 X-12.468 Y-20.377 E13.17792
G1 X-11.826 Y-20.058 E13.202
G1 X-11.771 Y-20.104 E13.20441
G1 X-11.157 Y-20.568 E13.23026
G1 X-10.222 Y-21.105 E13.26648
G1 X-9.568 Y-21.42 E13.29087
G1 X-8.859 Y-21.717 E13.31669
G1 X-8.167 Y-21.928 E13.34099
G1 X-7.604 Y-22.07 E13.3605
G1 X-6.849 Y-22.219 E13.38635
G1 X-5.807 Y-22.295 E13.42145
G1 X-4.627 Y-22.297 E13.46109
G1 X-3.858 Y-22.258 E13.48695
G1 X-3.098 Y-22.14 E13.51279
G1 X-2.48 Y-21.983 E13.53421
G1 X-1.298 Y-21.627 E13.57568
G1 X-.574 Y-21.367 E13.60152
G1 X.218 Y-20.978 E13.63116
G1 X.46 Y-20.841 E13.6405
G0 F3600 X.411 Y-20.409
G1 F1800 X.568 Y-20.46 E13.64605
G1 X1.3 Y-20.613 E13.67117
G1 X2.044 Y-20.687 E13.69628
G1 X2.792 Y-20.681 E13.72141
G1 X3.536 Y-20.595 E13.74657
G1 X4.265 Y-20.43 E13.77168
G1 X5.046 Y-20.159 E13.79945
G1 X5.294 Y-20.056 E13.80847
G1 X5.968 Y-19.732 E13.83359
G1 X6.232 Y-19.569 E13.84402
G1 X6.828 Y-20.036 E13.86945
G1 X7.441 Y-20.466 E13.8946
G1 X8.095 Y-20.827 E13.9197
G1 X8.497 Y-21.006 E13.93448
G1 X9.194 Y-21.291 E13.95978
G1 X9.9 Y-21.537 E13.98489
G1 X10.913 Y-21.75 E14.01967
G1 X11.868 Y-21.878 E14.05203
G1 X12.614 Y-21.938 E14.07718
G1 X13.301 Y-21.922 E14.10026
G1 X13.898 Y-21.879 E14.12037
G1 X14.64 Y-21.785 E14.14549
G1 X15.414 Y-21.6 E14.17222
G1 X16.596 Y-21.244 E14.21369
G1 X17.299 Y-20.99 E14.2388
G1 X18.03 Y-20.63 E14.26618
G1 X18.42 Y-20.409 E14.28123
G1 X18.578 Y-20.46 E14.28681
G1 X19.31 Y-20.613 E14.31193
G1 X20.054 Y-20.687 E14.33705
G1 X20.802 Y-20.681 E14.36218
G1 X21.546 Y-20.595 E14.38734
G1 X22.275 Y-20.43 E14.41244
G1 X23.056 Y-20.159 E14.44022
G1 X23.304 Y-20.056 E14.44924
G1 X23.978 Y-19.732 E14.47436
G1 X24.615 Y-19.339 E14.4995
G1 X25.205 Y-18.879 E14.52463
G1 X25.743 Y-18.36 E14.54974
G1 X26.223 Y-17.786 E14.57488
G1 X26.639 Y-17.164 E14.60002
G1 X26.985 Y-16.501 E14.62514
G1 X27.26 Y-15.805 E14.65028
G1 X27.458 Y-15.084 E14.6754
G1 X27.578 Y-14.345 E14.70055
G1 X27.619 Y-13.591 E14.72591
G1 X27.619 Y13.598 E15.63927
G1 X27.579 Y14.345 E15.6644
G1 X27.46 Y15.083 E15.68951
G1 X27.262 Y15.805 E15.71466
G1 X26.989 Y16.501 E15.73977
G1 X26.642 Y17.164 E15.76491
G1 X26.227 Y17.787 E15.79006
G1 X25.748 Y18.361 E15.81517
G1 X25.211 Y18.882 E15.8403
G1 X24.621 Y19.341 E15.86542
G1 X23.985 Y19.736 E15.89057
G1 X23.489 Y19.982 E15.90916
G1 X23.251 Y20.089 E15.91793
G1 X22.554 Y20.359 E15.94304
G1 X21.831 Y20.553 E15.96819
G1 X21.092 Y20.669 E15.99332
G1 X20.345 Y20.705 E16.01844
G1 X19.598 Y20.661 E16.04358
G1 X18.86 Y20.538 E16.06871
G1 X18.44 Y20.421 E16.08336
G1 X17.808 Y20.769 E16.10759
G1 X17.135 Y21.094 E16.1327
G1 X16.501 Y21.324 E16.15535
G1 X15.509 Y21.631 E16.19024
G1 X14.784 Y21.814 E16.21536
G1 X13.699 Y21.939 E16.25205
G1 X12.699 Y21.976 E16.28566
G1 X11.951 Y21.964 E16.31079
