;FLAVOR:RepRap
;TIME:4349
;Generated with Cura_SteamEngine 2.3.1
M190 S60
M104 S230
M109 S230
G21 ;metric values
G90 ;absolute positioning
M82 ;set extruder to absolute mode
M107 ;start with the fan off
G28 ;Home all axes (max endstops)
G29 ;Auto Trim/Level
G1 Z15.0 F9000 ;move the platform down 15mm
G92 E0 ;zero the extruded length
G1 F200 E6 ;extrude 6mm of feed stock
G92 E0 ;zero the extruded length again

G1 F9000
M117 Printing...


;LAYER_COUNT:41
;LAYER:0
M107
G1 F1500 E-4
G1 Z21.75
G0 F3600 X-9.025 Y33.078 Z1.95
;TYPE:SKIRT
G1 Z.2
G1 F1500 E0
G1 F1800 X-12.195 Y32.046 E0.11199
G1 X-12.89 Y31.782 E0.13696
G1 X-14.408 Y31.122 E0.19257
G1 X-14.837 Y30.92 E0.2085
G1 X-16.324 Y30.163 E0.26455
G1 X-16.77 Y29.917 E0.28166
G1 X-18.2 Y29.067 E0.33754
G1 X-18.604 Y28.81 E0.35363
G1 X-19.979 Y27.874 E0.40951
G1 X-20.375 Y27.586 E0.42595
G1 X-21.697 Y26.559 E0.48219
G1 X-22.067 Y26.253 E0.49832
G1 X-23.306 Y25.162 E0.55378
G1 X-23.666 Y24.823 E0.57039
G1 X-24.829 Y23.66 E0.62564
G1 X-25.168 Y23.3 E0.64225
G1 X-26.268 Y22.051 E0.69816
G1 X-26.577 Y21.677 E0.71446
G1 X-27.605 Y20.352 E0.77079
G1 X-27.893 Y19.955 E0.78727
G1 X-28.822 Y18.588 E0.84279
G1 X-29.083 Y18.178 E0.85912
G1 X-29.938 Y16.734 E0.91549
G1 X-30.18 Y16.294 E0.93236
G1 X-30.928 Y14.822 E0.98783
G1 X-31.131 Y14.39 E1.00386
G1 X-31.798 Y12.851 E1.06021
G1 X-31.981 Y12.387 E1.07696
G1 X-32.542 Y10.826 E1.13268
G1 X-32.692 Y10.365 E1.14897
G1 X-33.158 Y8.762 E1.20505
G1 X-33.28 Y8.288 E1.22149
G1 X-33.641 Y6.674 E1.27705
G1 X-33.732 Y6.194 E1.29346
G1 X-33.995 Y4.538 E1.34979
G1 X-34.058 Y4.045 E1.36648
G1 X-34.213 Y2.395 E1.42215
G1 X-34.243 Y1.914 E1.43834
G1 X-34.296 Y.256 E1.49407
G1 X-34.296 Y-.24 E1.51073
G1 X-34.243 Y-1.916 E1.56706
G1 X-34.213 Y-2.4 E1.58335
G1 X-34.058 Y-4.046 E1.63889
G1 X-33.995 Y-4.538 E1.65555
G1 X-33.732 Y-6.194 E1.71188
G1 X-33.641 Y-6.674 E1.72829
G1 X-33.28 Y-8.288 E1.78385
G1 X-33.158 Y-8.76 E1.80023
G1 X-32.691 Y-10.368 E1.85647
G1 X-32.54 Y-10.834 E1.87293
G1 X-31.98 Y-12.39 E1.92848
G1 X-31.798 Y-12.851 E1.94513
G1 X-31.131 Y-14.39 E2.00148
G1 X-30.928 Y-14.822 E2.01751
G1 X-30.18 Y-16.294 E2.07298
G1 X-29.938 Y-16.734 E2.08985
G1 X-29.083 Y-18.178 E2.14622
G1 X-28.822 Y-18.588 E2.16255
G1 X-27.893 Y-19.955 E2.21807
G1 X-27.605 Y-20.352 E2.23455
G1 X-26.577 Y-21.677 E2.29088
G1 X-26.268 Y-22.051 E2.30718
G1 X-25.168 Y-23.3 E2.36309
G1 X-24.829 Y-23.66 E2.3797
G1 X-23.661 Y-24.828 E2.43519
G1 X-23.301 Y-25.167 E2.4518
G1 X-22.052 Y-26.267 E2.50771
G1 X-21.678 Y-26.576 E2.52401
G1 X-20.353 Y-27.604 E2.58034
G1 X-19.957 Y-27.892 E2.59679
G1 X-18.589 Y-28.822 E2.65236
G1 X-18.176 Y-29.084 E2.66879
G1 X-16.738 Y-29.935 E2.72492
G1 X-16.303 Y-30.174 E2.74159
G1 X-14.825 Y-30.926 E2.7973
G1 X-14.39 Y-31.131 E2.81346
G1 X-12.851 Y-31.798 E2.8698
G1 X-12.387 Y-31.981 E2.88656
G1 X-10.826 Y-32.542 E2.94228
G1 X-10.367 Y-32.691 E2.95849
G1 X-8.769 Y-33.156 E3.0144
G1 X-8.292 Y-33.279 E3.03095
G1 X-6.673 Y-33.641 E3.08667
G1 X-6.194 Y-33.732 E3.10305
G1 X-4.538 Y-33.995 E3.15938
G1 X-4.045 Y-34.058 E3.17608
G1 X-2.395 Y-34.213 E3.23175
G1 X-1.913 Y-34.243 E3.24797
G1 X-.248 Y-34.296 E3.30393
G1 X.248 Y-34.296 E3.32059
G1 X1.913 Y-34.243 E3.37655
G1 X2.395 Y-34.213 E3.39278
G1 X4.045 Y-34.058 E3.44845
G1 X4.538 Y-33.995 E3.46514
G1 X6.194 Y-33.732 E3.52147
G1 X6.673 Y-33.641 E3.53785
G1 X8.292 Y-33.279 E3.59358
G1 X8.769 Y-33.156 E3.61013
G1 X10.367 Y-32.691 E3.66604
G1 X10.826 Y-32.542 E3.68225
G1 X12.387 Y-31.981 E3.73797
G1 X12.851 Y-31.798 E3.75472
G1 X14.39 Y-31.131 E3.81107
G1 X14.825 Y-30.926 E3.82722
G1 X16.303 Y-30.174 E3.88293
G1 X16.738 Y-29.935 E3.8996
G1 X18.176 Y-29.084 E3.95574
G1 X18.588 Y-28.822 E3.97214
G1 X19.955 Y-27.893 E4.02766
G1 X20.352 Y-27.605 E4.04414
G1 X21.677 Y-26.577 E4.10047
G1 X22.051 Y-26.268 E4.11677
G1 X23.3 Y-25.168 E4.17268
G1 X23.66 Y-24.829 E4.18929
G1 X24.828 Y-23.661 E4.24478
G1 X25.167 Y-23.301 E4.26139
G1 X26.267 Y-22.052 E4.3173
G1 X26.576 Y-21.678 E4.3336
G1 X27.604 Y-20.353 E4.38993
G1 X27.892 Y-19.957 E4.40638
G1 X28.822 Y-18.589 E4.46195
G1 X29.084 Y-18.177 E4.47835
G1 X29.938 Y-16.734 E4.53468
G1 X30.178 Y-16.296 E4.55146
G1 X30.927 Y-14.823 E4.60697
G1 X31.131 Y-14.39 E4.62305
G1 X31.798 Y-12.851 E4.67939
G1 X31.981 Y-12.388 E4.69612
G1 X32.54 Y-10.833 E4.75163
G1 X32.689 Y-10.375 E4.7678
G1 X33.154 Y-8.778 E4.82368
G1 X33.276 Y-8.303 E4.84015
G1 X33.64 Y-6.679 E4.89606
G1 X33.733 Y-6.196 E4.91259
G1 X33.996 Y-4.539 E4.96895
G1 X34.058 Y-4.047 E4.9856
G1 X34.213 Y-2.401 E5.04114
G1 X34.243 Y-1.918 E5.0574
G1 X34.296 Y-.255 E5.11329
G1 X34.296 Y.24 E5.12992
G1 X34.243 Y1.912 E5.18612
G1 X34.213 Y2.395 E5.20237
G1 X34.058 Y4.045 E5.25804
G1 X33.995 Y4.538 E5.27474
G1 X33.732 Y6.194 E5.33107
G1 X33.641 Y6.674 E5.34748
G1 X33.28 Y8.288 E5.40304
G1 X33.157 Y8.767 E5.41965
G1 X32.69 Y10.37 E5.47574
G1 X32.543 Y10.822 E5.4917
G1 X31.983 Y12.383 E5.54742
G1 X31.798 Y12.851 E5.56432
G1 X31.131 Y14.39 E5.62067
G1 X30.928 Y14.822 E5.6367
G1 X30.18 Y16.294 E5.69217
G1 X29.938 Y16.734 E5.70904
G1 X29.083 Y18.178 E5.76541
G1 X28.822 Y18.588 E5.78174
G1 X27.893 Y19.955 E5.83726
G1 X27.605 Y20.352 E5.85373
G1 X26.577 Y21.677 E5.91007
G1 X26.268 Y22.051 E5.92637
G1 X25.168 Y23.3 E5.98228
G1 X24.829 Y23.66 E5.99889
G1 X23.661 Y24.828 E6.05438
G1 X23.301 Y25.167 E6.07099
G1 X22.052 Y26.267 E6.1269
G1 X21.678 Y26.576 E6.14319
G1 X20.353 Y27.604 E6.19953
G1 X19.957 Y27.892 E6.21598
G1 X18.589 Y28.822 E6.27155
G1 X18.176 Y29.084 E6.28798
G1 X16.738 Y29.935 E6.34411
G1 X16.303 Y30.174 E6.36078
G1 X14.825 Y30.926 E6.41649
G1 X14.39 Y31.131 E6.43264
G1 X12.851 Y31.798 E6.48899
G1 X12.383 Y31.983 E6.50589
G1 X10.822 Y32.543 E6.56161
G1 X10.372 Y32.689 E6.5775
G1 X8.774 Y33.155 E6.63341
G1 X8.292 Y33.279 E6.65013
G1 X6.673 Y33.641 E6.70586
G1 X6.194 Y33.732 E6.72224
G1 X4.538 Y33.995 E6.77857
G1 X4.044 Y34.058 E6.7953
G1 X2.393 Y34.213 E6.851
G1 X1.905 Y34.243 E6.86743
G1 X.22 Y34.295 E6.92406
G1 X-.274 Y34.295 E6.94065
G1 X-1.938 Y34.241 E6.99658
G1 X-2.419 Y34.21 E7.01277
G1 X-4.069 Y34.054 E7.06845
G1 X-4.562 Y33.992 E7.08514
G1 X-6.219 Y33.728 E7.1415
G1 X-6.704 Y33.635 E7.15809
G1 X-8.322 Y33.271 E7.21381
G1 X-9.025 Y33.078 E7.23829
G0 F3600 X-8.901 Y32.698
G1 F1800 X-12.071 Y31.666 E7.35028
G1 X-12.731 Y31.415 E7.37401
G1 X-14.249 Y30.755 E7.42961
G1 X-14.655 Y30.564 E7.44468
G1 X-16.142 Y29.807 E7.50074
G1 X-16.566 Y29.573 E7.517
G1 X-17.996 Y28.723 E7.57289
G1 X-18.379 Y28.479 E7.58814
G1 X-19.754 Y27.543 E7.64402
G1 X-20.13 Y27.27 E7.65963
G1 X-21.452 Y26.243 E7.71586
G1 X-21.802 Y25.953 E7.73113
G1 X-23.041 Y24.862 E7.78659
G1 X-23.384 Y24.541 E7.80237
G1 X-24.547 Y23.378 E7.85762
G1 X-24.867 Y23.036 E7.87336
G1 X-25.967 Y21.787 E7.92927
G1 X-26.261 Y21.432 E7.94475
G1 X-27.289 Y20.107 E8.00108
G1 X-27.562 Y19.73 E8.01672
G1 X-28.491 Y18.363 E8.07224
G1 X-28.739 Y17.974 E8.08774
G1 X-29.594 Y16.53 E8.14411
G1 X-29.823 Y16.112 E8.16012
G1 X-30.571 Y14.64 E8.21559
G1 X-30.764 Y14.231 E8.23078
G1 X-31.431 Y12.692 E8.28713
G1 X-31.605 Y12.252 E8.30302
G1 X-32.166 Y10.691 E8.35875
G1 X-32.308 Y10.254 E8.37418
G1 X-32.774 Y8.651 E8.43026
G1 X-32.89 Y8.2 E8.4459
G1 X-33.251 Y6.586 E8.50146
G1 X-33.337 Y6.132 E8.51698
G1 X-33.6 Y4.476 E8.57331
G1 X-33.66 Y4.007 E8.58919
G1 X-33.815 Y2.357 E8.64487
G1 X-33.843 Y1.901 E8.66021
G1 X-33.896 Y.243 E8.71594
G1 X-33.896 Y-.227 E8.73173
G1 X-33.843 Y-1.903 E8.78806
G1 X-33.814 Y-2.363 E8.80354
G1 X-33.659 Y-4.009 E8.85908
G1 X-33.6 Y-4.476 E8.87489
G1 X-33.337 Y-6.132 E8.93122
G1 X-33.251 Y-6.586 E8.94674
G1 X-32.89 Y-8.2 E9.0023
G1 X-32.774 Y-8.649 E9.01788
G1 X-32.307 Y-10.257 E9.07413
G1 X-32.164 Y-10.699 E9.08973
G1 X-31.604 Y-12.255 E9.14528
G1 X-31.431 Y-12.692 E9.16107
G1 X-30.764 Y-14.231 E9.21742
G1 X-30.571 Y-14.64 E9.23261
G1 X-29.823 Y-16.112 E9.28808
G1 X-29.594 Y-16.53 E9.30409
G1 X-28.739 Y-17.974 E9.36046
G1 X-28.491 Y-18.363 E9.37596
G1 X-27.562 Y-19.73 E9.43148
G1 X-27.289 Y-20.107 E9.44712
G1 X-26.261 Y-21.432 E9.50345
G1 X-25.967 Y-21.787 E9.51894
G1 X-24.867 Y-23.036 E9.57485
G1 X-24.547 Y-23.378 E9.59058
G1 X-23.379 Y-24.546 E9.64607
G1 X-23.037 Y-24.866 E9.6618
G1 X-21.788 Y-25.966 E9.71771
G1 X-21.433 Y-26.26 E9.7332
G1 X-20.108 Y-27.288 E9.78953
G1 X-19.732 Y-27.561 E9.80514
G1 X-18.364 Y-28.491 E9.86071
G1 X-17.973 Y-28.739 E9.87626
G1 X-16.535 Y-29.59 E9.93239
G1 X-16.122 Y-29.817 E9.94823
G1 X-14.644 Y-30.569 E10.00393
G1 X-14.231 Y-30.764 E10.01928
G1 X-12.692 Y-31.431 E10.07562
G1 X-12.252 Y-31.605 E10.09152
G1 X-10.691 Y-32.166 E10.14724
G1 X-10.256 Y-32.307 E10.1626
G1 X-8.658 Y-32.772 E10.21851
G1 X-8.205 Y-32.889 E10.23422
G1 X-6.586 Y-33.251 E10.28995
G1 X-6.132 Y-33.337 E10.30548
G1 X-4.476 Y-33.6 E10.3618
G1 X-4.007 Y-33.66 E10.37769
G1 X-2.357 Y-33.815 E10.43336
G1 X-1.9 Y-33.843 E10.44874
G1 X-.235 Y-33.896 E10.5047
G1 X.235 Y-33.896 E10.52049
G1 X1.9 Y-33.843 E10.57645
G1 X2.357 Y-33.815 E10.59183
G1 X4.007 Y-33.66 E10.6475
G1 X4.476 Y-33.6 E10.66338
G1 X6.132 Y-33.337 E10.71971
G1 X6.586 Y-33.251 E10.73523
G1 X8.205 Y-32.889 E10.79096
G1 X8.658 Y-32.772 E10.80668
G1 X10.256 Y-32.307 E10.86259
G1 X10.691 Y-32.166 E10.87795
G1 X12.252 Y-31.605 E10.93367
G1 X12.692 Y-31.431 E10.94956
G1 X14.231 Y-30.764 E11.00591
G1 X14.644 Y-30.569 E11.02125
G1 X16.122 Y-29.817 E11.07696
G1 X16.535 Y-29.59 E11.09279
G1 X17.973 Y-28.739 E11.14892
G1 X18.363 Y-28.491 E11.16445
G1 X19.73 Y-27.562 E11.21997
G1 X20.107 Y-27.289 E11.23561
G1 X21.432 Y-26.261 E11.29194
G1 X21.787 Y-25.967 E11.30743
G1 X23.036 Y-24.867 E11.36334
G1 X23.378 Y-24.547 E11.37907
G1 X24.546 Y-23.379 E11.43456
G1 X24.866 Y-23.037 E11.45029
G1 X25.966 Y-21.788 E11.5062
G1 X26.26 Y-21.433 E11.52169
G1 X27.288 Y-20.108 E11.57802
G1 X27.561 Y-19.732 E11.59363
G1 X28.491 Y-18.364 E11.6492
G1 X28.739 Y-17.973 E11.66475
G1 X29.593 Y-16.53 E11.72108
G1 X29.821 Y-16.115 E11.73699
G1 X30.57 Y-14.642 E11.7925
G1 X30.764 Y-14.231 E11.80777
G1 X31.431 Y-12.692 E11.86411
G1 X31.605 Y-12.252 E11.88001
G1 X32.164 Y-10.697 E11.93552
G1 X32.305 Y-10.263 E11.95084
G1 X32.77 Y-8.666 E12.00672
G1 X32.886 Y-8.215 E12.02236
G1 X33.25 Y-6.591 E12.07827
G1 X33.338 Y-6.133 E12.09394
G1 X33.601 Y-4.476 E12.1503
G1 X33.659 Y-4.01 E12.16607
G1 X33.814 Y-2.364 E12.22161
G1 X33.843 Y-1.906 E12.23703
G1 X33.896 Y-.243 E12.29292
G1 X33.896 Y.227 E12.30871
G1 X33.843 Y1.899 E12.36491
G1 X33.815 Y2.357 E12.38032
G1 X33.66 Y4.007 E12.43599
G1 X33.6 Y4.476 E12.45187
G1 X33.337 Y6.132 E12.5082
G1 X33.251 Y6.586 E12.52372
G1 X32.89 Y8.2 E12.57928
G1 X32.773 Y8.655 E12.59506
G1 X32.306 Y10.258 E12.65115
G1 X32.166 Y10.687 E12.66631
G1 X31.606 Y12.248 E12.72202
G1 X31.431 Y12.692 E12.73805
G1 X30.764 Y14.231 E12.7944
G1 X30.571 Y14.64 E12.80959
G1 X29.823 Y16.112 E12.86506
G1 X29.594 Y16.53 E12.88107
G1 X28.739 Y17.974 E12.93744
G1 X28.491 Y18.363 E12.95294
G1 X27.562 Y19.73 E13.00846
G1 X27.289 Y20.107 E13.0241
G1 X26.261 Y21.432 E13.08043
G1 X25.967 Y21.787 E13.09592
G1 X24.867 Y23.036 E13.15183
G1 X24.547 Y23.378 E13.16756
G1 X23.379 Y24.546 E13.22305
G1 X23.037 Y24.866 E13.23878
G1 X21.788 Y25.966 E13.29469
G1 X21.433 Y26.26 E13.31018
G1 X20.108 Y27.288 E13.36651
G1 X19.732 Y27.561 E13.38212
G1 X18.364 Y28.491 E13.43769
G1 X17.973 Y28.739 E13.45324
G1 X16.535 Y29.59 E13.50938
G1 X16.122 Y29.817 E13.52521
G1 X14.644 Y30.569 E13.58091
G1 X14.231 Y30.764 E13.59626
G1 X12.692 Y31.431 E13.6526
G1 X12.248 Y31.606 E13.66863
G1 X10.687 Y32.166 E13.72434
G1 X10.26 Y32.305 E13.73943
G1 X8.662 Y32.771 E13.79535
G1 X8.205 Y32.889 E13.8112
G1 X6.586 Y33.251 E13.86693
G1 X6.132 Y33.337 E13.88245
G1 X4.476 Y33.6 E13.93878
G1 X4.007 Y33.66 E13.95466
G1 X2.356 Y33.815 E14.01037
G1 X1.892 Y33.843 E14.02599
G1 X.207 Y33.895 E14.08262
G1 X-.261 Y33.895 E14.09834
G1 X-1.925 Y33.841 E14.15427
G1 X-2.382 Y33.812 E14.16965
G1 X-4.032 Y33.656 E14.22532
G1 X-4.499 Y33.597 E14.24114
G1 X-6.156 Y33.333 E14.2975
G1 X-6.616 Y33.245 E14.31323
G1 X-8.234 Y32.881 E14.36895
G1 X-8.901 Y32.698 E14.39218
G0 F3600 X-8.777 Y32.317
G1 F1800 X-11.947 Y31.285 E14.50417
G1 X-12.571 Y31.048 E14.52659
G1 X-14.089 Y30.388 E14.5822
G1 X-14.474 Y30.207 E14.59649
G1 X-15.961 Y29.45 E14.65254
G1 X-16.362 Y29.229 E14.66792
G1 X-17.792 Y28.379 E14.72381
G1 X-18.154 Y28.149 E14.73821
G1 X-19.529 Y27.213 E14.79409
G1 X-19.884 Y26.954 E14.80885
G1 X-21.206 Y25.927 E14.86509
G1 X-21.538 Y25.653 E14.87955
G1 X-22.777 Y24.562 E14.93501
G1 X-23.101 Y24.258 E14.94993
G1 X-24.264 Y23.095 E15.00518
G1 X-24.567 Y22.771 E15.02008
G1 X-25.667 Y21.522 E15.07599
G1 X-25.945 Y21.187 E15.09062
G1 X-26.973 Y19.862 E15.14695
G1 X-27.232 Y19.506 E15.16174
G1 X-28.161 Y18.139 E15.21726
G1 X-28.394 Y17.77 E15.23192
G1 X-29.249 Y16.326 E15.2883
G1 X-29.467 Y15.931 E15.30345
G1 X-30.215 Y14.459 E15.35892
G1 X-30.397 Y14.072 E15.37329
G1 X-31.064 Y12.533 E15.42963
G1 X-31.229 Y12.116 E15.4447
G1 X-31.79 Y10.555 E15.50042
G1 X-31.924 Y10.142 E15.515
G1 X-32.39 Y8.539 E15.57108
G1 X-32.499 Y8.113 E15.58585
G1 X-32.86 Y6.499 E15.64141
G1 X-32.942 Y6.069 E15.65612
G1 X-33.205 Y4.413 E15.71244
G1 X-33.261 Y3.97 E15.72744
G1 X-33.416 Y2.32 E15.78312
G1 X-33.443 Y1.889 E15.79762
G1 X-33.496 Y.231 E15.85335
G1 X-33.497 Y-.214 E15.8683
G1 X-33.444 Y-1.89 E15.92463
G1 X-33.416 Y-2.325 E15.93927
G1 X-33.261 Y-3.971 E15.99481
G1 X-33.205 Y-4.413 E16.00977
G1 X-32.942 Y-6.069 E16.0661
G1 X-32.86 Y-6.499 E16.08081
G1 X-32.499 Y-8.113 E16.13636
G1 X-32.39 Y-8.537 E16.15107
G1 X-31.923 Y-10.145 E16.20732
G1 X-31.787 Y-10.563 E16.22209
G1 X-31.227 Y-12.119 E16.27764
G1 X-31.064 Y-12.533 E16.29259
G1 X-30.397 Y-14.072 E16.34893
G1 X-30.215 Y-14.459 E16.3633
G1 X-29.467 Y-15.931 E16.41876
G1 X-29.249 Y-16.326 E16.43392
G1 X-28.394 Y-17.77 E16.49029
G1 X-28.161 Y-18.139 E16.50495
G1 X-27.232 Y-19.506 E16.56048
G1 X-26.973 Y-19.862 E16.57526
G1 X-25.945 Y-21.187 E16.6316
G1 X-25.667 Y-21.522 E16.64622
G1 X-24.567 Y-22.771 E16.70213
G1 X-24.264 Y-23.095 E16.71704
G1 X-23.096 Y-24.263 E16.77252
G1 X-22.772 Y-24.566 E16.78743
G1 X-21.523 Y-25.666 E16.84333
G1 X-21.188 Y-25.944 E16.85796
G1 X-19.863 Y-26.972 E16.91429
G1 X-19.507 Y-27.23 E16.92906
G1 X-18.139 Y-28.16 E16.98463
G1 X-17.769 Y-28.395 E16.99936
G1 X-16.331 Y-29.246 E17.05549
G1 X-15.94 Y-29.461 E17.07048
G1 X-14.462 Y-30.213 E17.12619
G1 X-14.072 Y-30.397 E17.14067
G1 X-12.533 Y-31.064 E17.19702
G1 X-12.116 Y-31.229 E17.21208
G1 X-10.555 Y-31.79 E17.2678
G1 X-10.144 Y-31.923 E17.28232
G1 X-8.546 Y-32.388 E17.33822
G1 X-8.117 Y-32.498 E17.3531
G1 X-6.498 Y-32.86 E17.40883
G1 X-6.069 Y-32.942 E17.4235
G1 X-4.413 Y-33.205 E17.47983
G1 X-3.97 Y-33.261 E17.49483
G1 X-2.32 Y-33.416 E17.5505
G1 X-1.888 Y-33.443 E17.56504
G1 X-.223 Y-33.496 E17.621
G1 X.223 Y-33.496 E17.63598
G1 X1.888 Y-33.443 E17.69194
G1 X2.32 Y-33.416 E17.70648
G1 X3.97 Y-33.261 E17.76216
G1 X4.413 Y-33.205 E17.77716
G1 X6.069 Y-32.942 E17.83348
G1 X6.498 Y-32.86 E17.84816
G1 X8.117 Y-32.498 E17.90389
G1 X8.546 Y-32.388 E17.91876
G1 X10.144 Y-31.923 E17.97467
G1 X10.555 Y-31.79 E17.98918
G1 X12.116 Y-31.229 E18.0449
G1 X12.533 Y-31.064 E18.05997
G1 X14.072 Y-30.397 E18.11631
G1 X14.462 Y-30.213 E18.1308
G1 X15.94 Y-29.461 E18.18651
G1 X16.331 Y-29.246 E18.2015
G1 X17.769 Y-28.395 E18.25763
G1 X18.139 Y-28.161 E18.27234
G1 X19.506 Y-27.232 E18.32786
G1 X19.862 Y-26.973 E18.34265
G1 X21.187 Y-25.945 E18.39898
G1 X21.522 Y-25.667 E18.41361
G1 X22.771 Y-24.567 E18.46952
G1 X23.095 Y-24.264 E18.48442
G1 X24.263 Y-23.096 E18.53991
G1 X24.566 Y-22.772 E18.55481
G1 X25.666 Y-21.523 E18.61072
G1 X25.944 Y-21.188 E18.62534
G1 X26.972 Y-19.863 E18.68168
G1 X27.23 Y-19.507 E18.69645
G1 X28.16 Y-18.139 E18.75201
G1 X28.395 Y-17.769 E18.76674
G1 X29.249 Y-16.326 E18.82307
G1 X29.465 Y-15.934 E18.8381
G1 X30.214 Y-14.461 E18.89361
G1 X30.397 Y-14.072 E18.90805
G1 X31.064 Y-12.533 E18.9644
G1 X31.228 Y-12.117 E18.97942
G1 X31.787 Y-10.562 E19.03493
G1 X31.921 Y-10.151 E19.04945
G1 X32.386 Y-8.554 E19.10533
G1 X32.496 Y-8.128 E19.12011
G1 X32.86 Y-6.504 E19.17602
G1 X32.942 Y-6.07 E19.19085
G1 X33.205 Y-4.413 E19.24721
G1 X33.261 Y-3.972 E19.26215
G1 X33.416 Y-2.326 E19.31769
