;FLAVOR:RepRap
;TIME:2580
;Generated with Cura_SteamEngine 2.3.1
M190 S60
M104 S230
M109 S230
G21 ;metric values
G90 ;absolute positioning
M82 ;set extruder to absolute mode
M107 ;start with the fan off
G28 ;Home all axes (max endstops)
G29 ;Auto Trim/Level
G1 Z15.0 F9000 ;move the platform down 15mm
G92 E0 ;zero the extruded length
G1 F200 E6 ;extrude 6mm of feed stock
G92 E0 ;zero the extruded length again

G1 F9000
M117 Printing...

M117 DAQ adj...temps
M300 S100 P100
M300 S500 P100
M300 S100 P100
M4 P100  ;; dwell / wait (ms)
M106 S128      ; Fan speed 0-255
M221 S100      ; Flow Rate
M104 S245.0 T0 ; Extruder 0 temp
M140 S100.0    ; Bed temp
M104 S220.0 T0 ; Extruder 0 temp
M140 S050.0    ; Bed temp
;LAYER_COUNT:35
;LAYER:0
M107
G1 F1500 E-4
G1 Z21.75
G0 F3600 X-.168 Y21.488 Z1.95
;TYPE:SKIRT
G1 Z.2
G1 F1500 E0
G1 F1800 X-.169 Y21.488 E0.00003
G1 X-1.104 Y21.891 E0.03424
G1 X-1.893 Y22.169 E0.06234
G1 X-2.65 Y22.393 E0.08886
G1 X-3.132 Y22.494 E0.1054
G1 X-3.734 Y22.6 E0.12593
G1 X-4.518 Y22.697 E0.15247
G1 X-5.3 Y22.715 E0.17875
G1 X-6.288 Y22.688 E0.21195
G1 X-7.075 Y22.627 E0.23847
G1 X-8.18 Y22.402 E0.27635
G1 X-8.908 Y22.198 E0.30175
G1 X-9.124 Y22.125 E0.30941
G1 X-9.94 Y22.387 E0.3382
G1 X-10.703 Y22.59 E0.36472
G1 X-11.773 Y22.74 E0.40101
G1 X-12.365 Y22.782 E0.42095
G1 X-13.155 Y22.798 E0.4475
G1 X-13.852 Y22.746 E0.47097
G1 X-14.647 Y22.65 E0.49787
G1 X-15.425 Y22.516 E0.52439
G1 X-16.179 Y22.306 E0.55069
G1 X-16.977 Y22.04 E0.57894
G1 X-17.712 Y21.752 E0.60546
G1 X-18.232 Y21.493 E0.62498
G1 X-18.614 Y21.677 E0.63922
G1 X-19.384 Y21.989 E0.66713
G1 X-20.13 Y22.248 E0.69366
G1 X-20.947 Y22.44 E0.72185
G1 X-21.948 Y22.618 E0.75601
G1 X-22.732 Y22.716 E0.78255
G1 X-23.521 Y22.735 E0.80906
G1 X-24.132 Y22.695 E0.82963
G1 X-25.289 Y22.573 E0.86871
G1 X-26.069 Y22.451 E0.89523
G1 X-26.833 Y22.25 E0.92177
G1 X-27.646 Y21.941 E0.95099
G1 X-28.501 Y21.56 E0.98243
G1 X-29.205 Y21.202 E1.00896
G1 X-29.869 Y20.775 E1.03548
G1 X-30.345 Y20.406 E1.05571
G1 X-30.891 Y19.947 E1.07968
G1 X-31.469 Y19.408 E1.10623
G1 X-32.079 Y18.699 E1.13764
G1 X-32.391 Y18.289 E1.15495
G1 X-32.837 Y17.638 E1.18146
G1 X-33.373 Y16.591 E1.22097
G1 X-33.721 Y15.764 E1.25111
G1 X-33.99 Y15.022 E1.27763
G1 X-34.183 Y14.256 E1.30416
G1 X-34.265 Y13.757 E1.32115
G1 X-34.384 Y12.853 E1.35178
G1 X-34.448 Y12.066 E1.37831
G1 X-34.436 Y11.35 E1.40236
G1 X-34.389 Y10.595 E1.42777
G1 X-34.3 Y9.811 E1.45428
G1 X-34.139 Y9.064 E1.47995
G1 X-33.732 Y7.543 E1.53284
G1 X-33.489 Y6.791 E1.55939
G1 X-33.151 Y6.025 E1.58751
G1 X-32.471 Y4.687 E1.63793
G1 X-32.078 Y4.002 E1.66446
G1 X-31.613 Y3.355 E1.69123
G1 X-30.786 Y2.319 E1.73576
G1 X-30.453 Y1.942 E1.75266
G1 X-30.156 Y.32 E1.80805
G1 X-30 Y-1.143 E1.85747
G1 X-29.997 Y-1.859 E1.88153
G1 X-30.411 Y-2.221 E1.9
G1 X-30.978 Y-2.77 E1.92651
G1 X-31.563 Y-3.476 E1.95731
G1 X-32.356 Y-4.556 E2.00232
G1 X-32.791 Y-5.215 E2.02885
G1 X-33.159 Y-5.92 E2.05556
G1 X-33.464 Y-6.585 E2.08014
G1 X-33.855 Y-7.63 E2.11762
G1 X-34.068 Y-8.352 E2.14291
G1 X-34.253 Y-9.12 E2.16945
G1 X-34.365 Y-9.972 E2.19831
G1 X-34.466 Y-11.31 E2.24339
G1 X-34.485 Y-12.099 E2.2699
G1 X-34.425 Y-12.887 E2.29645
G1 X-34.304 Y-13.581 E2.32011
G1 X-34.052 Y-14.721 E2.35933
G1 X-33.843 Y-15.482 E2.38585
G1 X-33.558 Y-16.218 E2.41236
G1 X-33.321 Y-16.702 E2.43046
G1 X-32.967 Y-17.367 E2.45577
G1 X-32.561 Y-18.045 E2.48232
G1 X-32.128 Y-18.631 E2.50679
G1 X-31.828 Y-18.999 E2.52274
G1 X-31.298 Y-19.585 E2.54928
G1 X-30.411 Y-20.348 E2.58859
G1 X-29.608 Y-20.94 E2.6221
G1 X-28.949 Y-21.376 E2.64865
G1 X-28.25 Y-21.743 E2.67517
G1 X-27.596 Y-22.01 E2.6989
G1 X-26.88 Y-22.265 E2.72443
G1 X-26.124 Y-22.492 E2.75095
G1 X-25.286 Y-22.65 E2.77959
G1 X-24.704 Y-22.727 E2.79931
G1 X-23.917 Y-22.79 E2.82584
G1 X-22.748 Y-22.738 E2.86514
G1 X-21.545 Y-22.593 E2.90585
G1 X-20.766 Y-22.459 E2.9324
G1 X-20.006 Y-22.247 E2.95891
G1 X-19.345 Y-21.992 E2.98271
G1 X-18.196 Y-21.488 E3.02485
G1 X-18.195 Y-21.487 E3.0249
G1 X-17.783 Y-21.672 E3.04007
G1 X-17.017 Y-21.983 E3.06785
G1 X-16.271 Y-22.243 E3.09438
G1 X-15.803 Y-22.364 E3.11062
G1 X-15.197 Y-22.501 E3.13149
G1 X-14.419 Y-22.636 E3.15802
G1 X-13.665 Y-22.691 E3.18342
G1 X-12.67 Y-22.715 E3.21685
G1 X-11.881 Y-22.694 E3.24336
G1 X-11.097 Y-22.593 E3.26992
G1 X-10.381 Y-22.429 E3.29459
G1 X-9.291 Y-22.124 E3.33262
G1 X-9.225 Y-22.15 E3.335
G1 X-8.475 Y-22.397 E3.36152
G1 X-7.421 Y-22.61 E3.39765
G1 X-6.459 Y-22.736 E3.43024
G1 X-5.672 Y-22.799 E3.45676
G1 X-4.511 Y-22.746 E3.4958
G1 X-3.716 Y-22.65 E3.5227
G1 X-2.938 Y-22.516 E3.54922
G1 X-2.184 Y-22.306 E3.57552
G1 X-1.386 Y-22.04 E3.60377
G1 X-.651 Y-21.752 E3.63029
G1 X-.145 Y-21.5 E3.64928
G1 X.237 Y-21.671 E3.66334
G1 X1.015 Y-21.987 E3.69155
G1 X1.76 Y-22.246 E3.71805
G1 X2.215 Y-22.365 E3.73384
G1 X2.811 Y-22.501 E3.75438
G1 X3.589 Y-22.637 E3.78091
G1 X4.334 Y-22.693 E3.80601
G1 X5.328 Y-22.72 E3.83941
G1 X6.118 Y-22.702 E3.86596
G1 X6.901 Y-22.603 E3.89247
G1 X7.64 Y-22.435 E3.91793
G1 X8.742 Y-22.127 E3.95637
G1 X8.809 Y-22.105 E3.95874
G1 X9.037 Y-22.193 E3.96695
G1 X9.786 Y-22.442 E3.99346
G1 X10.851 Y-22.657 E4.02996
G1 X11.419 Y-22.731 E4.0492
G1 X12.207 Y-22.793 E4.07575
G1 X13.345 Y-22.742 E4.11402
G1 X14.543 Y-22.6 E4.15455
G1 X15.322 Y-22.467 E4.18109
G1 X16.442 Y-22.127 E4.22041
G1 X17.232 Y-21.821 E4.24887
G1 X17.942 Y-21.504 E4.27499
G1 X18.603 Y-21.801 E4.29934
G1 X19.003 Y-21.944 E4.31361
G1 X19.988 Y-22.268 E4.34844
G1 X20.749 Y-22.477 E4.37495
G1 X21.45 Y-22.598 E4.39885
G1 X22.053 Y-22.674 E4.41926
G1 X22.84 Y-22.733 E4.44577
G1 X23.84 Y-22.693 E4.47939
G1 X24.996 Y-22.572 E4.51844
G1 X25.776 Y-22.45 E4.54496
G1 X26.54 Y-22.25 E4.57149
G1 X27.356 Y-21.94 E4.60081
G1 X28.212 Y-21.559 E4.63229
G1 X28.916 Y-21.202 E4.6588
G1 X29.581 Y-20.775 E4.68535
G1 X30.058 Y-20.404 E4.70565
G1 X30.603 Y-19.946 E4.72957
G1 X31.181 Y-19.408 E4.75609
G1 X31.78 Y-18.714 E4.78689
G1 X32.086 Y-18.314 E4.80381
G1 X32.534 Y-17.664 E4.83033
G1 X33.065 Y-16.637 E4.86916
G1 X33.418 Y-15.81 E4.89937
G1 X33.691 Y-15.069 E4.9259
G1 X33.92 Y-14.133 E4.95827
G1 X34.018 Y-13.59 E4.9768
G1 X34.119 Y-12.807 E5.00332
G1 X34.141 Y-12.338 E5.0191
G1 X34.154 Y-11.577 E5.04466
G1 X34.127 Y-10.788 E5.07119
G1 X33.996 Y-9.878 E5.10207
G1 X33.685 Y-8.361 E5.15409
G1 X33.488 Y-7.596 E5.18063
G1 X33.167 Y-6.748 E5.21109
G1 X32.543 Y-5.35 E5.26251
G1 X32.185 Y-4.646 E5.28905
G1 X31.65 Y-3.836 E5.32166
G1 X30.642 Y-2.498 E5.37793
G1 X30.143 Y-1.902 E5.40404
G1 X29.951 Y-.881 E5.43894
G1 X29.699 Y1.41 E5.51637
G1 X29.704 Y1.827 E5.53038
G1 X29.81 Y1.917 E5.53505
G1 X30.592 Y2.681 E5.57177
G1 X31.234 Y3.403 E5.60423
G1 X31.728 Y4.019 E5.63075
G1 X32.249 Y4.844 E5.66353
G1 X32.926 Y6.082 E5.71093
G1 X33.269 Y6.793 E5.73745
G1 X33.56 Y7.606 E5.76646
G1 X33.781 Y8.351 E5.79256
G1 X33.967 Y9.118 E5.81907
G1 X34.083 Y10.007 E5.84919
G1 X34.18 Y11.35 E5.89442
G1 X34.197 Y12.14 E5.92097
G1 X34.134 Y12.927 E5.94749
G1 X34.015 Y13.603 E5.97055
G1 X33.765 Y14.729 E6.00929
G1 X33.555 Y15.49 E6.03581
G1 X33.269 Y16.226 E6.06234
G1 X32.865 Y17.007 E6.09188
G1 X32.336 Y17.902 E6.1268
G1 X31.9 Y18.56 E6.15332
G1 X31.4 Y19.172 E6.17987
G1 X30.83 Y19.739 E6.20687
G1 X30.217 Y20.289 E6.23454
G1 X29.603 Y20.786 E6.26108
G1 X28.942 Y21.218 E6.2876
G1 X28.488 Y21.464 E6.30495
G1 X27.826 Y21.794 E6.3298
G1 X27.102 Y22.11 E6.35633
G1 X26.263 Y22.374 E6.38588
G1 X25.703 Y22.516 E6.40529
G1 X24.929 Y22.671 E6.43181
G1 X23.919 Y22.754 E6.46585
G1 X22.924 Y22.771 E6.49928
G1 X22.135 Y22.744 E6.5258
G1 X21.269 Y22.622 E6.55518
G1 X20.676 Y22.504 E6.57549
G1 X19.91 Y22.311 E6.60202
G1 X19.381 Y22.127 E6.62084
G1 X18.591 Y21.821 E6.6493
G1 X17.88 Y21.504 E6.67545
G1 X17.224 Y21.799 E6.69961
G1 X16.82 Y21.944 E6.71403
G1 X15.835 Y22.268 E6.74886
G1 X15.074 Y22.477 E6.77537
G1 X14.373 Y22.598 E6.79927
G1 X13.77 Y22.674 E6.81969
G1 X12.983 Y22.733 E6.8462
G1 X11.983 Y22.693 E6.87982
G1 X10.827 Y22.572 E6.91886
G1 X10.047 Y22.45 E6.94539
G1 X9.283 Y22.25 E6.97192
G1 X8.932 Y22.117 E6.98452
G1 X8.516 Y22.265 E6.99936
G1 X7.76 Y22.492 E7.02587
G1 X6.922 Y22.65 E7.05452
G1 X6.34 Y22.727 E7.07424
G1 X5.553 Y22.79 E7.10076
G1 X4.384 Y22.738 E7.14007
G1 X3.181 Y22.593 E7.18078
G1 X2.402 Y22.459 E7.20733
G1 X1.642 Y22.247 E7.23383
G1 X.981 Y21.992 E7.25763
G1 X-.168 Y21.488 E7.29978
G0 F3600 X-.179 Y21.036
G1 F1800 X-.331 Y21.124 E7.30568
G1 X-1.237 Y21.513 E7.3388
G1 X-2.026 Y21.791 E7.36691
G1 X-2.764 Y22.009 E7.39276
G1 X-3.202 Y22.1 E7.40778
G1 X-3.804 Y22.206 E7.42832
G1 X-4.567 Y22.3 E7.45414
G1 X-5.289 Y22.315 E7.4784
G1 X-6.277 Y22.288 E7.5116
G1 X-7.044 Y22.227 E7.53745
G1 X-8.072 Y22.017 E7.5727
G1 X-8.8 Y21.813 E7.5981
G1 X-9.128 Y21.702 E7.60973
G1 X-9.163 Y21.717 E7.61101
G1 X-10.063 Y22.006 E7.64276
G1 X-10.806 Y22.202 E7.66857
G1 X-11.801 Y22.341 E7.70232
G1 X-12.393 Y22.383 E7.72226
G1 X-13.162 Y22.398 E7.7481
G1 X-13.804 Y22.349 E7.76973
G1 X-14.599 Y22.253 E7.79663
G1 X-15.357 Y22.121 E7.82247
G1 X-16.052 Y21.926 E7.84672
G1 X-16.85 Y21.66 E7.87498
G1 X-17.566 Y21.379 E7.90082
G1 X-18.079 Y21.122 E7.92009
G1 X-18.219 Y21.045 E7.92546
G1 X-18.764 Y21.306 E7.94576
G1 X-19.534 Y21.618 E7.97367
G1 X-20.261 Y21.87 E7.99952
G1 X-21.017 Y22.046 E8.02559
G1 X-22.018 Y22.224 E8.05975
G1 X-22.782 Y22.319 E8.08561
G1 X-23.551 Y22.334 E8.11145
G1 X-24.09 Y22.297 E8.12959
G1 X-25.247 Y22.175 E8.16868
G1 X-26.007 Y22.055 E8.19452
G1 X-26.75 Y21.856 E8.22036
G1 X-27.483 Y21.575 E8.24673
G1 X-28.338 Y21.194 E8.27818
G1 X-29.023 Y20.845 E8.304
G1 X-29.669 Y20.427 E8.32985
G1 X-30.088 Y20.099 E8.34773
G1 X-30.634 Y19.64 E8.37169
G1 X-31.196 Y19.116 E8.3975
G1 X-31.761 Y18.457 E8.42666
G1 X-32.073 Y18.047 E8.44397
G1 X-32.506 Y17.412 E8.46979
G1 X-33.005 Y16.436 E8.50661
G1 X-33.353 Y15.609 E8.53675
G1 X-33.614 Y14.886 E8.56257
G1 X-33.798 Y14.139 E8.58842
G1 X-33.869 Y13.705 E8.60319
G1 X-33.988 Y12.801 E8.63382
G1 X-34.048 Y12.034 E8.65966
G1 X-34.037 Y11.375 E8.6818
G1 X-33.99 Y10.62 E8.70722
G1 X-33.902 Y9.856 E8.73305
G1 X-33.752 Y9.167 E8.75674
G1 X-33.345 Y7.646 E8.80963
G1 X-33.108 Y6.914 E8.83548
G1 X-32.794 Y6.206 E8.86149
G1 X-32.114 Y4.868 E8.91191
G1 X-31.73 Y4.202 E8.93774
G1 X-31.3 Y3.604 E8.96248
G1 X-30.473 Y2.568 E9.00701
G1 X-30.079 Y2.124 E9.02695
G1 X-29.76 Y.38 E9.08651
G1 X-29.6 Y-1.118 E9.13712
G1 X-29.596 Y-2.039 E9.16806
G1 X-30.148 Y-2.522 E9.1927
G1 X-30.7 Y-3.058 E9.21854
G1 X-31.241 Y-3.712 E9.24706
G1 X-32.034 Y-4.792 E9.29207
G1 X-32.456 Y-5.435 E9.3179
G1 X-32.795 Y-6.087 E9.34259
G1 X-33.1 Y-6.752 E9.36717
G1 X-33.472 Y-7.743 E9.40272
G1 X-33.685 Y-8.465 E9.42801
G1 X-33.864 Y-9.213 E9.45385
G1 X-33.966 Y-10.002 E9.48057
G1 X-34.067 Y-11.34 E9.52565
G1 X-34.085 Y-12.109 E9.55149
G1 X-34.023 Y-12.876 E9.57734
G1 X-33.914 Y-13.494 E9.59842
G1 X-33.662 Y-14.634 E9.63764
G1 X-33.457 Y-15.376 E9.6635
G1 X-33.176 Y-16.092 E9.68934
G1 X-32.968 Y-16.514 E9.70514
G1 X-32.614 Y-17.179 E9.73045
G1 X-32.218 Y-17.839 E9.7563
G1 X-31.818 Y-18.378 E9.77885
G1 X-31.518 Y-18.746 E9.7948
G1 X-31.001 Y-19.316 E9.82065
G1 X-30.173 Y-20.026 E9.85729
G1 X-29.37 Y-20.618 E9.89081
G1 X-28.728 Y-21.042 E9.91665
G1 X-28.046 Y-21.397 E9.94248
G1 X-27.462 Y-21.633 E9.96364
G1 X-26.746 Y-21.888 E9.98917
G1 X-26.009 Y-22.108 E10.01501
G1 X-25.234 Y-22.253 E10.04149
G1 X-24.652 Y-22.33 E10.06122
G1 X-23.885 Y-22.391 E10.08706
G1 X-22.795 Y-22.341 E10.12372
G1 X-21.592 Y-22.196 E10.16442
G1 X-20.835 Y-22.064 E10.19024
G1 X-20.095 Y-21.855 E10.21607
G1 X-19.505 Y-21.626 E10.23733
G1 X-18.356 Y-21.122 E10.27948
G1 X-18.193 Y-21.04 E10.2856
G1 X-18.089 Y-21.098 E10.2896
G1 X-17.633 Y-21.301 E10.30637
G1 X-16.867 Y-21.612 E10.33414
G1 X-16.14 Y-21.864 E10.35999
G1 X-15.715 Y-21.974 E10.37474
G1 X-15.109 Y-22.111 E10.39561
G1 X-14.351 Y-22.241 E10.42145
G1 X-13.655 Y-22.291 E10.44489
G1 X-12.66 Y-22.315 E10.47832
G1 X-11.892 Y-22.293 E10.50413
G1 X-11.129 Y-22.192 E10.52999
G1 X-10.489 Y-22.043 E10.55206
G1 X-9.395 Y-21.737 E10.59022
G1 X-9.282 Y-21.699 E10.59423
G1 X-9.08 Y-21.777 E10.6015
G1 X-8.349 Y-22.017 E10.62735
G1 X-7.369 Y-22.213 E10.66092
G1 X-6.407 Y-22.339 E10.69351
G1 X-5.64 Y-22.399 E10.71935
G1 X-4.559 Y-22.349 E10.75571
G1 X-3.764 Y-22.253 E10.78261
G1 X-3.006 Y-22.121 E10.80845
G1 X-2.311 Y-21.926 E10.8327
G1 X-1.513 Y-21.66 E10.86096
G1 X-.797 Y-21.379 E10.8868
G1 X-.28 Y-21.12 E10.90622
G1 X-.154 Y-21.05 E10.91107
G1 X-.077 Y-21.093 E10.91403
G1 X.387 Y-21.3 E10.9311
G1 X1.165 Y-21.616 E10.9593
G1 X1.892 Y-21.868 E10.98515
G1 X2.304 Y-21.975 E10.99945
G1 X2.9 Y-22.111 E11.01999
G1 X3.657 Y-22.242 E11.04579
G1 X4.345 Y-22.293 E11.06897
G1 X5.339 Y-22.32 E11.10237
G1 X6.108 Y-22.301 E11.12821
G1 X6.871 Y-22.202 E11.15406
G1 X7.532 Y-22.05 E11.17684
G1 X8.634 Y-21.742 E11.21528
G1 X8.818 Y-21.68 E11.2218
G1 X9.181 Y-21.821 E11.23489
G1 X9.912 Y-22.061 E11.26073
G1 X10.903 Y-22.26 E11.29469
G1 X11.471 Y-22.334 E11.31393
G1 X12.238 Y-22.394 E11.33977
G1 X13.298 Y-22.345 E11.37542
G1 X14.496 Y-22.203 E11.41595
G1 X15.254 Y-22.072 E11.44179
G1 X16.298 Y-21.754 E11.47845
G1 X17.088 Y-21.448 E11.50691
G1 X17.79 Y-21.134 E11.53274
G1 X17.937 Y-21.046 E11.5385
G1 X18.083 Y-21.13 E11.54416
G1 X19.128 Y-21.564 E11.58217
G1 X20.113 Y-21.888 E11.617
G1 X20.855 Y-22.091 E11.64284
G1 X21.5 Y-22.201 E11.66482
G1 X22.103 Y-22.277 E11.68524
G1 X22.87 Y-22.333 E11.71107
G1 X23.798 Y-22.295 E11.74227
G1 X24.954 Y-22.174 E11.78132
G1 X25.714 Y-22.054 E11.80716
G1 X26.457 Y-21.856 E11.833
G1 X27.193 Y-21.575 E11.85946
G1 X28.049 Y-21.194 E11.89094
G1 X28.735 Y-20.845 E11.91679
G1 X29.38 Y-20.427 E11.94261
G1 X29.801 Y-20.098 E11.96056
G1 X30.346 Y-19.64 E11.98447
G1 X30.908 Y-19.115 E12.01031
G1 X31.462 Y-18.471 E12.03885
G1 X31.768 Y-18.071 E12.05576
G1 X32.203 Y-17.437 E12.08159
G1 X32.697 Y-16.48 E12.11777
G1 X33.05 Y-15.653 E12.14798
G1 X33.315 Y-14.931 E12.17381
G1 X33.526 Y-14.062 E12.20385
G1 X33.624 Y-13.519 E12.22239
G1 X33.721 Y-12.756 E12.24823
G1 X33.741 Y-12.331 E12.26252
G1 X33.754 Y-11.57 E12.28809
G1 X33.727 Y-10.802 E12.3139
G1 X33.604 Y-9.958 E12.34255
G1 X33.293 Y-8.441 E12.39457
G1 X33.1 Y-7.696 E12.42043
G1 X32.801 Y-6.911 E12.44865
G1 X32.177 Y-5.513 E12.50007
G1 X31.828 Y-4.828 E12.5259
G1 X31.33 Y-4.076 E12.5562
G1 X30.322 Y-2.738 E12.61247
G1 X29.828 Y-2.149 E12.6383
G1 X29.773 Y-2.096 E12.64086
G1 X29.556 Y-.946 E12.68018
G1 X29.299 Y1.396 E12.75932
G1 X29.306 Y2.014 E12.78008
G1 X29.551 Y2.222 E12.79088
G1 X30.293 Y2.947 E12.82573
G1 X30.935 Y3.669 E12.85819
G1 X31.416 Y4.269 E12.88402
G1 X31.898 Y5.036 E12.91445
G1 X32.575 Y6.274 E12.96185
G1 X32.908 Y6.967 E12.98768
G1 X33.176 Y7.719 E13.01449
G1 X33.397 Y8.464 E13.0406
G1 X33.578 Y9.212 E13.06645
G1 X33.684 Y10.036 E13.09436
G1 X33.781 Y11.379 E13.13959
G1 X33.796 Y12.148 E13.16543
G1 X33.732 Y12.914 E13.19125
G1 X33.624 Y13.516 E13.2118
G1 X33.374 Y14.642 E13.25054
G1 X33.169 Y15.383 E13.27637
G1 X32.887 Y16.099 E13.30222
G1 X32.52 Y16.803 E13.32889
G1 X31.991 Y17.698 E13.36382
G1 X31.566 Y18.339 E13.38965
G1 X31.077 Y18.933 E13.4155
G1 X30.563 Y19.441 E13.43978
G1 X29.95 Y19.991 E13.46744
G1 X29.351 Y20.474 E13.49329
G1 X28.706 Y20.893 E13.51913
G1 X28.309 Y21.106 E13.53426
G1 X27.647 Y21.436 E13.55911
G1 X26.942 Y21.743 E13.58494
G1 X26.165 Y21.986 E13.61229
G1 X25.605 Y22.128 E13.6317
G1 X24.85 Y22.278 E13.65756
G1 X23.912 Y22.354 E13.68917
G1 X22.917 Y22.371 E13.7226
G1 X22.149 Y22.344 E13.74841
G1 X21.347 Y22.23 E13.77563
G1 X20.754 Y22.112 E13.79594
G1 X20.008 Y21.923 E13.82179
G1 X19.525 Y21.754 E13.83898
G1 X18.735 Y21.448 E13.86744
G1 X18.033 Y21.134 E13.89327
G1 X17.886 Y21.046 E13.89903
G1 X17.743 Y21.128 E13.90456
G1 X16.695 Y21.564 E13.94269
G1 X15.71 Y21.888 E13.97753
G1 X14.968 Y22.091 E14.00337
G1 X14.323 Y22.201 E14.02535
G1 X13.72 Y22.277 E14.04577
G1 X12.953 Y22.333 E14.0716
G1 X12.025 Y22.295 E14.1028
G1 X10.869 Y22.174 E14.14185
G1 X10.109 Y22.054 E14.16769
G1 X9.366 Y21.856 E14.19352
G1 X8.934 Y21.691 E14.20906
G1 X8.382 Y21.888 E14.22875
G1 X7.645 Y22.108 E14.25458
G1 X6.87 Y22.253 E14.28107
G1 X6.288 Y22.33 E14.30079
G1 X5.521 Y22.391 E14.32664
G1 X4.431 Y22.341 E14.36329
