;FLAVOR:RepRap
;TIME:1412
;Generated with Cura_SteamEngine 2.3.1
M190 S60
M104 S230
M109 S230
G21 ;metric values
G90 ;absolute positioning
M82 ;set extruder to absolute mode
M107 ;start with the fan off
G28 ;Home all axes (max endstops)
G29 ;Auto Trim/Level
G1 Z15.0 F9000 ;move the platform down 15mm
G92 E0 ;zero the extruded length
G1 F200 E6 ;extrude 6mm of feed stock
G92 E0 ;zero the extruded length again

G1 F9000
M117 Printing...

;LAYER_COUNT:30
;LAYER:0
M107
G1 F1500 E-4
G1 Z21.75
G0 F3600 X-5.992 Y-23.267 Z1.95
;TYPE:SKIRT
G1 Z.2
G1 F1500 E0
G1 F1800 X-5.573 Y-23.497 E0.01606
G1 X-4.862 Y-23.842 E0.0426
G1 X-4.137 Y-24.109 E0.06856
G1 X-3.493 Y-24.31 E0.09122
G1 X-2.728 Y-24.507 E0.11776
G1 X-2.197 Y-24.596 E0.13584
G1 X-1.204 Y-24.728 E0.1695
G1 X-.417 Y-24.792 E0.19602
G1 X.607 Y-24.757 E0.23044
G1 X1.935 Y-24.623 E0.27528
G1 X2.716 Y-24.504 E0.30182
G1 X3.712 Y-24.23 E0.33652
G1 X4.659 Y-23.901 E0.37019
G1 X5.391 Y-23.604 E0.39673
G1 X6.007 Y-23.267 E0.42032
G1 X6.426 Y-23.497 E0.43638
G1 X7.137 Y-23.842 E0.46292
G1 X7.862 Y-24.109 E0.48888
G1 X8.506 Y-24.31 E0.51154
G1 X9.271 Y-24.507 E0.53808
G1 X9.802 Y-24.596 E0.55616
G1 X10.795 Y-24.728 E0.58981
G1 X11.582 Y-24.792 E0.61634
G1 X12.605 Y-24.757 E0.65072
G1 X13.934 Y-24.623 E0.6956
G1 X14.715 Y-24.504 E0.72213
G1 X15.712 Y-24.23 E0.75687
G1 X16.659 Y-23.901 E0.79055
G1 X17.391 Y-23.604 E0.81708
G1 X18.291 Y-23.111 E0.85155
G1 X19.405 Y-22.401 E0.89593
G1 X20.049 Y-21.943 E0.92248
G1 X20.643 Y-21.423 E0.949
G1 X20.999 Y-21.054 E0.96622
G1 X21.893 Y-20.065 E1.01101
G1 X22.393 Y-19.453 E1.03755
G1 X22.941 Y-18.593 E1.07181
G1 X23.425 Y-17.713 E1.10555
G1 X23.771 Y-17.003 E1.13208
G1 X24.041 Y-16.265 E1.15848
G1 X24.34 Y-15.301 E1.19239
G1 X24.535 Y-14.536 E1.21891
G1 X24.673 Y-13.507 E1.25378
G1 X24.761 Y-12.183 E1.29836
G1 X24.773 Y-11.394 E1.32486
G1 X24.669 Y-10.365 E1.35961
G1 X24.501 Y-9.372 E1.39344
G1 X24.33 Y-8.601 E1.41997
G1 X24.089 Y-7.87 E1.44582
G1 X23.734 Y-6.948 E1.47901
G1 X23.413 Y-6.227 E1.50553
G1 X23.273 Y-5.99 E1.51477
G1 X23.425 Y-5.713 E1.52539
G1 X23.771 Y-5.003 E1.55192
G1 X24.041 Y-4.265 E1.57832
G1 X24.34 Y-3.301 E1.61222
G1 X24.535 Y-2.536 E1.63874
G1 X24.673 Y-1.508 E1.67359
G1 X24.761 Y-.185 E1.71813
G1 X24.773 Y.605 E1.74467
G1 X24.669 Y1.634 E1.77941
G1 X24.501 Y2.627 E1.81324
G1 X24.33 Y3.398 E1.83977
G1 X24.089 Y4.129 E1.86563
G1 X23.734 Y5.051 E1.89882
G1 X23.413 Y5.772 E1.92533
G1 X23.273 Y6.009 E1.93458
G1 X23.425 Y6.286 E1.94519
G1 X23.771 Y6.996 E1.97172
G1 X24.041 Y7.734 E1.99812
G1 X24.34 Y8.698 E2.03203
G1 X24.535 Y9.463 E2.05855
G1 X24.673 Y10.492 E2.09342
G1 X24.761 Y11.816 E2.138
G1 X24.773 Y12.605 E2.16451
G1 X24.669 Y13.634 E2.19925
G1 X24.501 Y14.627 E2.23308
G1 X24.33 Y15.398 E2.25961
G1 X24.089 Y16.129 E2.28547
G1 X23.734 Y17.051 E2.31866
G1 X23.413 Y17.772 E2.34517
G1 X22.891 Y18.655 E2.37963
G1 X22.135 Y19.759 E2.42458
G1 X21.656 Y20.387 E2.45111
G1 X21.116 Y20.964 E2.47765
G1 X20.737 Y21.307 E2.49483
G1 X19.718 Y22.169 E2.53966
G1 X19.09 Y22.648 E2.56619
G1 X18.434 Y23.051 E2.59206
G1 X17.853 Y23.37 E2.61432
G1 X17.142 Y23.715 E2.64087
G1 X16.66 Y23.9 E2.65821
G1 X15.705 Y24.232 E2.69218
G1 X14.947 Y24.454 E2.71871
G1 X14.171 Y24.597 E2.74522
G1 X13.177 Y24.729 E2.7789
G1 X12.39 Y24.793 E2.80543
G1 X11.362 Y24.757 E2.83998
G1 X10.043 Y24.623 E2.88452
G1 X9.262 Y24.504 E2.91106
G1 X8.263 Y24.228 E2.94587
G1 X7.308 Y23.895 E2.97985
G1 X6.576 Y23.598 E3.00639
G1 X6.008 Y23.285 E3.02817
G1 X5.853 Y23.37 E3.03411
G1 X5.142 Y23.715 E3.06066
G1 X4.66 Y23.9 E3.078
G1 X3.705 Y24.232 E3.11197
G1 X2.947 Y24.454 E3.1385
G1 X2.171 Y24.597 E3.16501
G1 X1.177 Y24.729 E3.19869
G1 X.39 Y24.793 E3.22522
G1 X-.639 Y24.757 E3.2598
G1 X-1.957 Y24.623 E3.30431
G1 X-2.738 Y24.503 E3.33085
G1 X-3.736 Y24.228 E3.36563
G1 X-4.691 Y23.895 E3.3996
G1 X-5.423 Y23.598 E3.42614
G1 X-5.991 Y23.285 E3.44792
G1 X-6.146 Y23.37 E3.45386
G1 X-6.857 Y23.715 E3.48041
G1 X-7.339 Y23.9 E3.49775
G1 X-8.294 Y24.232 E3.53172
G1 X-9.052 Y24.454 E3.55825
G1 X-9.828 Y24.597 E3.58476
G1 X-10.822 Y24.729 E3.61844
G1 X-11.609 Y24.793 E3.64497
G1 X-12.637 Y24.757 E3.67952
G1 X-13.956 Y24.623 E3.72406
G1 X-14.737 Y24.504 E3.7506
G1 X-15.736 Y24.228 E3.78541
G1 X-16.691 Y23.895 E3.81939
G1 X-17.423 Y23.598 E3.84593
G1 X-18.33 Y23.098 E3.88072
G1 X-19.454 Y22.378 E3.92556
G1 X-20.097 Y21.919 E3.9521
G1 X-20.69 Y21.397 E3.97864
G1 X-21.047 Y21.025 E3.99596
G1 X-21.938 Y20.034 E4.04072
G1 X-22.436 Y19.421 E4.06725
G1 X-22.981 Y18.562 E4.10143
G1 X-23.452 Y17.701 E4.1344
G1 X-23.795 Y16.99 E4.16092
G1 X-24.056 Y16.279 E4.18636
G1 X-24.359 Y15.307 E4.22056
G1 X-24.555 Y14.542 E4.24709
G1 X-24.674 Y13.753 E4.27389
G1 X-24.772 Y12.761 E4.30738
G1 X-24.81 Y11.972 E4.33391
G1 X-24.77 Y11.202 E4.35982
G1 X-24.669 Y10.213 E4.39321
G1 X-24.549 Y9.432 E4.41976
G1 X-24.283 Y8.461 E4.45358
G1 X-23.849 Y7.203 E4.49828
G1 X-23.554 Y6.471 E4.52479
G1 X-23.292 Y5.994 E4.54307
G1 X-23.452 Y5.701 E4.55429
G1 X-23.795 Y4.99 E4.58081
G1 X-24.056 Y4.279 E4.60625
G1 X-24.359 Y3.307 E4.64045
G1 X-24.555 Y2.542 E4.66698
G1 X-24.674 Y1.753 E4.69378
G1 X-24.772 Y.761 E4.72727
G1 X-24.81 Y-.028 E4.75381
G1 X-24.77 Y-.799 E4.77974
G1 X-24.669 Y-1.787 E4.8131
G1 X-24.549 Y-2.568 E4.83965
G1 X-24.283 Y-3.538 E4.87343
G1 X-23.849 Y-4.796 E4.91814
G1 X-23.554 Y-5.528 E4.94465
G1 X-23.292 Y-6.005 E4.96293
G1 X-23.452 Y-6.298 E4.97415
G1 X-23.795 Y-7.009 E5.00066
G1 X-24.056 Y-7.72 E5.02611
G1 X-24.359 Y-8.692 E5.06031
G1 X-24.555 Y-9.457 E5.08684
G1 X-24.674 Y-10.247 E5.11368
G1 X-24.772 Y-11.24 E5.1472
G1 X-24.81 Y-12.029 E5.17373
G1 X-24.77 Y-12.799 E5.19963
G1 X-24.669 Y-13.787 E5.23299
G1 X-24.549 Y-14.568 E5.25954
G1 X-24.283 Y-15.538 E5.29333
G1 X-23.849 Y-16.796 E5.33803
G1 X-23.554 Y-17.528 E5.36454
G1 X-23.041 Y-18.462 E5.40034
G1 X-22.496 Y-19.312 E5.43426
G1 X-22.037 Y-19.954 E5.46077
G1 X-21.353 Y-20.708 E5.49497
G1 X-20.403 Y-21.627 E5.53937
G1 X-19.809 Y-22.147 E5.56589
G1 X-19.164 Y-22.604 E5.59244
G1 X-18.74 Y-22.855 E5.609
G1 X-17.573 Y-23.497 E5.65374
G1 X-16.862 Y-23.842 E5.68029
G1 X-16.137 Y-24.109 E5.70624
G1 X-15.493 Y-24.31 E5.7289
G1 X-14.728 Y-24.507 E5.75544
G1 X-14.197 Y-24.596 E5.77353
G1 X-13.204 Y-24.728 E5.80718
G1 X-12.417 Y-24.792 E5.8337
G1 X-11.394 Y-24.757 E5.86809
G1 X-10.065 Y-24.623 E5.91296
G1 X-9.284 Y-24.504 E5.9395
G1 X-8.287 Y-24.23 E5.97423
G1 X-7.34 Y-23.901 E6.00791
G1 X-6.608 Y-23.604 E6.03445
G1 X-5.992 Y-23.267 E6.05803
G0 F3600 X-5.991 Y-22.811
G1 F1800 X-5.38 Y-23.147 E6.08146
G1 X-4.688 Y-23.482 E6.10728
G1 X-4.018 Y-23.727 E6.13125
G1 X-3.374 Y-23.928 E6.15391
G1 X-2.629 Y-24.119 E6.17975
G1 X-2.144 Y-24.199 E6.19626
G1 X-1.151 Y-24.331 E6.22991
G1 X-.384 Y-24.393 E6.25576
G1 X.567 Y-24.359 E6.28773
G1 X1.895 Y-24.225 E6.33257
G1 X2.655 Y-24.108 E6.3584
G1 X3.58 Y-23.852 E6.39064
G1 X4.527 Y-23.523 E6.42432
G1 X5.24 Y-23.233 E6.45017
G1 X6.008 Y-22.811 E6.47961
G1 X6.619 Y-23.147 E6.50303
G1 X7.311 Y-23.482 E6.52886
G1 X7.981 Y-23.727 E6.55283
G1 X8.625 Y-23.928 E6.57549
G1 X9.37 Y-24.119 E6.60133
G1 X9.855 Y-24.199 E6.61784
G1 X10.848 Y-24.331 E6.65149
G1 X11.615 Y-24.393 E6.67734
G1 X12.565 Y-24.359 E6.70927
G1 X13.894 Y-24.225 E6.75414
G1 X14.655 Y-24.108 E6.78001
G1 X15.58 Y-23.852 E6.81225
G1 X16.527 Y-23.523 E6.84593
G1 X17.24 Y-23.233 E6.87178
G1 X18.076 Y-22.773 E6.90384
G1 X19.19 Y-22.063 E6.94821
G1 X19.816 Y-21.617 E6.97403
G1 X20.393 Y-21.108 E6.99988
G1 X20.703 Y-20.785 E7.01492
G1 X21.597 Y-19.796 E7.05971
G1 X22.082 Y-19.2 E7.08552
G1 X22.591 Y-18.4 E7.11737
G1 X23.075 Y-17.52 E7.15111
G1 X23.41 Y-16.828 E7.17694
G1 X23.659 Y-16.146 E7.20133
G1 X23.958 Y-15.182 E7.23523
G1 X24.147 Y-14.437 E7.26105
G1 X24.274 Y-13.481 E7.29345
G1 X24.362 Y-12.157 E7.33802
G1 X24.373 Y-11.388 E7.36386
G1 X24.274 Y-10.432 E7.39614
G1 X24.106 Y-9.439 E7.42998
G1 X23.939 Y-8.688 E7.45582
G1 X23.716 Y-8.014 E7.47967
G1 X23.361 Y-7.092 E7.51286
G1 X23.047 Y-6.39 E7.53869
G1 X22.813 Y-5.996 E7.55408
G1 X23.075 Y-5.52 E7.57234
G1 X23.41 Y-4.828 E7.59816
G1 X23.659 Y-4.146 E7.62255
G1 X23.958 Y-3.182 E7.65646
G1 X24.147 Y-2.437 E7.68228
G1 X24.274 Y-1.481 E7.71467
G1 X24.362 Y-.158 E7.75922
G1 X24.373 Y.611 E7.78505
G1 X24.274 Y1.567 E7.81734
G1 X24.106 Y2.56 E7.85117
G1 X23.939 Y3.311 E7.87701
G1 X23.716 Y3.985 E7.90086
G1 X23.361 Y4.907 E7.93405
G1 X23.047 Y5.609 E7.95989
G1 X22.813 Y6.003 E7.97528
G1 X23.075 Y6.479 E7.99353
G1 X23.41 Y7.171 E8.01936
G1 X23.659 Y7.853 E8.04375
G1 X23.958 Y8.817 E8.07765
G1 X24.147 Y9.562 E8.10347
G1 X24.274 Y10.518 E8.13587
G1 X24.362 Y11.842 E8.18044
G1 X24.373 Y12.611 E8.20628
G1 X24.274 Y13.567 E8.23857
G1 X24.106 Y14.56 E8.2724
G1 X23.939 Y15.311 E8.29824
G1 X23.716 Y15.985 E8.32209
G1 X23.361 Y16.907 E8.35528
G1 X23.047 Y17.609 E8.38111
G1 X22.561 Y18.429 E8.41313
G1 X21.805 Y19.533 E8.45808
G1 X21.338 Y20.144 E8.48392
G1 X20.81 Y20.704 E8.50977
G1 X20.478 Y21.002 E8.52476
G1 X19.459 Y21.864 E8.56959
G1 X18.847 Y22.329 E8.59541
G1 X18.241 Y22.701 E8.6193
G1 X17.66 Y23.02 E8.64157
G1 X16.968 Y23.354 E8.66738
G1 X16.529 Y23.523 E8.68318
G1 X15.574 Y23.855 E8.71715
G1 X14.835 Y24.069 E8.74299
G1 X14.118 Y24.201 E8.76748
G1 X13.124 Y24.333 E8.80117
G1 X12.357 Y24.394 E8.82701
G1 X11.402 Y24.359 E8.85911
G1 X10.083 Y24.225 E8.90365
G1 X9.323 Y24.108 E8.92948
G1 X8.395 Y23.85 E8.96184
G1 X7.44 Y23.517 E8.99581
G1 X6.727 Y23.227 E9.02167
G1 X6.007 Y22.829 E9.04931
G1 X5.66 Y23.02 E9.06261
G1 X4.968 Y23.354 E9.08843
G1 X4.529 Y23.523 E9.10423
G1 X3.574 Y23.855 E9.13819
G1 X2.835 Y24.069 E9.16404
G1 X2.118 Y24.201 E9.18853
G1 X1.124 Y24.333 E9.22221
G1 X.357 Y24.394 E9.24806
G1 X-.598 Y24.359 E9.28016
G1 X-1.916 Y24.225 E9.32467
G1 X-2.677 Y24.108 E9.35053
G1 X-3.604 Y23.85 E9.38285
G1 X-4.559 Y23.517 E9.41683
G1 X-5.272 Y23.227 E9.44269
G1 X-5.992 Y22.829 E9.47032
G1 X-6.339 Y23.02 E9.48363
G1 X-7.031 Y23.354 E9.50944
G1 X-7.47 Y23.523 E9.52524
G1 X-8.425 Y23.855 E9.55921
G1 X-9.164 Y24.069 E9.58505
G1 X-9.881 Y24.201 E9.60954
G1 X-10.875 Y24.333 E9.64323
G1 X-11.642 Y24.394 E9.66907
G1 X-12.597 Y24.359 E9.70118
G1 X-13.916 Y24.225 E9.74571
G1 X-14.676 Y24.108 E9.77155
G1 X-15.604 Y23.85 E9.8039
G1 X-16.559 Y23.517 E9.83788
G1 X-17.272 Y23.227 E9.86373
G1 X-18.115 Y22.761 E9.89609
G1 X-19.239 Y22.041 E9.94093
G1 X-19.864 Y21.593 E9.96676
G1 X-20.439 Y21.083 E9.99258
G1 X-20.75 Y20.758 E10.00769
G1 X-21.641 Y19.767 E10.05246
G1 X-22.125 Y19.169 E10.07831
G1 X-22.63 Y18.37 E10.11006
G1 X-23.101 Y17.509 E10.14303
G1 X-23.435 Y16.816 E10.16887
G1 X-23.674 Y16.16 E10.19232
G1 X-23.977 Y15.188 E10.22652
G1 X-24.167 Y14.443 E10.25235
G1 X-24.276 Y13.714 E10.27711
G1 X-24.374 Y12.722 E10.3106
G1 X-24.41 Y11.953 E10.33646
G1 X-24.372 Y11.242 E10.36038
G1 X-24.271 Y10.253 E10.39377
G1 X-24.153 Y9.493 E10.41961
G1 X-23.904 Y8.592 E10.45101
G1 X-23.47 Y7.334 E10.49572
G1 X-23.182 Y6.621 E10.52155
G1 X-22.836 Y5.993 E10.54563
G1 X-23.101 Y5.509 E10.56417
G1 X-23.435 Y4.816 E10.59001
G1 X-23.674 Y4.16 E10.61347
G1 X-23.977 Y3.188 E10.64767
G1 X-24.167 Y2.443 E10.6735
G1 X-24.276 Y1.714 E10.69826
G1 X-24.374 Y.722 E10.73174
G1 X-24.41 Y-.047 E10.75761
G1 X-24.372 Y-.759 E10.78156
G1 X-24.271 Y-1.747 E10.81492
G1 X-24.153 Y-2.507 E10.84076
G1 X-23.904 Y-3.407 E10.87213
G1 X-23.47 Y-4.665 E10.91683
G1 X-23.182 Y-5.378 E10.94266
G1 X-22.836 Y-6.006 E10.96675
G1 X-23.101 Y-6.49 E10.98528
G1 X-23.435 Y-7.183 E11.01113
G1 X-23.674 Y-7.839 E11.03458
G1 X-23.977 Y-8.811 E11.06878
G1 X-24.167 Y-9.556 E11.09461
G1 X-24.276 Y-10.286 E11.1194
G1 X-24.374 Y-11.279 E11.15292
G1 X-24.41 Y-12.048 E11.17879
G1 X-24.372 Y-12.759 E11.2027
G1 X-24.271 Y-13.747 E11.23607
G1 X-24.153 Y-14.507 E11.2619
G1 X-23.904 Y-15.407 E11.29327
G1 X-23.47 Y-16.665 E11.33798
G1 X-23.182 Y-17.378 E11.36381
G1 X-22.704 Y-18.246 E11.3971
G1 X-22.159 Y-19.096 E11.43101
G1 X-21.711 Y-19.721 E11.45685
G1 X-21.075 Y-20.421 E11.48862
G1 X-20.125 Y-21.34 E11.53302
G1 X-19.545 Y-21.845 E11.55885
G1 X-18.916 Y-22.287 E11.58468
G1 X-18.547 Y-22.505 E11.59908
G1 X-17.38 Y-23.147 E11.64382
G1 X-16.688 Y-23.482 E11.66965
G1 X-16.018 Y-23.727 E11.69361
G1 X-15.374 Y-23.928 E11.71627
G1 X-14.629 Y-24.119 E11.74211
G1 X-14.144 Y-24.199 E11.75862
G1 X-13.151 Y-24.331 E11.79227
G1 X-12.384 Y-24.393 E11.81812
G1 X-11.434 Y-24.359 E11.85006
G1 X-10.105 Y-24.225 E11.89493
G1 X-9.344 Y-24.108 E11.92079
G1 X-8.419 Y-23.852 E11.95303
G1 X-7.472 Y-23.523 E11.98671
G1 X-6.759 Y-23.233 E12.01257
G1 X-5.991 Y-22.811 E12.04201
G0 F3600 X-6.001 Y-22.348
G1 F1800 X-5.187 Y-22.796 E12.07322
G1 X-4.513 Y-23.121 E12.09835
G1 X-3.899 Y-23.345 E12.12031
G1 X-3.255 Y-23.546 E12.14297
G1 X-2.53 Y-23.73 E12.1681
G1 X-2.091 Y-23.803 E12.18305
G1 X-1.098 Y-23.935 E12.2167
G1 X-.353 Y-23.994 E12.24181
G1 X.527 Y-23.961 E12.27139
G1 X1.855 Y-23.827 E12.31623
G1 X2.594 Y-23.712 E12.34135
G1 X3.449 Y-23.474 E12.37116
G1 X4.396 Y-23.145 E12.40484
G1 X5.089 Y-22.862 E12.42999
G1 X5.861 Y-22.436 E12.45961
G1 X5.998 Y-22.348 E12.46508
G1 X6.812 Y-22.796 E12.49629
G1 X7.486 Y-23.121 E12.52142
G1 X8.1 Y-23.345 E12.54338
G1 X8.744 Y-23.546 E12.56604
G1 X9.469 Y-23.73 E12.59117
G1 X9.908 Y-23.803 E12.60612
G1 X10.901 Y-23.935 E12.63977
G1 X11.646 Y-23.994 E12.66488
G1 X12.525 Y-23.961 E12.69442
G1 X13.854 Y-23.827 E12.7393
G1 X14.593 Y-23.712 E12.76442
G1 X15.449 Y-23.474 E12.79427
G1 X16.396 Y-23.145 E12.82794
G1 X17.089 Y-22.862 E12.85309
G1 X17.861 Y-22.436 E12.88271
G1 X18.975 Y-21.726 E12.92709
G1 X19.584 Y-21.291 E12.95223
G1 X20.142 Y-20.793 E12.97735
G1 X20.406 Y-20.517 E12.99018
G1 X21.3 Y-19.528 E13.03497
G1 X21.771 Y-18.947 E13.06009
G1 X22.241 Y-18.207 E13.08954
G1 X22.725 Y-17.327 E13.12328
G1 X23.049 Y-16.654 E13.14837
G1 X23.277 Y-16.028 E13.17075
G1 X23.576 Y-15.064 E13.20466
G1 X23.759 Y-14.338 E13.22981
G1 X23.875 Y-13.454 E13.25976
G1 X23.963 Y-12.13 E13.30433
G1 X23.972 Y-11.382 E13.32946
G1 X23.88 Y-10.498 E13.35932
G1 X23.712 Y-9.505 E13.39315
G1 X23.548 Y-8.775 E13.41828
G1 X23.343 Y-8.158 E13.44012
G1 X22.988 Y-7.236 E13.47331
G1 X22.682 Y-6.553 E13.49845
G1 X22.354 Y-6.002 E13.52
G1 X22.725 Y-5.327 E13.54587
G1 X23.049 Y-4.654 E13.57096
G1 X23.277 Y-4.028 E13.59334
G1 X23.576 Y-3.064 E13.62725
G1 X23.759 Y-2.338 E13.6524
G1 X23.875 Y-1.455 E13.68232
G1 X23.963 Y-.132 E13.72686
G1 X23.972 Y.616 E13.75199
G1 X23.88 Y1.501 E13.78188
G1 X23.712 Y2.494 E13.81571
G1 X23.548 Y3.224 E13.84084
G1 X23.343 Y3.841 E13.86268
G1 X22.988 Y4.763 E13.89587
G1 X22.682 Y5.446 E13.92101
G1 X22.354 Y5.997 E13.94255
G1 X22.725 Y6.672 E13.96843
G1 X23.049 Y7.345 E13.99352
G1 X23.277 Y7.971 E14.0159
G1 X23.576 Y8.935 E14.0498
G1 X23.759 Y9.661 E14.07496
G1 X23.875 Y10.545 E14.10491
G1 X23.963 Y11.869 E14.14948
G1 X23.972 Y12.617 E14.17461
G1 X23.88 Y13.501 E14.20447
G1 X23.712 Y14.494 E14.2383
G1 X23.548 Y15.224 E14.26343
G1 X23.343 Y15.841 E14.28527
G1 X22.988 Y16.763 E14.31846
G1 X22.682 Y17.446 E14.3436
G1 X22.231 Y18.203 E14.3732
G1 X21.475 Y19.307 E14.41815
G1 X21.02 Y19.901 E14.44329
G1 X20.504 Y20.443 E14.46843
G1 X20.22 Y20.696 E14.4812
G1 X19.201 Y21.558 E14.52604
G1 X18.605 Y22.01 E14.55117
G1 X18.049 Y22.35 E14.57306
G1 X17.468 Y22.669 E14.59533
G1 X16.794 Y22.993 E14.62045
G1 X16.398 Y23.145 E14.6347
G1 X15.443 Y23.477 E14.66866
G1 X14.724 Y23.684 E14.6938
G1 X14.065 Y23.804 E14.7163
G1 X13.071 Y23.936 E14.74998
G1 X12.326 Y23.995 E14.77509
G1 X11.442 Y23.961 E14.8048
G1 X10.123 Y23.827 E14.84934
G1 X9.384 Y23.712 E14.87447
G1 X8.526 Y23.473 E14.90439
G1 X7.571 Y23.14 E14.93836
G1 X6.879 Y22.856 E14.96349
G1 X6.1 Y22.424 E14.99341
G1 X6.014 Y22.369 E14.99684
G1 X5.468 Y22.669 E15.01777
G1 X4.794 Y22.993 E15.04289
G1 X4.398 Y23.145 E15.05714
G1 X3.443 Y23.477 E15.0911
G1 X2.724 Y23.684 E15.11624
G1 X2.065 Y23.804 E15.13874
G1 X1.071 Y23.936 E15.17242
G1 X.326 Y23.995 E15.19753
G1 X-.558 Y23.961 E15.22725
G1 X-1.876 Y23.827 E15.27175
G1 X-2.615 Y23.712 E15.29687
G1 X-3.473 Y23.473 E15.32679
G1 X-4.428 Y23.14 E15.36077
G1 X-5.12 Y22.856 E15.3859
G1 X-5.899 Y22.424 E15.41582
G1 X-5.985 Y22.369 E15.41925
G1 X-6.531 Y22.669 E15.44018
G1 X-7.205 Y22.993 E15.4653
