; generated by PrusaSlicer 2.1.0+win64 on 2020-03-21 at 16:28:38 UTC

; 

; external perimeters extrusion width = 0.60mm
; perimeters extrusion width = 0.43mm
; infill extrusion width = 0.45mm
; solid infill extrusion width = 0.70mm
; top infill extrusion width = 0.43mm
; first layer extrusion width = 0.42mm

M73 P0 R216
M201 X9000 Y9000 Z500 E10000 ; sets maximum accelerations, mm/sec^2
M203 X500 Y500 Z12 E120 ; sets maximum feedrates, mm/sec
M204 P2000 R1500 T2000 ; sets acceleration (P, T) and retract acceleration (R), mm/sec^2
M205 X10.00 Y10.00 Z0.20 E2.50 ; sets the jerk limits, mm/sec
M205 S0 T0 ; sets the minimum extruding and travel feed rate, mm/sec
M107
M862.3 P "MK2SMM" ; printer model check
M862.1 P0.4 ; nozzle diameter check
M115 U3.2.3 ; tell printer latest fw version
M204 S2000 T1500 ; MK2 firmware only supports the old M204 format
; Start G-Code sequence START
T0
M104 S215 ; set extruder temp
M140 S60 ; set bed temp
M190 S60 ; wait for bed temp
M109 S215 ; wait for extruder temp
G21 ; set units to millimeters
G90 ; use absolute coordinates
M83 ; use relative distances for extrusion
G28 W
G80
G92 E0.0
M203 E100 ; set max feedrate
M92 E140 ; E-steps per filament milimeter

G1 Z0.250 F7200.000
G1 X50.0 E80.0 F1000.0
M73 P0 R216
G1 X160.0 E20.0 F1000.0
G1 Z0.200 F7200.000
G1 X220.0 E13 F1000.0
G1 X240.0 E0 F1000.0

G92 E0.0
G21 ; set units to millimeters
G90 ; use absolute coordinates
M83 ; use relative distances for extrusion
M900 K200 ; Filament gcode
;BEFORE_LAYER_CHANGE
G92 E0.0
;0.2


G1 E-4.00000 F4800.00000
G1 Z0.600 F10800.000
;AFTER_LAYER_CHANGE
;0.2
G1 X59.989 Y56.494
G1 Z0.200
G1 E4.00000 F3000.00000
M204 S1000
G1 F1200
G1 X60.336 Y56.021 E0.01839
G1 X60.797 Y55.657 E0.01839
G1 X61.337 Y55.429 E0.01839
G1 X61.915 Y55.353 E0.01828
G1 X172.945 Y56.686 E3.48150
G1 X173.687 Y56.829 E0.02372
G1 X174.337 Y57.217 E0.02372
G1 X174.895 Y57.959 E0.02911
G1 X175.045 Y58.405 E0.01475
G1 X175.095 Y58.869 E0.01464
G1 X175.095 Y151.137 E2.89300
G1 X174.957 Y151.892 E0.02405
G1 X174.565 Y152.555 E0.02417
G1 X174.049 Y152.993 E0.02123
G1 X173.423 Y153.253 E0.02123
G1 X171.345 Y153.337 E0.06521
G1 X61.924 Y154.647 E3.43106
G1 X61.154 Y154.512 E0.02451
G1 X60.481 Y154.116 E0.02451
G1 X60.039 Y153.593 E0.02146
G1 X59.781 Y152.963 E0.02134
G1 X59.594 Y150.373 E0.08143
G1 X59.594 Y59.614 E2.84570
G1 X59.739 Y57.268 E0.07369
G1 X59.971 Y56.551 E0.02364
G1 E-2.40000 F4800.00000
G1 F8640
G1 X60.336 Y56.021 E-0.33982
G1 X60.797 Y55.657 E-0.30962
G1 X61.337 Y55.429 E-0.30962
G1 X61.915 Y55.353 E-0.30771
G1 X62.395 Y55.359 E-0.25322
G1 E-0.08000 F4800.00000
G1 Z0.800 F10800.000
G1 X62.370 Y60.245
G1 Z0.200
G1 E4.00000 F3000.00000
G1 F1200
G1 X75.940 Y60.461 E0.42552
G1 X109.907 Y61.100 E1.06520
G1 X138.150 Y61.744 E0.88579
G1 X160.101 Y62.373 E0.68853
G1 X169.060 Y62.701 E0.28112
G1 X169.044 Y71.888 E0.28806
G1 X169.044 Y138.112 E2.07641
G1 X169.060 Y147.299 E0.28807
G1 X160.101 Y147.627 E0.28112
G1 X138.150 Y148.256 E0.68853
G1 X109.907 Y148.900 E0.88579
G1 X75.940 Y149.539 E1.06520
G1 X62.370 Y149.757 E0.42552
G1 X62.370 Y60.305 E2.80471
G1 X61.993 Y59.861 F10800.000
G1 F1200
G1 X75.946 Y60.084 E0.43755
G1 X109.914 Y60.723 E1.06524
G1 X138.160 Y61.367 E0.88585
G1 X160.113 Y61.996 E0.68861
G1 X169.438 Y62.337 E0.29258
G1 X169.421 Y71.888 E0.29947
G1 X169.421 Y138.112 E2.07638
M73 P0 R215
G1 X169.438 Y147.663 E0.29947
G1 X160.113 Y148.004 E0.29258
G1 X138.160 Y148.633 E0.68861
G1 X109.914 Y149.277 E0.88585
G1 X75.946 Y149.916 E1.06524
G1 X61.993 Y150.140 E0.43755
G1 X61.993 Y59.921 E2.82876
G1 X62.347 Y60.046 F10800.000
G1 E-2.40000 F4800.00000
G1 F8640
G1 X64.873 Y59.954 E-1.52000
G1 E-0.08000 F4800.00000
G1 Z0.800 F10800.000
G1 X63.234 Y149.630
G1 Z0.200
G1 E4.00000 F3000.00000
G1 F1200
G1 X62.653 Y149.048 E0.02584
G1 X62.653 Y148.514 E0.01678
G1 X63.593 Y149.454 E0.04177
G1 X64.119 Y149.446 E0.01651
G1 X62.653 Y147.979 E0.06513
G1 X62.653 Y147.445 E0.01678
G1 X64.645 Y149.437 E0.08848
G1 X65.170 Y149.429 E0.01651
G1 X62.653 Y146.911 E0.11183
G1 X62.653 Y146.377 E0.01678
G1 X65.696 Y149.420 E0.13518
G1 X66.222 Y149.412 E0.01651
G1 X62.653 Y145.843 E0.15853
G1 X62.653 Y145.309 E0.01678
G1 X66.747 Y149.403 E0.18188
G1 X67.273 Y149.395 E0.01651
G1 X62.653 Y144.774 E0.20523
G1 X62.653 Y144.240 E0.01678
G1 X67.799 Y149.387 E0.22858
G1 X68.325 Y149.378 E0.01651
G1 X62.653 Y143.706 E0.25193
G1 X62.653 Y143.172 E0.01678
G1 X68.850 Y149.370 E0.27529
G1 X69.376 Y149.361 E0.01651
G1 X62.653 Y142.638 E0.29864
G1 X62.653 Y142.104 E0.01678
G1 X69.902 Y149.353 E0.32199
G1 X70.428 Y149.344 E0.01651
G1 X62.653 Y141.569 E0.34534
G1 X62.653 Y141.035 E0.01678
G1 X70.953 Y149.336 E0.36869
G1 X71.479 Y149.327 E0.01651
G1 X62.653 Y140.501 E0.39204
G1 X62.653 Y139.967 E0.01678
G1 X72.005 Y149.319 E0.41539
G1 X72.530 Y149.311 E0.01651
G1 X62.653 Y139.433 E0.43874
G1 X62.653 Y138.899 E0.01678
G1 X73.056 Y149.302 E0.46209
G1 X73.582 Y149.294 E0.01651
G1 X62.653 Y138.364 E0.48545
G1 X62.653 Y137.830 E0.01678
G1 X74.108 Y149.285 E0.50880
G1 X74.633 Y149.277 E0.01651
G1 X62.653 Y137.296 E0.53215
G1 X62.653 Y136.762 E0.01678
G1 X75.159 Y149.268 E0.55550
G1 X75.685 Y149.260 E0.01651
G1 X62.653 Y136.228 E0.57885
G1 X62.653 Y135.693 E0.01678
G1 X76.210 Y149.251 E0.60217
G1 X76.734 Y149.241 E0.01647
G1 X62.653 Y135.159 E0.62546
G1 X62.653 Y134.625 E0.01678
G1 X77.258 Y149.231 E0.64874
G1 X77.783 Y149.221 E0.01647
G1 X62.653 Y134.091 E0.67203
G1 X62.653 Y133.557 E0.01678
G1 X78.307 Y149.211 E0.69532
G1 X78.831 Y149.201 E0.01647
G1 X62.653 Y133.023 E0.71861
G1 X62.653 Y132.488 E0.01678
G1 X79.356 Y149.192 E0.74190
G1 X79.880 Y149.182 E0.01647
G1 X62.653 Y131.954 E0.76519
G1 X62.653 Y131.420 E0.01678
G1 X80.404 Y149.172 E0.78847
G1 X80.929 Y149.162 E0.01647
G1 X62.653 Y130.886 E0.81176
G1 X62.653 Y130.352 E0.01678
G1 X81.453 Y149.152 E0.83505
G1 X81.977 Y149.142 E0.01647
G1 X62.653 Y129.818 E0.85834
G1 X62.653 Y129.283 E0.01678
G1 X82.502 Y149.132 E0.88163
G1 X83.026 Y149.122 E0.01647
G1 X62.653 Y128.749 E0.90491
G1 X62.653 Y128.215 E0.01678
G1 X83.550 Y149.113 E0.92820
G1 X84.074 Y149.103 E0.01647
G1 X62.653 Y127.681 E0.95149
G1 X62.653 Y127.147 E0.01678
G1 X84.599 Y149.093 E0.97478
G1 X85.123 Y149.083 E0.01647
G1 X62.653 Y126.613 E0.99807
G1 X62.653 Y126.078 E0.01678
G1 X85.647 Y149.073 E1.02135
G1 X86.172 Y149.063 E0.01647
G1 X62.653 Y125.544 E1.04464
G1 X62.653 Y125.010 E0.01678
G1 X86.696 Y149.053 E1.06793
G1 X87.220 Y149.044 E0.01647
G1 X62.653 Y124.476 E1.09122
G1 X62.653 Y123.942 E0.01678
G1 X87.745 Y149.034 E1.11451
G1 X88.269 Y149.024 E0.01647
G1 X62.653 Y123.407 E1.13780
G1 X62.653 Y122.873 E0.01678
G1 X88.793 Y149.014 E1.16108
M73 P0 R214
G1 X89.318 Y149.004 E0.01647
G1 X62.653 Y122.339 E1.18437
G1 X62.653 Y121.805 E0.01678
G1 X89.842 Y148.994 E1.20766
G1 X90.366 Y148.984 E0.01647
G1 X62.653 Y121.271 E1.23095
G1 X62.653 Y120.737 E0.01678
G1 X90.891 Y148.974 E1.25424
G1 X91.415 Y148.965 E0.01647
G1 X62.653 Y120.202 E1.27752
G1 X62.653 Y119.668 E0.01678
G1 X91.939 Y148.955 E1.30081
G1 X92.463 Y148.945 E0.01647
G1 X62.653 Y119.134 E1.32410
G1 X62.653 Y118.600 E0.01678
G1 X92.988 Y148.935 E1.34739
G1 X93.512 Y148.925 E0.01647
G1 X62.653 Y118.066 E1.37068
G1 X62.653 Y117.532 E0.01678
G1 X94.036 Y148.915 E1.39396
G1 X94.561 Y148.905 E0.01647
G1 X62.653 Y116.997 E1.41725
G1 X62.653 Y116.463 E0.01678
G1 X95.085 Y148.896 E1.44054
G1 X95.609 Y148.886 E0.01647
G1 X62.653 Y115.929 E1.46383
G1 X62.653 Y115.395 E0.01678
G1 X96.134 Y148.876 E1.48712
G1 X96.658 Y148.866 E0.01647
G1 X62.653 Y114.861 E1.51041
G1 X62.653 Y114.327 E0.01678
G1 X97.182 Y148.856 E1.53369
G1 X97.707 Y148.846 E0.01647
G1 X62.653 Y113.792 E1.55698
G1 X62.653 Y113.258 E0.01678
G1 X98.231 Y148.836 E1.58027
G1 X98.755 Y148.827 E0.01647
G1 X62.653 Y112.724 E1.60356
G1 X62.653 Y112.190 E0.01678
G1 X99.279 Y148.817 E1.62685
G1 X99.804 Y148.807 E0.01647
G1 X62.653 Y111.656 E1.65013
G1 X62.653 Y111.121 E0.01678
G1 X100.328 Y148.797 E1.67342
G1 X100.852 Y148.787 E0.01647
G1 X62.653 Y110.587 E1.69671
G1 X62.653 Y110.053 E0.01678
G1 X101.377 Y148.777 E1.72000
G1 X101.901 Y148.767 E0.01647
G1 X62.653 Y109.519 E1.74329
G1 X62.653 Y108.985 E0.01678
G1 X102.425 Y148.757 E1.76657
M73 P1 R213
G1 X102.950 Y148.748 E0.01647
G1 X62.653 Y108.451 E1.78986
G1 X62.653 Y107.916 E0.01678
G1 X103.474 Y148.738 E1.81315
G1 X103.998 Y148.728 E0.01647
G1 X62.653 Y107.382 E1.83644
G1 X62.653 Y106.848 E0.01678
G1 X104.523 Y148.718 E1.85973
G1 X105.047 Y148.708 E0.01647
G1 X62.653 Y106.314 E1.88302
G1 X62.653 Y105.780 E0.01678
G1 X105.571 Y148.698 E1.90630
G1 X106.095 Y148.688 E0.01647
G1 X62.653 Y105.246 E1.92959
G1 X62.653 Y104.711 E0.01678
G1 X106.620 Y148.679 E1.95288
G1 X107.144 Y148.669 E0.01647
G1 X62.653 Y104.177 E1.97617
G1 X62.653 Y103.643 E0.01678
G1 X107.668 Y148.659 E1.99946
G1 X108.193 Y148.649 E0.01647
G1 X62.653 Y103.109 E2.02274
G1 X62.653 Y102.575 E0.01678
G1 X108.717 Y148.639 E2.04603
G1 X109.241 Y148.629 E0.01647
G1 X62.653 Y102.041 E2.06932
G1 X62.653 Y101.506 E0.01678
G1 X109.766 Y148.619 E2.09261
G1 X110.288 Y148.608 E0.01642
G1 X62.653 Y100.972 E2.11583
G1 X62.653 Y100.438 E0.01678
G1 X110.811 Y148.596 E2.13903
G1 X111.333 Y148.584 E0.01641
G1 X62.653 Y99.904 E2.16223
G1 X62.653 Y99.370 E0.01678
G1 X111.855 Y148.572 E2.18542
G1 X112.378 Y148.560 E0.01641
G1 X62.653 Y98.835 E2.20862
M73 P1 R212
G1 X62.653 Y98.301 E0.01678
G1 X112.900 Y148.549 E2.23182
G1 X113.422 Y148.537 E0.01641
G1 X62.653 Y97.767 E2.25502
G1 X62.653 Y97.233 E0.01678
G1 X113.944 Y148.525 E2.27822
G1 X114.467 Y148.513 E0.01641
G1 X62.653 Y96.699 E2.30141
G1 X62.653 Y96.165 E0.01678
G1 X114.989 Y148.501 E2.32461
G1 X115.511 Y148.489 E0.01641
G1 X62.653 Y95.630 E2.34781
G1 X62.653 Y95.096 E0.01678
G1 X116.034 Y148.477 E2.37101
G1 X116.556 Y148.465 E0.01641
G1 X62.653 Y94.562 E2.39421
G1 X62.653 Y94.028 E0.01678
G1 X117.078 Y148.453 E2.41740
G1 X117.600 Y148.442 E0.01641
G1 X62.653 Y93.494 E2.44060
G1 X62.653 Y92.960 E0.01678
G1 X118.123 Y148.430 E2.46380
G1 X118.645 Y148.418 E0.01641
G1 X62.653 Y92.425 E2.48700
G1 X62.653 Y91.891 E0.01678
G1 X119.167 Y148.406 E2.51020
G1 X119.690 Y148.394 E0.01641
G1 X62.653 Y91.357 E2.53339
G1 X62.653 Y90.823 E0.01678
G1 X120.212 Y148.382 E2.55659
G1 X120.734 Y148.370 E0.01641
G1 X62.653 Y90.289 E2.57979
M73 P2 R211
G1 X62.653 Y89.755 E0.01678
G1 X121.256 Y148.358 E2.60299
G1 X121.779 Y148.346 E0.01641
G1 X62.653 Y89.220 E2.62619
G1 X62.653 Y88.686 E0.01678
G1 X122.301 Y148.334 E2.64938
G1 X122.823 Y148.323 E0.01641
G1 X62.653 Y88.152 E2.67258
G1 X62.653 Y87.618 E0.01678
G1 X123.345 Y148.311 E2.69578
G1 X123.868 Y148.299 E0.01641
G1 X62.653 Y87.084 E2.71898
G1 X62.653 Y86.549 E0.01678
G1 X124.390 Y148.287 E2.74218
G1 X124.912 Y148.275 E0.01641
G1 X62.653 Y86.015 E2.76537
G1 X62.653 Y85.481 E0.01678
G1 X125.435 Y148.263 E2.78857
G1 X125.957 Y148.251 E0.01641
G1 X62.653 Y84.947 E2.81177
G1 X62.653 Y84.413 E0.01678
G1 X126.479 Y148.239 E2.83497
G1 X127.001 Y148.227 E0.01641
G1 X62.653 Y83.879 E2.85817
G1 X62.653 Y83.344 E0.01678
G1 X127.524 Y148.216 E2.88136
G1 X128.046 Y148.204 E0.01641
G1 X62.653 Y82.810 E2.90456
M73 P2 R210
G1 X62.653 Y82.276 E0.01678
G1 X128.568 Y148.192 E2.92776
G1 X129.091 Y148.180 E0.01641
G1 X62.653 Y81.742 E2.95096
G1 X62.653 Y81.208 E0.01678
G1 X129.613 Y148.168 E2.97416
G1 X130.135 Y148.156 E0.01641
G1 X62.653 Y80.674 E2.99735
G1 X62.653 Y80.139 E0.01678
G1 X130.657 Y148.144 E3.02055
G1 X131.180 Y148.132 E0.01641
G1 X62.653 Y79.605 E3.04375
G1 X62.653 Y79.071 E0.01678
G1 X131.702 Y148.120 E3.06695
G1 X132.224 Y148.109 E0.01641
G1 X62.653 Y78.537 E3.09015
G1 X62.653 Y78.003 E0.01678
G1 X132.747 Y148.097 E3.11334
G1 X133.269 Y148.085 E0.01641
G1 X62.653 Y77.469 E3.13654
G1 X62.653 Y76.934 E0.01678
G1 X133.791 Y148.073 E3.15974
G1 X134.313 Y148.061 E0.01641
G1 X62.653 Y76.400 E3.18294
G1 X62.653 Y75.866 E0.01678
G1 X134.836 Y148.049 E3.20614
M73 P3 R209
G1 X135.358 Y148.037 E0.01641
G1 X62.653 Y75.332 E3.22933
G1 X62.653 Y74.798 E0.01678
G1 X135.880 Y148.025 E3.25253
G1 X136.403 Y148.013 E0.01641
G1 X62.653 Y74.263 E3.27573
G1 X62.653 Y73.729 E0.01678
G1 X136.925 Y148.001 E3.29893
G1 X137.447 Y147.990 E0.01641
G1 X62.653 Y73.195 E3.32213
G1 X62.653 Y72.661 E0.01678
G1 X137.969 Y147.978 E3.34532
G1 X138.490 Y147.964 E0.01635
G1 X62.653 Y72.127 E3.36843
G1 X62.653 Y71.593 E0.01678
G1 X139.009 Y147.949 E3.39150
G1 X139.528 Y147.934 E0.01632
G1 X62.653 Y71.058 E3.41456
G1 X62.653 Y70.524 E0.01678
G1 X140.047 Y147.919 E3.43763
G1 X140.567 Y147.904 E0.01632
G1 X62.653 Y69.990 E3.46069
G1 X62.653 Y69.456 E0.01678
G1 X141.086 Y147.889 E3.48376
M73 P3 R208
G1 X141.605 Y147.874 E0.01632
G1 X62.653 Y68.922 E3.50682
G1 X62.653 Y68.388 E0.01678
G1 X142.125 Y147.860 E3.52989
G1 X142.644 Y147.845 E0.01632
G1 X62.653 Y67.853 E3.55295
G1 X62.653 Y67.319 E0.01678
G1 X143.163 Y147.830 E3.57602
G1 X143.682 Y147.815 E0.01632
G1 X62.653 Y66.785 E3.59908
G1 X62.653 Y66.251 E0.01678
G1 X144.202 Y147.800 E3.62215
G1 X144.721 Y147.785 E0.01632
G1 X62.653 Y65.717 E3.64521
G1 X62.653 Y65.183 E0.01678
G1 X145.240 Y147.770 E3.66827
G1 X145.760 Y147.755 E0.01632
G1 X62.653 Y64.648 E3.69134
G1 X62.653 Y64.114 E0.01678
G1 X146.279 Y147.740 E3.71440
G1 X146.798 Y147.725 E0.01632
G1 X62.653 Y63.580 E3.73747
M73 P4 R207
G1 X62.653 Y63.046 E0.01678
G1 X147.317 Y147.711 E3.76053
G1 X147.837 Y147.696 E0.01632
G1 X62.653 Y62.512 E3.78360
G1 X62.653 Y61.977 E0.01678
G1 X148.356 Y147.681 E3.80666
G1 X148.875 Y147.666 E0.01632
G1 X62.653 Y61.443 E3.82973
G1 X62.653 Y60.909 E0.01678
G1 X149.394 Y147.651 E3.85279
G1 X149.914 Y147.636 E0.01632
G1 X62.812 Y60.534 E3.86877
G1 X63.355 Y60.543 E0.01705
G1 X150.433 Y147.621 E3.86773
G1 X150.952 Y147.606 E0.01632
G1 X63.898 Y60.552 E3.86668
G1 X64.441 Y60.560 E0.01705
G1 X151.472 Y147.591 E3.86563
G1 X151.991 Y147.577 E0.01632
G1 X64.983 Y60.569 E3.86459
M73 P4 R205
G1 X65.526 Y60.578 E0.01705
G1 X152.510 Y147.562 E3.86354
G1 X153.029 Y147.547 E0.01632
G1 X66.069 Y60.586 E3.86249
G1 X66.612 Y60.595 E0.01705
G1 X153.549 Y147.532 E3.86145
G1 X154.068 Y147.517 E0.01632
G1 X67.155 Y60.604 E3.86040
G1 X67.698 Y60.612 E0.01705
G1 X154.587 Y147.502 E3.85935
G1 X155.107 Y147.487 E0.01632
G1 X68.241 Y60.621 E3.85831
G1 X68.783 Y60.630 E0.01705
G1 X155.626 Y147.472 E3.85726
G1 X156.145 Y147.457 E0.01632
G1 X69.326 Y60.639 E3.85621
G1 X69.869 Y60.647 E0.01705
G1 X156.664 Y147.442 E3.85516
G1 X157.184 Y147.428 E0.01632
G1 X70.412 Y60.656 E3.85412
M73 P5 R204
G1 X70.955 Y60.665 E0.01705
G1 X157.703 Y147.413 E3.85307
G1 X158.222 Y147.398 E0.01632
G1 X71.498 Y60.673 E3.85202
G1 X72.040 Y60.682 E0.01705
G1 X158.742 Y147.383 E3.85098
G1 X159.261 Y147.368 E0.01632
G1 X72.583 Y60.691 E3.84993
G1 X73.126 Y60.699 E0.01705
G1 X159.780 Y147.353 E3.84888
G1 X160.298 Y147.337 E0.01627
G1 X73.669 Y60.708 E3.84777
G1 X74.212 Y60.717 E0.01705
G1 X160.813 Y147.318 E3.84654
G1 X161.328 Y147.299 E0.01620
G1 X74.755 Y60.725 E3.84532
G1 X75.298 Y60.734 E0.01705
G1 X161.844 Y147.280 E3.84410
G1 X162.359 Y147.261 E0.01620
G1 X75.840 Y60.743 E3.84288
M73 P5 R203
G1 X76.385 Y60.753 E0.01709
G1 X162.874 Y147.242 E3.84160
G1 X163.390 Y147.224 E0.01620
G1 X76.929 Y60.763 E3.84031
G1 X77.473 Y60.773 E0.01710
G1 X163.905 Y147.205 E3.83902
G1 X164.421 Y147.186 E0.01620
G1 X78.018 Y60.783 E3.83773
G1 X78.562 Y60.794 E0.01710
G1 X164.936 Y147.167 E3.83643
G1 X165.451 Y147.148 E0.01620
G1 X79.107 Y60.804 E3.83514
G1 X79.651 Y60.814 E0.01710
G1 X165.967 Y147.129 E3.83385
G1 X166.482 Y147.111 E0.01620
G1 X80.196 Y60.824 E3.83256
G1 X80.740 Y60.835 E0.01710
G1 X166.997 Y147.092 E3.83127
G1 X167.513 Y147.073 E0.01620
G1 X81.284 Y60.845 E3.82998
M73 P6 R202
G1 X81.829 Y60.855 E0.01710
G1 X168.028 Y147.054 E3.82868
G1 X168.543 Y147.035 E0.01620
G1 X82.373 Y60.865 E3.82739
G1 X82.918 Y60.875 E0.01710
G1 X168.777 Y146.735 E3.81358
G1 X168.776 Y146.199 E0.01681
G1 X83.462 Y60.886 E3.78936
G1 X84.006 Y60.896 E0.01710
G1 X168.775 Y145.664 E3.76513
G1 X168.774 Y145.129 E0.01681
G1 X84.551 Y60.906 E3.74091
G1 X85.095 Y60.916 E0.01710
G1 X168.773 Y144.594 E3.71669
G1 X168.772 Y144.059 E0.01681
