; generated by PrusaSlicer 2.1.0+win64 on 2020-03-21 at 16:41:41 UTC

; 

; external perimeters extrusion width = 0.60mm
; perimeters extrusion width = 0.43mm
; infill extrusion width = 0.45mm
; solid infill extrusion width = 0.70mm
; top infill extrusion width = 0.43mm
; first layer extrusion width = 0.42mm

M73 P0 R115
M201 X9000 Y9000 Z500 E10000 ; sets maximum accelerations, mm/sec^2
M203 X500 Y500 Z12 E120 ; sets maximum feedrates, mm/sec
M204 P2000 R1500 T2000 ; sets acceleration (P, T) and retract acceleration (R), mm/sec^2
M205 X10.00 Y10.00 Z0.20 E2.50 ; sets the jerk limits, mm/sec
M205 S0 T0 ; sets the minimum extruding and travel feed rate, mm/sec
M107
M862.3 P "MK2SMM" ; printer model check
M862.1 P0.4 ; nozzle diameter check
M115 U3.2.3 ; tell printer latest fw version
M204 S2000 T1500 ; MK2 firmware only supports the old M204 format
; Start G-Code sequence START
T0
M104 S255 ; set extruder temp
M140 S100 ; set bed temp
M190 S100 ; wait for bed temp
M109 S255 ; wait for extruder temp
G21 ; set units to millimeters
G90 ; use absolute coordinates
M83 ; use relative distances for extrusion
G28 W
G80
G92 E0.0
M203 E100 ; set max feedrate
M92 E140 ; E-steps per filament milimeter

G1 Z0.250 F7200.000
G1 X50.0 E80.0 F1000.0
M73 P0 R115
G1 X160.0 E20.0 F1000.0
G1 Z0.200 F7200.000
G1 X220.0 E13 F1000.0
G1 X240.0 E0 F1000.0

G92 E0.0
G21 ; set units to millimeters
G90 ; use absolute coordinates
M83 ; use relative distances for extrusion
M900 K200 ; Filament gcode
;BEFORE_LAYER_CHANGE
G92 E0.0
;0.2


G1 E-4.00000 F4800.00000
G1 Z0.600 F10800.000
;AFTER_LAYER_CHANGE
;0.2
G1 X63.439 Y43.466
G1 Z0.200
G1 E4.00000 F3000.00000
M204 S1000
G1 F1200
G1 X64.147 Y42.984 E0.02687
G1 X64.987 Y42.812 E0.02687
G1 X185.004 Y42.811 E3.76304
G1 X185.834 Y42.976 E0.02653
G1 X186.539 Y43.444 E0.02653
G1 X187.014 Y44.144 E0.02653
G1 X187.188 Y44.972 E0.02653
G1 X187.189 Y165.011 E3.76373
G1 X187.024 Y165.834 E0.02631
G1 X186.561 Y166.534 E0.02631
G1 X185.846 Y167.019 E0.02709
G1 X185.000 Y167.189 E0.02705
G1 X64.989 Y167.189 E3.76286
G1 X64.166 Y167.024 E0.02631
G1 X63.466 Y166.561 E0.02631
G1 X62.982 Y165.846 E0.02709
G1 X62.811 Y165.000 E0.02705
G1 X62.811 Y44.989 E3.76286
G1 X62.976 Y44.166 E0.02631
G1 X63.406 Y43.516 E0.02443
G1 E-2.40000 F4800.00000
G1 F8640
G1 X64.147 Y42.984 E-0.48173
G1 X64.987 Y42.812 E-0.45229
G1 X66.097 Y42.812 E-0.58598
G1 E-0.08000 F4800.00000
G1 Z0.800 F10800.000
G1 X177.240 Y157.393
G1 Z0.200
G1 E4.00000 F3000.00000
G1 F1200
G1 X177.672 Y157.009 E0.01814
G1 X178.169 Y156.712 E0.01814
G1 X178.712 Y156.512 E0.01816
G1 X179.288 Y156.418 E0.01829
G1 X179.848 Y156.431 E0.01755
G1 X180.160 Y156.483 E0.00994
G1 X180.699 Y156.653 E0.01771
G1 X181.209 Y156.926 E0.01814
G1 X181.659 Y157.290 E0.01814
G1 X182.033 Y157.731 E0.01814
G1 X182.319 Y158.235 E0.01814
G1 X182.505 Y158.782 E0.01814
G1 X182.586 Y159.355 E0.01814
G1 X182.559 Y159.933 E0.01814
G1 X182.428 Y160.483 E0.01771
G1 X182.312 Y160.778 E0.00994
G1 X182.033 Y161.269 E0.01771
G1 X181.659 Y161.710 E0.01814
G1 X181.209 Y162.074 E0.01814
G1 X180.699 Y162.348 E0.01814
G1 X180.147 Y162.521 E0.01814
G1 X179.572 Y162.589 E0.01814
G1 X178.995 Y162.548 E0.01816
G1 X178.431 Y162.399 E0.01829
G1 X177.926 Y162.157 E0.01755
G1 X177.662 Y161.982 E0.00994
G1 X177.240 Y161.607 E0.01771
G1 X176.887 Y161.148 E0.01814
G1 X176.625 Y160.632 E0.01814
G1 X176.465 Y160.076 E0.01814
G1 X176.410 Y159.500 E0.01814
G1 X176.465 Y158.924 E0.01814
G1 X176.625 Y158.368 E0.01814
G1 X176.887 Y157.852 E0.01814
G1 X177.203 Y157.441 E0.01626
G1 X177.502 Y157.671 F10800.000
G1 F1200
G1 X177.896 Y157.314 E0.01668
G1 X178.332 Y157.054 E0.01592
G1 X178.809 Y156.879 E0.01592
G1 X179.314 Y156.796 E0.01607
G1 X179.812 Y156.808 E0.01561
G1 X180.073 Y156.851 E0.00827
G1 X180.552 Y157.002 E0.01576
G1 X181.000 Y157.242 E0.01592
G1 X181.394 Y157.561 E0.01592
G1 X181.723 Y157.948 E0.01592
G1 X181.973 Y158.390 E0.01592
G1 X182.137 Y158.870 E0.01592
G1 X182.208 Y159.373 E0.01592
G1 X182.184 Y159.880 E0.01592
G1 X182.067 Y160.369 E0.01576
G1 X181.971 Y160.615 E0.00828
G1 X181.723 Y161.052 E0.01576
G1 X181.394 Y161.439 E0.01592
G1 X181.000 Y161.758 E0.01592
G1 X180.552 Y161.998 E0.01592
G1 X180.068 Y162.151 E0.01592
G1 X179.564 Y162.210 E0.01592
G1 X179.057 Y162.174 E0.01592
G1 X178.562 Y162.043 E0.01607
G1 X178.112 Y161.828 E0.01561
G1 X177.893 Y161.682 E0.00827
G1 X177.517 Y161.348 E0.01576
G1 X177.207 Y160.946 E0.01592
G1 X176.978 Y160.493 E0.01592
G1 X176.837 Y160.005 E0.01592
G1 X176.789 Y159.500 E0.01592
G1 X176.837 Y158.995 E0.01592
G1 X176.978 Y158.507 E0.01592
G1 X177.207 Y158.054 E0.01592
G1 X177.465 Y157.719 E0.01327
G1 X177.382 Y157.289 F10800.000
G1 E-2.40000 F4800.00000
G1 F8640
G1 X177.896 Y157.314 E-0.31190
G1 X178.332 Y157.054 E-0.26796
G1 X178.809 Y156.879 E-0.26803
G1 X179.314 Y156.796 E-0.27043
G1 X179.812 Y156.808 E-0.26280
G1 X180.072 Y156.851 E-0.13887
G1 E-0.08000 F4800.00000
G1 Z0.800 F10800.000
G1 X73.505 Y158.782
G1 Z0.200
G1 E4.00000 F3000.00000
G1 F1200
G1 X73.584 Y159.341 E0.01771
G1 X73.584 Y159.659 E0.00994
G1 X73.505 Y160.218 E0.01771
G1 X73.319 Y160.766 E0.01814
G1 X73.033 Y161.269 E0.01814
G1 X72.659 Y161.710 E0.01814
G1 X72.209 Y162.074 E0.01814
G1 X71.699 Y162.348 E0.01814
G1 X71.147 Y162.521 E0.01814
G1 X70.572 Y162.589 E0.01814
G1 X69.995 Y162.548 E0.01816
G1 X69.431 Y162.399 E0.01829
G1 X68.926 Y162.157 E0.01755
G1 X68.662 Y161.982 E0.00994
G1 X68.240 Y161.607 E0.01771
G1 X67.887 Y161.148 E0.01814
G1 X67.625 Y160.632 E0.01814
G1 X67.465 Y160.076 E0.01814
G1 X67.410 Y159.500 E0.01814
G1 X67.465 Y158.924 E0.01814
G1 X67.625 Y158.368 E0.01814
G1 X67.887 Y157.852 E0.01814
G1 X68.240 Y157.393 E0.01814
G1 X68.672 Y157.009 E0.01814
G1 X69.169 Y156.712 E0.01814
G1 X69.712 Y156.512 E0.01816
G1 X70.288 Y156.418 E0.01829
G1 X70.848 Y156.431 E0.01755
G1 X71.160 Y156.483 E0.00994
G1 X71.699 Y156.653 E0.01771
G1 X72.209 Y156.926 E0.01814
G1 X72.659 Y157.290 E0.01814
G1 X73.033 Y157.731 E0.01814
G1 X73.319 Y158.235 E0.01814
G1 X73.486 Y158.725 E0.01626
G1 X73.129 Y158.847 F10800.000
G1 F1200
G1 X73.207 Y159.368 E0.01652
G1 X73.207 Y159.632 E0.00828
G1 X73.137 Y160.130 E0.01576
G1 X72.973 Y160.610 E0.01592
G1 X72.723 Y161.052 E0.01592
G1 X72.394 Y161.439 E0.01592
G1 X71.999 Y161.758 E0.01592
G1 X71.552 Y161.998 E0.01592
G1 X71.068 Y162.151 E0.01592
G1 X70.564 Y162.210 E0.01592
G1 X70.057 Y162.174 E0.01592
G1 X69.562 Y162.043 E0.01607
G1 X69.112 Y161.828 E0.01561
G1 X68.893 Y161.682 E0.00827
G1 X68.517 Y161.348 E0.01576
G1 X68.207 Y160.946 E0.01592
G1 X67.978 Y160.493 E0.01592
G1 X67.837 Y160.005 E0.01592
G1 X67.789 Y159.500 E0.01592
G1 X67.837 Y158.995 E0.01592
G1 X67.978 Y158.507 E0.01592
G1 X68.207 Y158.054 E0.01592
G1 X68.517 Y157.652 E0.01592
G1 X68.896 Y157.314 E0.01592
G1 X69.332 Y157.054 E0.01592
G1 X69.809 Y156.879 E0.01592
G1 X70.314 Y156.796 E0.01607
G1 X70.812 Y156.808 E0.01561
G1 X71.072 Y156.851 E0.00827
G1 X71.552 Y157.002 E0.01576
G1 X71.999 Y157.242 E0.01592
G1 X72.394 Y157.561 E0.01592
G1 X72.723 Y157.948 E0.01592
G1 X72.973 Y158.390 E0.01592
G1 X73.110 Y158.790 E0.01327
G1 X73.513 Y158.959 F10800.000
G1 E-2.40000 F4800.00000
G1 F8640
G1 X73.207 Y159.368 E-0.30929
G1 X73.207 Y159.632 E-0.13930
G1 X73.137 Y160.130 E-0.26534
G1 X72.973 Y160.610 E-0.26796
G1 X72.723 Y161.052 E-0.26795
G1 X72.394 Y161.439 E-0.26796
G1 X72.391 Y161.442 E-0.00218
G1 E-0.08000 F4800.00000
G1 Z0.800 F10800.000
G1 X70.645 Y53.586
G1 Z0.200
G1 E4.00000 F3000.00000
G1 F1200
G1 X70.080 Y53.560 E0.01773
G1 X69.764 Y53.499 E0.01009
G1 X69.234 Y53.319 E0.01754
G1 X68.731 Y53.033 E0.01814
G1 X68.290 Y52.659 E0.01814
G1 X67.926 Y52.209 E0.01814
G1 X67.652 Y51.699 E0.01814
G1 X67.479 Y51.147 E0.01814
G1 X67.411 Y50.572 E0.01814
G1 X67.452 Y49.995 E0.01814
G1 X67.599 Y49.436 E0.01814
G1 X67.849 Y48.914 E0.01814
G1 X68.191 Y48.447 E0.01814
G1 X68.614 Y48.052 E0.01814
G1 X69.104 Y47.744 E0.01814
G1 X69.629 Y47.537 E0.01771
G1 X69.938 Y47.463 E0.00994
G1 X70.495 Y47.411 E0.01755
G1 X71.076 Y47.464 E0.01829
G1 X71.632 Y47.625 E0.01816
G1 X72.148 Y47.887 E0.01814
G1 X72.607 Y48.240 E0.01814
G1 X72.991 Y48.672 E0.01814
G1 X73.288 Y49.169 E0.01814
G1 X73.487 Y49.712 E0.01814
G1 X73.582 Y50.283 E0.01814
G1 X73.568 Y50.861 E0.01814
G1 X73.447 Y51.427 E0.01814
G1 X73.223 Y51.960 E0.01814
G1 X72.903 Y52.443 E0.01814
G1 X72.508 Y52.847 E0.01771
G1 X72.257 Y53.040 E0.00994
G1 X71.765 Y53.319 E0.01771
G1 X71.218 Y53.505 E0.01814
G1 X70.704 Y53.578 E0.01626
G1 X70.651 Y53.205 F10800.000
G1 F1200
G1 X70.125 Y53.184 E0.01653
G1 X69.861 Y53.134 E0.00842
G1 X69.390 Y52.973 E0.01561
G1 X68.948 Y52.723 E0.01592
G1 X68.561 Y52.394 E0.01592
G1 X68.242 Y51.999 E0.01592
G1 X68.002 Y51.552 E0.01592
G1 X67.849 Y51.068 E0.01592
G1 X67.790 Y50.564 E0.01592
G1 X67.825 Y50.057 E0.01592
G1 X67.955 Y49.566 E0.01592
G1 X68.174 Y49.108 E0.01592
G1 X68.474 Y48.699 E0.01592
G1 X68.845 Y48.353 E0.01592
G1 X69.275 Y48.082 E0.01592
G1 X69.743 Y47.897 E0.01576
G1 X69.999 Y47.836 E0.00827
G1 X70.495 Y47.789 E0.01561
G1 X71.005 Y47.837 E0.01607
G1 X71.493 Y47.978 E0.01592
G1 X71.946 Y48.207 E0.01592
G1 X72.348 Y48.517 E0.01592
G1 X72.686 Y48.896 E0.01592
G1 X72.946 Y49.332 E0.01592
G1 X73.121 Y49.809 E0.01592
G1 X73.204 Y50.309 E0.01592
G1 X73.192 Y50.817 E0.01592
G1 X73.086 Y51.314 E0.01592
G1 X72.889 Y51.781 E0.01592
G1 X72.608 Y52.204 E0.01592
G1 X72.257 Y52.564 E0.01576
G1 X72.048 Y52.725 E0.00828
G1 X71.610 Y52.973 E0.01576
G1 X71.130 Y53.137 E0.01592
G1 X70.711 Y53.196 E0.01327
G1 X70.470 Y53.561 F10800.000
G1 E-2.40000 F4800.00000
G1 F8640
G1 X70.125 Y53.184 E-0.30938
G1 X69.861 Y53.134 E-0.14180
G1 X69.390 Y52.973 E-0.26276
G1 X68.948 Y52.723 E-0.26793
G1 X68.561 Y52.394 E-0.26796
G1 X68.242 Y51.999 E-0.26795
G1 X68.240 Y51.996 E-0.00220
G1 E-0.08000 F4800.00000
G1 Z0.800 F10800.000
G1 X89.239 Y70.662
G1 Z0.200
G1 E4.00000 F3000.00000
G1 F1200
G1 X89.656 Y70.220 E0.01907
G1 X91.177 Y68.738 E0.06658
G1 X91.967 Y68.017 E0.03354
G1 X93.577 Y66.640 E0.06641
G1 X95.254 Y65.325 E0.06684
G1 X96.983 Y64.086 E0.06668
G1 X98.763 Y62.923 E0.06668
G1 X100.591 Y61.836 E0.06668
G1 X102.464 Y60.830 E0.06668
G1 X104.376 Y59.905 E0.06658
G1 X105.353 Y59.471 E0.03354
G1 X107.321 Y58.672 E0.06658
G1 X109.320 Y57.957 E0.06658
G1 X110.339 Y57.630 E0.03354
G1 X112.375 Y57.047 E0.06641
G1 X114.448 Y56.549 E0.06684
G1 X116.535 Y56.141 E0.06668
G1 X118.634 Y55.823 E0.06658
G1 X119.696 Y55.697 E0.03354
G1 X121.809 Y55.516 E0.06648
G1 X122.877 Y55.458 E0.03354
G1 X124.995 Y55.413 E0.06641
G1 X127.126 Y55.458 E0.06684
G1 X129.245 Y55.595 E0.06658
G1 X130.310 Y55.698 E0.03354
G1 X132.410 Y55.970 E0.06641
G1 X134.511 Y56.333 E0.06684
G1 X136.589 Y56.786 E0.06668
G1 X138.645 Y57.327 E0.06668
G1 X140.674 Y57.955 E0.06658
G1 X141.685 Y58.304 E0.03354
G1 X143.669 Y59.061 E0.06658
G1 X145.621 Y59.904 E0.06668
G1 X147.533 Y60.828 E0.06658
G1 X148.480 Y61.324 E0.03354
G1 X150.324 Y62.367 E0.06641
G1 X152.133 Y63.495 E0.06684
G1 X153.888 Y64.696 E0.06668
G1 X155.587 Y65.970 E0.06658
G1 X156.422 Y66.639 E0.03354
G1 X158.035 Y68.019 E0.06658
G1 X159.590 Y69.470 E0.06668
G1 X161.082 Y70.986 E0.06668
G1 X162.507 Y72.564 E0.06668
G1 X163.863 Y74.202 E0.06668
G1 X165.146 Y75.894 E0.06658
G1 X165.763 Y76.764 E0.03344
G1 X166.361 Y77.647 E0.03344
G1 X167.494 Y79.443 E0.06658
G1 X168.551 Y81.288 E0.06668
G1 X169.526 Y83.175 E0.06658
G1 X169.986 Y84.140 E0.03354
G1 X170.836 Y86.080 E0.06641
G1 X171.607 Y88.068 E0.06684
G1 X172.290 Y90.082 E0.06668
G1 X172.886 Y92.123 E0.06668
G1 X173.392 Y94.180 E0.06641
G1 X173.615 Y95.231 E0.03370
G1 X173.989 Y97.319 E0.06648
G1 X174.143 Y98.377 E0.03354
G1 X174.381 Y100.482 E0.06641
G1 X174.529 Y102.608 E0.06684
G1 X174.586 Y104.734 E0.06668
G1 X174.552 Y106.860 E0.06668
G1 X174.427 Y108.980 E0.06658
G1 X174.330 Y110.045 E0.03354
G1 X174.069 Y112.153 E0.06658
G1 X173.717 Y114.250 E0.06668
G1 X173.275 Y116.330 E0.06668
G1 X172.745 Y118.390 E0.06668
G1 X172.127 Y120.424 E0.06668
G1 X171.425 Y122.423 E0.06641
G1 X171.037 Y123.425 E0.03370
G1 X170.207 Y125.376 E0.06648
G1 X169.757 Y126.347 E0.03354
G1 X168.805 Y128.239 E0.06641
G1 X167.765 Y130.100 E0.06684
G1 X166.652 Y131.908 E0.06658
G1 X166.062 Y132.800 E0.03354
G1 X164.837 Y134.528 E0.06641
G1 X163.531 Y136.213 E0.06684
G1 X162.157 Y137.836 E0.06668
G1 X160.715 Y139.399 E0.06668
G1 X159.210 Y140.897 E0.06658
G1 X158.427 Y141.626 E0.03354
G1 X156.833 Y143.021 E0.06641
G1 X155.169 Y144.354 E0.06684
G1 X153.454 Y145.611 E0.06668
G1 X151.689 Y146.792 E0.06658
G1 X150.782 Y147.358 E0.03354
G1 X148.949 Y148.420 E0.06641
G1 X147.061 Y149.410 E0.06684
G1 X145.137 Y150.315 E0.06668
G1 X143.175 Y151.136 E0.06668
G1 X141.183 Y151.872 E0.06658
G1 X140.171 Y152.209 E0.03344
G1 X139.153 Y152.525 E0.03344
G1 X137.110 Y153.086 E0.06641
G1 X135.032 Y153.562 E0.06684
G1 X132.941 Y153.947 E0.06668
G1 X130.835 Y154.243 E0.06668
G1 X128.721 Y154.447 E0.06658
G1 X127.654 Y154.516 E0.03354
G1 X125.532 Y154.584 E0.06658
G1 X123.405 Y154.562 E0.06668
G1 X121.282 Y154.448 E0.06668
G1 X119.168 Y154.243 E0.06658
G1 X118.107 Y154.106 E0.03354
G1 X116.011 Y153.766 E0.06658
G1 X113.932 Y153.336 E0.06658
G1 X112.892 Y153.086 E0.03354
G1 X110.849 Y152.525 E0.06641
G1 X108.820 Y151.873 E0.06684
G1 X106.825 Y151.136 E0.06668
G1 X104.863 Y150.315 E0.06668
G1 X102.939 Y149.410 E0.06668
G1 X101.058 Y148.424 E0.06658
G1 X100.127 Y147.898 E0.03354
G1 X98.316 Y146.795 E0.06648
G1 X97.421 Y146.210 E0.03354
G1 X95.686 Y144.995 E0.06641
G1 X93.994 Y143.698 E0.06684
G1 X92.366 Y142.335 E0.06658
G1 X91.568 Y141.622 E0.03354
G1 X90.034 Y140.161 E0.06641
G1 X88.555 Y138.626 E0.06684
G1 X87.147 Y137.032 E0.06668
G1 X85.811 Y135.382 E0.06658
G1 X85.164 Y134.530 E0.03354
G1 X83.937 Y132.797 E0.06658
M73 P0 R114
G1 X82.783 Y131.011 E0.06668
G1 X81.706 Y129.177 E0.06668
G1 X80.709 Y127.299 E0.06668
G1 X79.798 Y125.387 E0.06641
G1 X79.366 Y124.402 E0.03370
G1 X78.577 Y122.431 E0.06658
G1 X77.874 Y120.427 E0.06658
G1 X77.552 Y119.407 E0.03354
G1 X76.979 Y117.363 E0.06658
G1 X76.493 Y115.292 E0.06668
G1 X76.096 Y113.203 E0.06668
G1 X75.789 Y111.099 E0.06668
G1 X75.573 Y108.986 E0.06658
G1 X75.499 Y107.919 E0.03354
G1 X75.419 Y105.797 E0.06658
G1 X75.431 Y103.674 E0.06658
G1 X75.471 Y102.605 E0.03354
G1 X75.619 Y100.487 E0.06658
G1 X75.857 Y98.374 E0.06668
G1 X76.187 Y96.273 E0.06668
G1 X76.606 Y94.188 E0.06668
G1 X77.112 Y92.131 E0.06641
G1 X77.402 Y91.096 E0.03370
G1 X78.040 Y89.074 E0.06648
G1 X78.394 Y88.065 E0.03354
G1 X79.160 Y86.090 E0.06641
G1 X80.015 Y84.137 E0.06684
G1 X80.950 Y82.231 E0.06658
G1 X81.451 Y81.286 E0.03354
G1 X82.506 Y79.443 E0.06658
G1 X83.641 Y77.645 E0.06668
G1 X84.850 Y75.899 E0.06658
G1 X85.487 Y75.040 E0.03354
G1 X86.803 Y73.380 E0.06641
G1 X88.197 Y71.767 E0.06684
G1 X89.197 Y70.706 E0.04573
G1 X89.472 Y70.965 F10800.000
G1 F1200
G1 X89.925 Y70.484 E0.02070
G1 X91.436 Y69.013 E0.06613
G1 X92.217 Y68.300 E0.03316
G1 X93.816 Y66.932 E0.06597
G1 X95.481 Y65.627 E0.06633
G1 X97.196 Y64.397 E0.06617
G1 X98.962 Y63.243 E0.06617
G1 X100.777 Y62.165 E0.06617
G1 X102.636 Y61.166 E0.06617
G1 X104.535 Y60.247 E0.06613
G1 X105.501 Y59.818 E0.03316
G1 X107.455 Y59.024 E0.06613
G1 X109.441 Y58.314 E0.06613
G1 X110.448 Y57.991 E0.03316
G1 X112.471 Y57.412 E0.06597
G1 X114.528 Y56.917 E0.06633
G1 X116.599 Y56.512 E0.06617
G1 X118.685 Y56.197 E0.06613
G1 X119.735 Y56.072 E0.03316
G1 X121.835 Y55.892 E0.06610
G1 X122.891 Y55.835 E0.03316
G1 X124.995 Y55.790 E0.06597
G1 X127.110 Y55.835 E0.06633
G1 X129.215 Y55.971 E0.06613
G1 X130.267 Y56.073 E0.03316
G1 X132.354 Y56.343 E0.06597
G1 X134.439 Y56.704 E0.06633
G1 X136.501 Y57.153 E0.06617
G1 X138.542 Y57.690 E0.06617
G1 X140.557 Y58.314 E0.06613
G1 X141.556 Y58.659 E0.03316
G1 X143.527 Y59.411 E0.06613
G1 X145.464 Y60.247 E0.06617
G1 X147.363 Y61.165 E0.06613
G1 X148.300 Y61.656 E0.03316
G1 X150.132 Y62.691 E0.06597
G1 X151.927 Y63.811 E0.06633
G1 X153.668 Y65.003 E0.06617
G1 X155.356 Y66.268 E0.06613
G1 X156.181 Y66.929 E0.03316
G1 X157.784 Y68.301 E0.06613
G1 X159.327 Y69.740 E0.06617
G1 X160.807 Y71.244 E0.06617
G1 X162.222 Y72.811 E0.06617
