; generated by PrusaSlicer 2.1.1+win64 on 2020-03-22 at 20:14:05 UTC

; 

; external perimeters extrusion width = 0.60mm
; perimeters extrusion width = 0.43mm
; infill extrusion width = 0.45mm
; solid infill extrusion width = 0.70mm
; top infill extrusion width = 0.43mm
; first layer extrusion width = 0.42mm

M73 P0 R215
M201 X9000 Y9000 Z500 E10000 ; sets maximum accelerations, mm/sec^2
M203 X500 Y500 Z12 E120 ; sets maximum feedrates, mm/sec
M204 P2000 R1500 T2000 ; sets acceleration (P, T) and retract acceleration (R), mm/sec^2
M205 X10.00 Y10.00 Z0.20 E2.50 ; sets the jerk limits, mm/sec
M205 S0 T0 ; sets the minimum extruding and travel feed rate, mm/sec
M107
M862.3 P "MK2SMM" ; printer model check
M862.1 P0.4 ; nozzle diameter check
M115 U3.2.3 ; tell printer latest fw version
M204 S2000 T1500 ; MK2 firmware only supports the old M204 format
; Start G-Code sequence START
T0
M104 S215 ; set extruder temp
M140 S60 ; set bed temp
M190 S60 ; wait for bed temp
M109 S215 ; wait for extruder temp
G90 ; use absolute coordinates
M83 ; use relative distances for extrusion
G28 W
G80
G92 E0.0
M203 E100 ; set max feedrate
M92 E140 ; E-steps per filament milimeter

G1 Z0.250 F7200.000
G1 X50.0 E80.0 F1000.0
M73 P0 R215
G1 X160.0 E20.0 F1000.0
G1 Z0.200 F7200.000
G1 X220.0 E13 F1000.0
G1 X240.0 E0 F1000.0

G92 E0.0
G21 ; set units to millimeters
G90 ; use absolute coordinates
M83 ; use relative distances for extrusion
M900 K200 ; Filament gcode
;BEFORE_LAYER_CHANGE
G92 E0.0
;0.2


G1 Z0.200 F10800.000
;AFTER_LAYER_CHANGE
;0.2
G1 E-4.00000 F4800.00000
G1 Z0.800 F10800.000
G1 X55.613 Y10.010
G1 Z0.200
G1 E4.00000 F3000.00000
M204 S1000
G1 F1200
G1 X56.392 Y9.864 E0.02484
G1 X229.903 Y9.864 E5.44031
G1 X230.732 Y10.029 E0.02653
G1 X231.438 Y10.497 E0.02653
G1 X231.913 Y11.197 E0.02653
G1 X232.087 Y12.021 E0.02642
G1 X232.051 Y162.449 E4.71655
G1 X231.837 Y163.069 E0.02055
G1 X231.450 Y163.597 E0.02055
G1 X195.063 Y199.576 E1.60444
G1 X194.387 Y199.990 E0.02484
G1 X193.608 Y200.136 E0.02484
G1 X20.097 Y200.136 E5.44031
G1 X19.207 Y199.945 E0.02855
G1 X18.471 Y199.408 E0.02855
G1 X18.058 Y198.732 E0.02484
G1 X17.913 Y197.953 E0.02484
G1 X17.952 Y47.533 E4.71631
G1 X18.166 Y46.925 E0.02021
G1 X18.550 Y46.403 E0.02032
G1 X54.937 Y10.424 E1.60444
G1 X55.562 Y10.042 E0.02296
G1 E-2.40000 F4800.00000
G1 F8640
G1 X56.392 Y9.864 E-0.44792
G1 X58.423 Y9.864 E-1.07208
G1 E-0.08000 F4800.00000
G1 Z0.800 F10800.000
G1 X43.889 Y174.365
G1 Z0.200
G1 E4.00000 F3000.00000
G1 F1200
G1 X44.449 Y174.378 E0.01755
G1 X44.761 Y174.430 E0.00994
G1 X45.300 Y174.600 E0.01771
G1 X45.810 Y174.873 E0.01814
G1 X46.260 Y175.237 E0.01814
G1 X46.634 Y175.678 E0.01814
G1 X46.920 Y176.182 E0.01814
G1 X47.106 Y176.729 E0.01814
G1 X47.187 Y177.302 E0.01814
G1 X47.160 Y177.880 E0.01814
G1 X47.026 Y178.443 E0.01814
G1 X46.789 Y178.971 E0.01814
G1 X46.458 Y179.445 E0.01814
G1 X46.054 Y179.840 E0.01771
G1 X45.798 Y180.028 E0.00994
G1 X45.300 Y180.295 E0.01771
G1 X44.748 Y180.468 E0.01814
G1 X44.174 Y180.536 E0.01814
G1 X43.596 Y180.495 E0.01814
G1 X43.037 Y180.348 E0.01814
G1 X42.515 Y180.098 E0.01814
G1 X42.048 Y179.756 E0.01814
G1 X41.653 Y179.332 E0.01816
G1 X41.343 Y178.839 E0.01829
G1 X41.138 Y178.318 E0.01755
G1 X41.064 Y178.009 E0.00994
G1 X41.011 Y177.447 E0.01771
G1 X41.066 Y176.871 E0.01814
G1 X41.226 Y176.315 E0.01814
G1 X41.488 Y175.799 E0.01814
G1 X41.841 Y175.341 E0.01814
G1 X42.273 Y174.956 E0.01814
G1 X42.770 Y174.659 E0.01814
G1 X43.314 Y174.460 E0.01816
G1 X43.830 Y174.375 E0.01641
G1 X43.891 Y174.747 F10800.000
G1 F1200
G1 X44.413 Y174.755 E0.01637
G1 X44.674 Y174.798 E0.00827
G1 X45.153 Y174.949 E0.01576
G1 X45.601 Y175.189 E0.01592
G1 X45.995 Y175.508 E0.01592
G1 X46.324 Y175.895 E0.01592
G1 X46.574 Y176.337 E0.01592
G1 X46.738 Y176.817 E0.01592
G1 X46.809 Y177.320 E0.01592
G1 X46.785 Y177.827 E0.01592
G1 X46.667 Y178.321 E0.01592
G1 X46.459 Y178.784 E0.01592
G1 X46.169 Y179.200 E0.01592
G1 X45.809 Y179.552 E0.01576
G1 X45.596 Y179.708 E0.00828
G1 X45.153 Y179.946 E0.01576
G1 X44.669 Y180.098 E0.01592
G1 X44.165 Y180.157 E0.01592
G1 X43.658 Y180.122 E0.01592
G1 X43.167 Y179.992 E0.01592
G1 X42.709 Y179.773 E0.01592
G1 X42.300 Y179.473 E0.01592
G1 X41.954 Y179.102 E0.01592
G1 X41.681 Y178.668 E0.01607
G1 X41.499 Y178.204 E0.01561
G1 X41.437 Y177.948 E0.00827
G1 X41.390 Y177.447 E0.01576
G1 X41.438 Y176.942 E0.01592
G1 X41.579 Y176.454 E0.01592
G1 X41.808 Y176.001 E0.01592
G1 X42.118 Y175.599 E0.01592
G1 X42.497 Y175.261 E0.01592
G1 X42.933 Y175.001 E0.01592
G1 X43.410 Y174.826 E0.01592
G1 X43.832 Y174.757 E0.01341
G1 X44.064 Y174.386 F10800.000
G1 E-2.40000 F4800.00000
G1 F8640
G1 X44.413 Y174.755 E-0.30684
G1 X44.674 Y174.798 E-0.13928
G1 X45.153 Y174.949 E-0.26533
G1 X45.601 Y175.189 E-0.26796
G1 X45.995 Y175.508 E-0.26796
G1 X46.324 Y175.895 E-0.26796
G1 X46.328 Y175.903 E-0.00467
G1 E-0.08000 F4800.00000
G1 Z0.800 F10800.000
G1 X150.011 Y177.447
G1 Z0.200
G1 E4.00000 F3000.00000
G1 F1200
G1 X150.066 Y176.871 E0.01814
G1 X150.226 Y176.315 E0.01814
G1 X150.488 Y175.799 E0.01814
G1 X150.841 Y175.341 E0.01814
G1 X151.273 Y174.956 E0.01814
G1 X151.770 Y174.659 E0.01814
G1 X152.314 Y174.460 E0.01816
G1 X152.889 Y174.365 E0.01829
G1 X153.449 Y174.378 E0.01755
G1 X153.761 Y174.430 E0.00994
G1 X154.300 Y174.600 E0.01771
G1 X154.810 Y174.873 E0.01814
G1 X155.260 Y175.237 E0.01814
G1 X155.634 Y175.678 E0.01814
G1 X155.920 Y176.182 E0.01814
G1 X156.106 Y176.729 E0.01814
G1 X156.187 Y177.302 E0.01814
G1 X156.160 Y177.880 E0.01814
G1 X156.026 Y178.443 E0.01814
G1 X155.789 Y178.971 E0.01814
G1 X155.458 Y179.445 E0.01814
G1 X155.043 Y179.850 E0.01816
G1 X154.557 Y180.172 E0.01829
G1 X154.041 Y180.389 E0.01755
G1 X153.734 Y180.470 E0.00994
G1 X153.174 Y180.536 E0.01771
G1 X152.596 Y180.495 E0.01814
G1 X152.037 Y180.348 E0.01814
G1 X151.515 Y180.098 E0.01814
G1 X151.048 Y179.756 E0.01814
G1 X150.654 Y179.333 E0.01814
G1 X150.352 Y178.855 E0.01771
G1 X150.222 Y178.566 E0.00994
G1 X150.066 Y178.023 E0.01771
G1 X150.017 Y177.507 E0.01626
G1 X150.393 Y177.472 F10800.000
G1 F1200
G1 X150.438 Y176.942 E0.01668
G1 X150.579 Y176.454 E0.01592
G1 X150.808 Y176.001 E0.01592
G1 X151.118 Y175.599 E0.01592
G1 X151.497 Y175.261 E0.01592
G1 X151.933 Y175.001 E0.01592
G1 X152.410 Y174.826 E0.01592
G1 X152.916 Y174.743 E0.01607
G1 X153.413 Y174.755 E0.01561
G1 X153.674 Y174.798 E0.00827
G1 X154.153 Y174.949 E0.01576
G1 X154.601 Y175.189 E0.01592
G1 X154.995 Y175.508 E0.01592
G1 X155.324 Y175.895 E0.01592
G1 X155.574 Y176.337 E0.01592
G1 X155.738 Y176.817 E0.01592
G1 X155.809 Y177.320 E0.01592
G1 X155.785 Y177.827 E0.01592
G1 X155.667 Y178.321 E0.01592
G1 X155.459 Y178.784 E0.01592
G1 X155.169 Y179.200 E0.01592
G1 X154.805 Y179.555 E0.01592
G1 X154.378 Y179.838 E0.01607
G1 X153.919 Y180.031 E0.01561
G1 X153.664 Y180.099 E0.00827
G1 X153.165 Y180.157 E0.01576
G1 X152.658 Y180.122 E0.01592
G1 X152.167 Y179.992 E0.01592
G1 X151.709 Y179.773 E0.01592
G1 X151.300 Y179.473 E0.01592
G1 X150.954 Y179.102 E0.01592
G1 X150.685 Y178.676 E0.01576
G1 X150.577 Y178.436 E0.00828
G1 X150.438 Y177.953 E0.01576
G1 X150.398 Y177.531 E0.01327
G1 X150.045 Y177.274 F10800.000
G1 E-2.40000 F4800.00000
G1 F8640
G1 X150.438 Y176.942 E-0.31191
G1 X150.579 Y176.454 E-0.26796
G1 X150.808 Y176.001 E-0.26796
G1 X151.118 Y175.599 E-0.26795
G1 X151.497 Y175.261 E-0.26795
G1 X151.719 Y175.129 E-0.13627
G1 E-0.08000 F4800.00000
G1 Z0.800 F10800.000
G1 X153.246 Y71.533
G1 Z0.200
G1 E4.00000 F3000.00000
G1 F1200
G1 X152.682 Y71.507 E0.01771
G1 X152.370 Y71.448 E0.00994
G1 X151.836 Y71.266 E0.01771
G1 X151.332 Y70.980 E0.01814
G1 X150.891 Y70.606 E0.01814
G1 X150.527 Y70.156 E0.01814
G1 X150.254 Y69.646 E0.01814
G1 X150.080 Y69.094 E0.01814
G1 X150.012 Y68.520 E0.01814
G1 X150.053 Y67.942 E0.01814
G1 X150.201 Y67.383 E0.01814
G1 X150.450 Y66.861 E0.01814
G1 X150.792 Y66.394 E0.01814
G1 X151.215 Y66.000 E0.01814
G1 X151.705 Y65.691 E0.01814
G1 X152.230 Y65.484 E0.01771
G1 X152.539 Y65.410 E0.00994
G1 X153.096 Y65.358 E0.01755
G1 X153.677 Y65.412 E0.01829
G1 X154.233 Y65.572 E0.01816
G1 X154.749 Y65.834 E0.01814
G1 X155.208 Y66.187 E0.01814
G1 X155.592 Y66.619 E0.01814
G1 X155.889 Y67.116 E0.01814
G1 X156.089 Y67.659 E0.01814
G1 X156.183 Y68.230 E0.01814
G1 X156.170 Y68.808 E0.01814
G1 X156.048 Y69.374 E0.01814
G1 X155.824 Y69.908 E0.01814
G1 X155.504 Y70.390 E0.01814
G1 X155.099 Y70.804 E0.01816
G1 X154.620 Y71.137 E0.01829
G1 X154.110 Y71.366 E0.01755
G1 X153.805 Y71.454 E0.00994
G1 X153.305 Y71.525 E0.01583
G1 X153.252 Y71.152 F10800.000
G1 F1200
G1 X152.726 Y71.132 E0.01652
G1 X152.467 Y71.082 E0.00828
G1 X151.991 Y70.920 E0.01576
G1 X151.549 Y70.670 E0.01592
G1 X151.162 Y70.341 E0.01592
G1 X150.843 Y69.947 E0.01592
G1 X150.603 Y69.499 E0.01592
G1 X150.450 Y69.015 E0.01592
G1 X150.391 Y68.511 E0.01592
G1 X150.427 Y68.004 E0.01592
G1 X150.556 Y67.513 E0.01592
G1 X150.775 Y67.055 E0.01592
G1 X151.075 Y66.646 E0.01592
M73 P0 R214
G1 X151.447 Y66.300 E0.01592
G1 X151.876 Y66.029 E0.01592
G1 X152.344 Y65.845 E0.01576
G1 X152.601 Y65.783 E0.00827
G1 X153.096 Y65.736 E0.01561
G1 X153.606 Y65.784 E0.01607
G1 X154.094 Y65.925 E0.01592
G1 X154.547 Y66.154 E0.01592
G1 X154.949 Y66.464 E0.01592
G1 X155.287 Y66.843 E0.01592
G1 X155.548 Y67.279 E0.01592
G1 X155.722 Y67.756 E0.01592
G1 X155.805 Y68.257 E0.01592
G1 X155.793 Y68.764 E0.01592
G1 X155.687 Y69.261 E0.01592
G1 X155.490 Y69.729 E0.01592
G1 X155.209 Y70.152 E0.01592
G1 X154.854 Y70.515 E0.01592
G1 X154.434 Y70.808 E0.01607
G1 X153.980 Y71.011 E0.01561
G1 X153.726 Y71.085 E0.00827
G1 X153.312 Y71.143 E0.01311
G1 X153.066 Y71.505 F10800.000
G1 E-2.40000 F4800.00000
G1 F8640
G1 X152.726 Y71.132 E-0.30928
G1 X152.467 Y71.082 E-0.13931
G1 X151.991 Y70.920 E-0.26534
G1 X151.549 Y70.670 E-0.26795
G1 X151.162 Y70.341 E-0.26796
G1 X150.843 Y69.947 E-0.26795
G1 X150.841 Y69.943 E-0.00219
G1 E-0.08000 F4800.00000
G1 Z0.800 F10800.000
G1 X47.170 Y68.808
G1 Z0.200
G1 E4.00000 F3000.00000
G1 F1200
G1 X47.048 Y69.374 E0.01814
G1 X46.824 Y69.908 E0.01814
G1 X46.504 Y70.390 E0.01814
G1 X46.099 Y70.804 E0.01814
G1 X45.625 Y71.135 E0.01814
G1 X45.110 Y71.366 E0.01771
G1 X44.805 Y71.454 E0.00994
G1 X44.246 Y71.533 E0.01771
G1 X43.668 Y71.506 E0.01816
G1 X43.100 Y71.370 E0.01829
G1 X42.590 Y71.140 E0.01755
G1 X42.322 Y70.971 E0.00994
G1 X41.891 Y70.606 E0.01771
G1 X41.527 Y70.156 E0.01814
G1 X41.254 Y69.646 E0.01814
G1 X41.080 Y69.094 E0.01814
G1 X41.012 Y68.520 E0.01814
G1 X41.053 Y67.942 E0.01814
G1 X41.201 Y67.383 E0.01814
G1 X41.450 Y66.861 E0.01814
G1 X41.792 Y66.394 E0.01814
G1 X42.215 Y66.000 E0.01814
G1 X42.705 Y65.691 E0.01814
G1 X43.230 Y65.484 E0.01771
G1 X43.539 Y65.410 E0.00994
G1 X44.096 Y65.358 E0.01755
G1 X44.677 Y65.412 E0.01829
G1 X45.233 Y65.572 E0.01816
G1 X45.749 Y65.834 E0.01814
G1 X46.208 Y66.187 E0.01814
G1 X46.592 Y66.619 E0.01814
G1 X46.889 Y67.116 E0.01814
G1 X47.089 Y67.659 E0.01814
G1 X47.183 Y68.230 E0.01814
G1 X47.171 Y68.749 E0.01626
G1 X46.794 Y68.740 F10800.000
G1 F1200
G1 X46.687 Y69.261 E0.01668
G1 X46.490 Y69.729 E0.01592
G1 X46.209 Y70.152 E0.01592
G1 X45.854 Y70.515 E0.01592
G1 X45.438 Y70.805 E0.01592
G1 X44.980 Y71.011 E0.01576
G1 X44.726 Y71.085 E0.00828
G1 X44.228 Y71.155 E0.01576
G1 X43.721 Y71.131 E0.01592
G1 X43.223 Y71.012 E0.01607
G1 X42.769 Y70.807 E0.01561
G1 X42.545 Y70.667 E0.00827
G1 X42.162 Y70.341 E0.01576
G1 X41.843 Y69.947 E0.01592
G1 X41.603 Y69.499 E0.01592
G1 X41.450 Y69.015 E0.01592
G1 X41.391 Y68.511 E0.01592
G1 X41.427 Y68.004 E0.01592
G1 X41.556 Y67.513 E0.01592
G1 X41.775 Y67.055 E0.01592
G1 X42.075 Y66.646 E0.01592
G1 X42.447 Y66.300 E0.01592
G1 X42.876 Y66.029 E0.01592
G1 X43.344 Y65.845 E0.01576
G1 X43.601 Y65.783 E0.00827
G1 X44.096 Y65.736 E0.01561
G1 X44.606 Y65.784 E0.01607
G1 X45.094 Y65.925 E0.01592
G1 X45.547 Y66.154 E0.01592
G1 X45.949 Y66.464 E0.01592
G1 X46.287 Y66.843 E0.01592
G1 X46.548 Y67.279 E0.01592
G1 X46.722 Y67.756 E0.01592
G1 X46.805 Y68.257 E0.01592
G1 X46.795 Y68.680 E0.01327
G1 X47.116 Y68.977 F10800.000
G1 E-2.40000 F4800.00000
G1 F8640
G1 X46.687 Y69.261 E-0.31190
G1 X46.490 Y69.729 E-0.26796
G1 X46.209 Y70.152 E-0.26796
G1 X45.854 Y70.515 E-0.26796
G1 X45.438 Y70.805 E-0.26796
G1 X45.203 Y70.911 E-0.13627
G1 E-0.08000 F4800.00000
G1 Z0.800 F10800.000
G1 X44.514 Y72.360
G1 Z0.200
G1 E4.00000 F3000.00000
G1 F1200
G1 X44.514 Y173.534 E3.17224
G1 X193.014 Y173.534 E4.65611
G1 X193.014 Y197.360 E0.74704
G1 X20.688 Y197.360 E5.40316
G1 X20.688 Y48.534 E4.66633
G1 X193.014 Y48.534 E5.40316
G1 X193.014 Y72.360 E0.74704
G1 X44.574 Y72.360 E4.65423
G1 X44.891 Y72.737 F10800.000
G1 F1200
G1 X44.891 Y173.157 E3.14860
G1 X193.391 Y173.157 E4.65611
M73 P0 R213
G1 X193.391 Y197.737 E0.77069
G1 X20.311 Y197.737 E5.42680
G1 X20.311 Y48.157 E4.68998
G1 X193.391 Y48.157 E5.42680
G1 X193.391 Y72.737 E0.77069
G1 X44.951 Y72.737 E4.65423
G1 X44.492 Y72.759 F10800.000
G1 X43.119 Y71.491
G1 F1200
G1 X44.231 Y72.603 E0.04936
G1 X44.239 Y72.077 E0.01650
G1 X43.965 Y71.803 E0.01216
G1 X44.259 Y71.817 E0.00923
G1 X44.481 Y71.786 E0.00704
G1 X44.773 Y72.077 E0.01294
G1 X45.307 Y72.077 E0.01675
G1 X44.939 Y71.710 E0.01631
G1 X45.207 Y71.632 E0.00876
G1 X45.337 Y71.574 E0.00447
G1 X45.840 Y72.077 E0.02233
G1 X46.374 Y72.077 E0.01675
G1 X45.706 Y71.409 E0.02967
G1 X46.029 Y71.198 E0.01210
G1 X46.908 Y72.077 E0.03903
G1 X47.442 Y72.077 E0.01675
G1 X46.333 Y70.969 E0.04919
G1 X46.597 Y70.699 E0.01184
G1 X47.975 Y72.077 E0.06117
G1 X48.509 Y72.077 E0.01675
G1 X46.835 Y70.403 E0.07432
G1 X47.048 Y70.082 E0.01208
G1 X49.043 Y72.077 E0.08855
G1 X49.577 Y72.077 E0.01675
G1 X47.213 Y69.713 E0.10492
G1 X47.319 Y69.460 E0.00864
G1 X47.350 Y69.317 E0.00458
G1 X50.110 Y72.077 E0.12251
G1 X50.644 Y72.077 E0.01675
G1 X47.444 Y68.877 E0.14202
G1 X47.463 Y68.362 E0.01617
G1 X51.178 Y72.077 E0.16487
G1 X51.712 Y72.077 E0.01675
G1 X47.392 Y67.757 E0.19173
G1 X47.363 Y67.587 E0.00542
G1 X47.122 Y66.954 E0.02126
G1 X52.245 Y72.077 E0.22738
G1 X52.779 Y72.077 E0.01675
G1 X29.519 Y48.817 E1.03229
G1 X30.053 Y48.817 E0.01675
G1 X53.313 Y72.077 E1.03229
G1 X53.847 Y72.077 E0.01675
G1 X30.586 Y48.817 E1.03229
G1 X31.120 Y48.817 E0.01675
G1 X54.380 Y72.077 E1.03229
G1 X54.914 Y72.077 E0.01675
G1 X31.654 Y48.817 E1.03229
G1 X32.187 Y48.817 E0.01675
G1 X55.448 Y72.077 E1.03229
G1 X55.981 Y72.077 E0.01675
G1 X32.721 Y48.817 E1.03229
G1 X33.255 Y48.817 E0.01675
G1 X56.515 Y72.077 E1.03229
G1 X57.049 Y72.077 E0.01675
G1 X33.789 Y48.817 E1.03229
G1 X34.322 Y48.817 E0.01675
G1 X57.583 Y72.077 E1.03229
G1 X58.116 Y72.077 E0.01675
G1 X34.856 Y48.817 E1.03229
G1 X35.390 Y48.817 E0.01675
G1 X58.650 Y72.077 E1.03229
G1 X59.184 Y72.077 E0.01675
G1 X35.924 Y48.817 E1.03229
G1 X36.457 Y48.817 E0.01675
G1 X59.718 Y72.077 E1.03229
M73 P1 R212
G1 X60.251 Y72.077 E0.01675
G1 X36.991 Y48.817 E1.03229
G1 X37.525 Y48.817 E0.01675
G1 X60.785 Y72.077 E1.03229
G1 X61.319 Y72.077 E0.01675
G1 X38.059 Y48.817 E1.03229
G1 X38.592 Y48.817 E0.01675
G1 X61.853 Y72.077 E1.03229
G1 X62.386 Y72.077 E0.01675
G1 X39.126 Y48.817 E1.03229
G1 X39.660 Y48.817 E0.01675
G1 X62.920 Y72.077 E1.03229
G1 X63.454 Y72.077 E0.01675
G1 X40.193 Y48.817 E1.03229
G1 X40.727 Y48.817 E0.01675
G1 X63.987 Y72.077 E1.03229
G1 X64.521 Y72.077 E0.01675
G1 X41.261 Y48.817 E1.03229
G1 X41.795 Y48.817 E0.01675
G1 X65.055 Y72.077 E1.03229
G1 X65.589 Y72.077 E0.01675
G1 X42.328 Y48.817 E1.03229
G1 X42.862 Y48.817 E0.01675
G1 X66.122 Y72.077 E1.03229
G1 X66.656 Y72.077 E0.01675
G1 X43.396 Y48.817 E1.03229
G1 X43.930 Y48.817 E0.01675
G1 X67.190 Y72.077 E1.03229
G1 X67.724 Y72.077 E0.01675
G1 X44.463 Y48.817 E1.03229
G1 X44.997 Y48.817 E0.01675
G1 X68.257 Y72.077 E1.03229
G1 X68.791 Y72.077 E0.01675
G1 X45.531 Y48.817 E1.03229
G1 X46.065 Y48.817 E0.01675
G1 X69.325 Y72.077 E1.03229
G1 X69.859 Y72.077 E0.01675
G1 X46.598 Y48.817 E1.03229
G1 X47.132 Y48.817 E0.01675
G1 X70.392 Y72.077 E1.03229
G1 X70.926 Y72.077 E0.01675
G1 X47.666 Y48.817 E1.03229
G1 X48.199 Y48.817 E0.01675
G1 X71.460 Y72.077 E1.03229
G1 X71.993 Y72.077 E0.01675
G1 X48.733 Y48.817 E1.03229
G1 X49.267 Y48.817 E0.01675
