; generated by PrusaSlicer 2.1.1+win64 on 2020-03-22 at 20:51:04 UTC

; 

; external perimeters extrusion width = 0.60mm
; perimeters extrusion width = 0.43mm
; infill extrusion width = 0.45mm
; solid infill extrusion width = 0.70mm
; top infill extrusion width = 0.43mm
; first layer extrusion width = 0.42mm

M73 P0 R183
M201 X9000 Y9000 Z500 E10000 ; sets maximum accelerations, mm/sec^2
M203 X500 Y500 Z12 E120 ; sets maximum feedrates, mm/sec
M204 P2000 R1500 T2000 ; sets acceleration (P, T) and retract acceleration (R), mm/sec^2
M205 X10.00 Y10.00 Z0.20 E2.50 ; sets the jerk limits, mm/sec
M205 S0 T0 ; sets the minimum extruding and travel feed rate, mm/sec
M107
M862.3 P "MK2SMM" ; printer model check
M862.1 P0.4 ; nozzle diameter check
M115 U3.2.3 ; tell printer latest fw version
M204 S2000 T1500 ; MK2 firmware only supports the old M204 format
; Start G-Code sequence START
T0
M104 S215 ; set extruder temp
M140 S60 ; set bed temp
M190 S60 ; wait for bed temp
M109 S215 ; wait for extruder temp
G90 ; use absolute coordinates
M83 ; use relative distances for extrusion
G28 W
G80
G92 E0.0
M203 E100 ; set max feedrate
M92 E140 ; E-steps per filament milimeter

G1 Z0.250 F7200.000
G1 X50.0 E80.0 F1000.0
M73 P0 R183
G1 X160.0 E20.0 F1000.0
G1 Z0.200 F7200.000
G1 X220.0 E13 F1000.0
G1 X240.0 E0 F1000.0

G92 E0.0
G21 ; set units to millimeters
G90 ; use absolute coordinates
M83 ; use relative distances for extrusion
M900 K200 ; Filament gcode
;BEFORE_LAYER_CHANGE
G92 E0.0
;0.2


G1 Z0.200 F10800.000
;AFTER_LAYER_CHANGE
;0.2
G1 E-4.00000 F4800.00000
G1 Z0.800 F10800.000
G1 X47.219 Y49.604
G1 Z0.200
G1 E4.00000 F3000.00000
M204 S1000
G1 F1200
G1 X47.933 Y49.482 E0.02270
G1 X203.603 Y49.482 E4.88095
G1 X204.433 Y49.647 E0.02653
G1 X205.139 Y50.115 E0.02653
G1 X205.615 Y50.818 E0.02664
G1 X205.788 Y51.647 E0.02653
G1 X205.788 Y171.685 E3.76373
G1 X205.730 Y172.171 E0.01532
G1 X205.565 Y172.634 E0.01544
G1 X205.300 Y173.049 E0.01544
G1 X204.951 Y173.392 E0.01532
G1 X204.319 Y173.738 E0.02259
G1 X203.606 Y173.859 E0.02270
G1 X47.935 Y173.859 E4.88095
G1 X47.446 Y173.803 E0.01544
G1 X46.978 Y173.637 E0.01555
G1 X46.563 Y173.373 E0.01544
G1 X46.217 Y173.022 E0.01544
G1 X45.872 Y172.390 E0.02259
G1 X45.750 Y171.680 E0.02259
G1 X45.750 Y51.663 E3.76304
G1 X45.807 Y51.174 E0.01544
G1 X45.972 Y50.710 E0.01544
G1 X46.236 Y50.295 E0.01544
G1 X46.587 Y49.949 E0.01544
G1 X47.166 Y49.633 E0.02071
G1 E-2.40000 F4800.00000
G1 F8640
G1 X47.933 Y49.482 E-0.41217
G1 X50.032 Y49.482 E-1.10783
G1 E-0.08000 F4800.00000
G1 Z0.800 F10800.000
G1 X163.728 Y164.012
G1 Z0.200
G1 E4.00000 F3000.00000
G1 F1200
G1 X164.170 Y163.637 E0.01814
G1 X164.673 Y163.352 E0.01814
G1 X165.221 Y163.166 E0.01814
G1 X165.794 Y163.084 E0.01814
G1 X166.372 Y163.112 E0.01814
G1 X166.935 Y163.246 E0.01814
G1 X167.463 Y163.483 E0.01814
G1 X167.937 Y163.814 E0.01814
G1 X168.341 Y164.228 E0.01814
G1 X168.661 Y164.710 E0.01814
G1 X168.886 Y165.244 E0.01816
G1 X169.008 Y165.818 E0.01839
G1 X169.020 Y166.374 E0.01744
G1 X168.983 Y166.689 E0.00993
G1 X168.839 Y167.235 E0.01771
G1 X168.590 Y167.757 E0.01814
G1 X168.248 Y168.224 E0.01814
G1 X167.824 Y168.618 E0.01814
G1 X167.335 Y168.927 E0.01814
G1 X166.796 Y169.139 E0.01814
G1 X166.228 Y169.247 E0.01814
G1 X165.649 Y169.247 E0.01814
G1 X165.081 Y169.139 E0.01814
G1 X164.542 Y168.927 E0.01814
G1 X164.053 Y168.618 E0.01814
G1 X163.630 Y168.224 E0.01814
G1 X163.296 Y167.768 E0.01771
G1 X163.146 Y167.489 E0.00994
G1 X162.951 Y166.959 E0.01771
G1 X162.857 Y166.388 E0.01814
G1 X162.870 Y165.809 E0.01816
G1 X162.994 Y165.235 E0.01839
G1 X163.211 Y164.723 E0.01744
G1 X163.373 Y164.451 E0.00993
G1 X163.691 Y164.058 E0.01583
G1 X163.984 Y164.295 F10800.000
G1 F1200
G1 X164.387 Y163.948 E0.01667
G1 X164.828 Y163.698 E0.01592
G1 X165.309 Y163.534 E0.01592
G1 X165.812 Y163.463 E0.01592
G1 X166.319 Y163.487 E0.01592
G1 X166.813 Y163.604 E0.01592
G1 X167.276 Y163.812 E0.01592
G1 X167.692 Y164.103 E0.01592
G1 X168.047 Y164.466 E0.01592
G1 X168.328 Y164.889 E0.01592
G1 X168.525 Y165.357 E0.01593
G1 X168.632 Y165.862 E0.01616
G1 X168.643 Y166.356 E0.01551
G1 X168.612 Y166.618 E0.00827
G1 X168.484 Y167.105 E0.01576
G1 X168.265 Y167.563 E0.01592
G1 X167.965 Y167.972 E0.01592
G1 X167.593 Y168.318 E0.01592
G1 X167.164 Y168.589 E0.01592
G1 X166.691 Y168.775 E0.01592
G1 X166.192 Y168.870 E0.01592
G1 X165.685 Y168.870 E0.01592
G1 X165.186 Y168.775 E0.01592
G1 X164.714 Y168.589 E0.01592
G1 X164.284 Y168.318 E0.01592
G1 X163.913 Y167.972 E0.01592
G1 X163.615 Y167.567 E0.01576
G1 X163.491 Y167.334 E0.00828
G1 X163.317 Y166.862 E0.01576
G1 X163.234 Y166.361 E0.01592
G1 X163.246 Y165.853 E0.01593
G1 X163.355 Y165.350 E0.01616
G1 X163.548 Y164.894 E0.01551
G1 X163.683 Y164.667 E0.00827
G1 X163.946 Y164.342 E0.01311
G1 X163.879 Y163.909 F10800.000
G1 E-2.40000 F4800.00000
G1 F8640
G1 X164.387 Y163.948 E-0.31189
G1 X164.828 Y163.698 E-0.26796
G1 X165.309 Y163.534 E-0.26795
G1 X165.812 Y163.463 E-0.26797
G1 X166.319 Y163.487 E-0.26795
G1 X166.570 Y163.547 E-0.13628
G1 E-0.08000 F4800.00000
G1 Z0.800 F10800.000
G1 X166.011 Y60.260
G1 Z0.200
G1 E4.00000 F3000.00000
G1 F1200
G1 X165.434 Y60.219 E0.01814
G1 X164.874 Y60.071 E0.01814
G1 X164.352 Y59.822 E0.01814
G1 X163.886 Y59.480 E0.01814
G1 X163.501 Y59.066 E0.01771
G1 X163.319 Y58.807 E0.00994
G1 X163.064 Y58.303 E0.01771
G1 X162.903 Y57.747 E0.01814
G1 X162.849 Y57.171 E0.01814
G1 X162.903 Y56.595 E0.01814
G1 X163.064 Y56.039 E0.01814
G1 X163.325 Y55.523 E0.01814
G1 X163.678 Y55.064 E0.01814
G1 X164.111 Y54.680 E0.01814
G1 X164.607 Y54.383 E0.01814
G1 X165.151 Y54.183 E0.01816
G1 X165.730 Y54.088 E0.01839
G1 X166.286 Y54.102 E0.01744
G1 X166.599 Y54.154 E0.00993
G1 X167.138 Y54.323 E0.01771
G1 X167.648 Y54.597 E0.01814
G1 X168.098 Y54.960 E0.01814
G1 X168.472 Y55.402 E0.01814
G1 X168.757 Y55.905 E0.01814
G1 X168.944 Y56.453 E0.01814
G1 X169.025 Y57.026 E0.01814
G1 X168.998 Y57.604 E0.01814
G1 X168.863 Y58.167 E0.01814
G1 X168.632 Y58.682 E0.01771
G1 X168.463 Y58.950 E0.00994
G1 X168.098 Y59.381 E0.01771
G1 X167.648 Y59.745 E0.01814
G1 X167.138 Y60.018 E0.01814
G1 X166.586 Y60.192 E0.01814
G1 X166.071 Y60.252 E0.01626
G1 X166.027 Y59.878 F10800.000
G1 F1200
G1 X165.496 Y59.845 E0.01668
G1 X165.005 Y59.716 E0.01592
G1 X164.547 Y59.497 E0.01592
G1 X164.137 Y59.197 E0.01592
G1 X163.795 Y58.829 E0.01576
G1 X163.643 Y58.612 E0.00828
G1 X163.416 Y58.164 E0.01576
G1 X163.275 Y57.676 E0.01592
G1 X163.228 Y57.171 E0.01592
G1 X163.275 Y56.665 E0.01592
G1 X163.416 Y56.177 E0.01592
G1 X163.646 Y55.725 E0.01592
G1 X163.956 Y55.322 E0.01592
G1 X164.335 Y54.985 E0.01592
G1 X164.771 Y54.724 E0.01592
G1 X165.247 Y54.549 E0.01593
G1 X165.756 Y54.466 E0.01616
G1 X166.251 Y54.478 E0.01551
G1 X166.511 Y54.521 E0.00827
G1 X166.991 Y54.672 E0.01576
G1 X167.438 Y54.912 E0.01592
G1 X167.833 Y55.231 E0.01592
G1 X168.161 Y55.619 E0.01592
G1 X168.412 Y56.060 E0.01592
G1 X168.575 Y56.541 E0.01592
G1 X168.647 Y57.044 E0.01592
G1 X168.623 Y57.551 E0.01592
G1 X168.505 Y58.045 E0.01592
G1 X168.299 Y58.503 E0.01576
G1 X168.158 Y58.727 E0.00828
G1 X167.833 Y59.110 E0.01576
G1 X167.438 Y59.429 E0.01592
G1 X166.991 Y59.669 E0.01592
G1 X166.506 Y59.822 E0.01592
G1 X166.086 Y59.871 E0.01327
G1 X165.837 Y60.230 F10800.000
G1 E-2.40000 F4800.00000
G1 F8640
G1 X165.496 Y59.845 E-0.31190
G1 X165.005 Y59.716 E-0.26796
G1 X164.547 Y59.497 E-0.26795
G1 X164.137 Y59.197 E-0.26796
G1 X163.795 Y58.829 E-0.26535
G1 X163.644 Y58.613 E-0.13887
G1 E-0.08000 F4800.00000
G1 Z0.800 F10800.000
G1 X60.025 Y57.026
G1 Z0.200
G1 E4.00000 F3000.00000
G1 F1200
G1 X59.998 Y57.604 E0.01814
G1 X59.863 Y58.167 E0.01814
G1 X59.632 Y58.682 E0.01771
G1 X59.463 Y58.950 E0.00994
G1 X59.098 Y59.381 E0.01771
G1 X58.648 Y59.745 E0.01814
G1 X58.138 Y60.018 E0.01814
G1 X57.586 Y60.192 E0.01814
G1 X57.011 Y60.260 E0.01814
G1 X56.434 Y60.219 E0.01814
G1 X55.874 Y60.071 E0.01814
G1 X55.352 Y59.822 E0.01814
G1 X54.886 Y59.480 E0.01814
G1 X54.501 Y59.066 E0.01771
G1 X54.319 Y58.807 E0.00994
G1 X54.064 Y58.303 E0.01771
G1 X53.903 Y57.747 E0.01814
G1 X53.849 Y57.171 E0.01814
G1 X53.903 Y56.595 E0.01814
G1 X54.064 Y56.039 E0.01814
G1 X54.325 Y55.523 E0.01814
G1 X54.678 Y55.064 E0.01814
G1 X55.111 Y54.680 E0.01814
G1 X55.607 Y54.383 E0.01814
G1 X56.151 Y54.183 E0.01816
G1 X56.730 Y54.088 E0.01839
G1 X57.286 Y54.102 E0.01744
G1 X57.599 Y54.154 E0.00993
G1 X58.138 Y54.323 E0.01771
G1 X58.648 Y54.597 E0.01814
G1 X59.098 Y54.960 E0.01814
G1 X59.472 Y55.402 E0.01814
G1 X59.757 Y55.905 E0.01814
G1 X59.944 Y56.453 E0.01814
G1 X60.017 Y56.966 E0.01626
G1 X59.643 Y57.019 F10800.000
G1 F1200
G1 X59.623 Y57.551 E0.01667
G1 X59.505 Y58.045 E0.01592
G1 X59.299 Y58.503 E0.01576
G1 X59.158 Y58.727 E0.00828
G1 X58.833 Y59.110 E0.01576
G1 X58.438 Y59.429 E0.01592
G1 X57.991 Y59.669 E0.01592
G1 X57.506 Y59.822 E0.01592
G1 X57.002 Y59.881 E0.01592
G1 X56.496 Y59.845 E0.01592
G1 X56.005 Y59.716 E0.01592
G1 X55.547 Y59.497 E0.01592
G1 X55.137 Y59.197 E0.01592
G1 X54.795 Y58.829 E0.01576
G1 X54.643 Y58.612 E0.00828
G1 X54.416 Y58.164 E0.01576
G1 X54.275 Y57.676 E0.01592
G1 X54.228 Y57.171 E0.01592
G1 X54.275 Y56.665 E0.01592
G1 X54.416 Y56.177 E0.01592
G1 X54.646 Y55.725 E0.01592
G1 X54.956 Y55.322 E0.01592
G1 X55.335 Y54.985 E0.01592
G1 X55.771 Y54.724 E0.01592
G1 X56.247 Y54.549 E0.01593
G1 X56.756 Y54.466 E0.01616
G1 X57.251 Y54.478 E0.01551
G1 X57.511 Y54.521 E0.00827
G1 X57.991 Y54.672 E0.01576
G1 X58.438 Y54.912 E0.01592
G1 X58.833 Y55.231 E0.01592
G1 X59.161 Y55.619 E0.01592
G1 X59.412 Y56.060 E0.01592
G1 X59.575 Y56.541 E0.01592
G1 X59.635 Y56.960 E0.01327
G1 X60.000 Y57.201 F10800.000
G1 E-2.40000 F4800.00000
G1 F8640
G1 X59.623 Y57.551 E-0.31190
G1 X59.505 Y58.045 E-0.26797
G1 X59.299 Y58.503 E-0.26534
G1 X59.158 Y58.727 E-0.13931
G1 X58.833 Y59.110 E-0.26534
G1 X58.438 Y59.429 E-0.26796
G1 X58.434 Y59.431 E-0.00219
G1 E-0.08000 F4800.00000
G1 Z0.800 F10800.000
G1 X56.794 Y163.084
G1 Z0.200
G1 E4.00000 F3000.00000
G1 F1200
G1 X57.372 Y163.112 E0.01814
G1 X57.935 Y163.246 E0.01814
G1 X58.463 Y163.483 E0.01814
G1 X58.937 Y163.814 E0.01814
G1 X59.341 Y164.228 E0.01814
G1 X59.661 Y164.710 E0.01814
G1 X59.886 Y165.244 E0.01816
G1 X60.008 Y165.818 E0.01839
G1 X60.020 Y166.374 E0.01744
G1 X59.983 Y166.689 E0.00993
G1 X59.839 Y167.235 E0.01771
G1 X59.590 Y167.757 E0.01814
G1 X59.248 Y168.224 E0.01814
G1 X58.824 Y168.618 E0.01814
G1 X58.335 Y168.927 E0.01814
G1 X57.796 Y169.139 E0.01814
G1 X57.228 Y169.247 E0.01814
G1 X56.649 Y169.247 E0.01814
G1 X56.081 Y169.139 E0.01814
G1 X55.542 Y168.927 E0.01814
G1 X55.053 Y168.618 E0.01814
G1 X54.630 Y168.224 E0.01814
G1 X54.296 Y167.768 E0.01771
G1 X54.146 Y167.489 E0.00994
G1 X53.951 Y166.959 E0.01771
G1 X53.857 Y166.388 E0.01814
G1 X53.870 Y165.809 E0.01814
G1 X53.988 Y165.257 E0.01771
G1 X54.098 Y164.959 E0.00994
G1 X54.365 Y164.462 E0.01771
G1 X54.728 Y164.012 E0.01814
G1 X55.170 Y163.637 E0.01814
G1 X55.673 Y163.352 E0.01814
G1 X56.221 Y163.166 E0.01814
G1 X56.734 Y163.093 E0.01626
G1 X56.787 Y163.466 F10800.000
G1 F1200
G1 X57.319 Y163.487 E0.01668
G1 X57.813 Y163.604 E0.01592
G1 X58.276 Y163.812 E0.01592
G1 X58.692 Y164.103 E0.01592
G1 X59.047 Y164.466 E0.01592
G1 X59.328 Y164.889 E0.01592
G1 X59.525 Y165.357 E0.01593
G1 X59.632 Y165.862 E0.01616
G1 X59.643 Y166.356 E0.01551
G1 X59.612 Y166.618 E0.00827
G1 X59.484 Y167.105 E0.01576
G1 X59.265 Y167.563 E0.01592
G1 X58.965 Y167.972 E0.01592
G1 X58.593 Y168.318 E0.01592
G1 X58.164 Y168.589 E0.01592
G1 X57.691 Y168.775 E0.01592
G1 X57.192 Y168.870 E0.01592
G1 X56.685 Y168.870 E0.01592
G1 X56.186 Y168.775 E0.01592
G1 X55.714 Y168.589 E0.01592
G1 X55.284 Y168.318 E0.01592
G1 X54.913 Y167.972 E0.01592
G1 X54.615 Y167.567 E0.01576
G1 X54.491 Y167.334 E0.00828
G1 X54.317 Y166.862 E0.01576
G1 X54.234 Y166.361 E0.01592
G1 X54.246 Y165.854 E0.01592
G1 X54.352 Y165.362 E0.01576
G1 X54.443 Y165.114 E0.00828
G1 X54.680 Y164.671 E0.01576
G1 X54.999 Y164.276 E0.01592
G1 X55.387 Y163.948 E0.01592
G1 X55.828 Y163.698 E0.01592
G1 X56.309 Y163.534 E0.01592
G1 X56.728 Y163.475 E0.01327
G1 X56.968 Y163.110 F10800.000
G1 E-2.40000 F4800.00000
G1 F8640
G1 X57.319 Y163.487 E-0.31191
G1 X57.813 Y163.604 E-0.26796
G1 X58.276 Y163.812 E-0.26796
G1 X58.692 Y164.103 E-0.26796
G1 X59.047 Y164.466 E-0.26795
G1 X59.190 Y164.681 E-0.13626
G1 E-0.08000 F4800.00000
G1 Z0.800 F10800.000
G1 X48.526 Y171.084
G1 Z0.200
G1 E4.00000 F3000.00000
G1 F1200
G1 X48.526 Y52.258 E3.72570
M73 P0 R182
G1 X203.013 Y52.258 E4.84383
G1 X203.013 Y171.084 E3.72570
G1 X48.586 Y171.084 E4.84195
G1 X48.149 Y171.461 F10800.000
G1 F1200
G1 X48.149 Y51.881 E3.74935
G1 X203.390 Y51.881 E4.86748
G1 X203.390 Y171.461 E3.74935
G1 X48.209 Y171.461 E4.86560
G1 X48.269 Y171.079 F10800.000
G1 X48.639 Y170.207
G1 F1200
G1 X49.233 Y170.801 E0.02639
G1 X49.767 Y170.801 E0.01677
G1 X48.809 Y169.842 E0.04257
G1 X48.809 Y169.308 E0.01677
G1 X50.301 Y170.801 E0.06630
G1 X50.835 Y170.801 E0.01677
G1 X48.809 Y168.774 E0.09002
G1 X48.809 Y168.240 E0.01677
G1 X51.369 Y170.801 E0.11374
G1 X51.904 Y170.801 E0.01677
G1 X48.809 Y167.706 E0.13746
G1 X48.809 Y167.172 E0.01677
G1 X52.438 Y170.801 E0.16118
G1 X52.972 Y170.801 E0.01677
G1 X48.809 Y166.638 E0.18490
G1 X48.809 Y166.103 E0.01677
G1 X53.506 Y170.801 E0.20862
G1 X54.040 Y170.801 E0.01677
G1 X48.809 Y165.569 E0.23235
G1 X48.809 Y165.035 E0.01677
G1 X54.574 Y170.801 E0.25607
G1 X55.108 Y170.801 E0.01677
G1 X48.809 Y164.501 E0.27979
G1 X48.809 Y163.967 E0.01677
G1 X55.642 Y170.801 E0.30351
G1 X56.177 Y170.801 E0.01677
G1 X48.809 Y163.433 E0.32723
G1 X48.809 Y162.899 E0.01677
G1 X56.880 Y170.971 E0.35849
G1 X55.761 Y169.317 F10800.000
G1 F1200
G1 X57.245 Y170.801 E0.06591
G1 X57.779 Y170.801 E0.01677
G1 X56.481 Y169.503 E0.05766
G1 X56.623 Y169.530 E0.00454
G1 X57.042 Y169.530 E0.01316
G1 X58.313 Y170.801 E0.05646
G1 X58.847 Y170.801 E0.01677
G1 X57.525 Y169.478 E0.05874
G1 X57.875 Y169.412 E0.01121
G1 X57.959 Y169.379 E0.00283
G1 X59.381 Y170.801 E0.06316
G1 X59.915 Y170.801 E0.01677
G1 X58.342 Y169.228 E0.06986
G1 X58.463 Y169.180 E0.00408
G1 X58.687 Y169.039 E0.00833
G1 X60.450 Y170.801 E0.07826
G1 X60.984 Y170.801 E0.01677
G1 X59.012 Y168.830 E0.08755
G1 X59.289 Y168.572 E0.01187
G1 X61.518 Y170.801 E0.09899
G1 X62.052 Y170.801 E0.01677
G1 X59.546 Y168.295 E0.11129
G1 X59.772 Y167.987 E0.01200
G1 X62.586 Y170.801 E0.12497
G1 X63.120 Y170.801 E0.01677
G1 X59.959 Y167.640 E0.14038
G1 X60.123 Y167.269 E0.01272
G1 X63.654 Y170.801 E0.15685
G1 X64.188 Y170.801 E0.01677
G1 X60.234 Y166.847 E0.17562
G1 X60.303 Y166.382 E0.01476
G1 X64.722 Y170.801 E0.19626
G1 X65.257 Y170.801 E0.01677
G1 X60.291 Y165.835 E0.22053
G1 X60.159 Y165.170 E0.02131
G1 X65.960 Y170.971 E0.25763
G1 E-2.40000 F4800.00000
G1 F8640
G1 X63.924 Y168.934 E-1.52000
G1 E-0.08000 F4800.00000
G1 Z0.800 F10800.000
G1 X53.793 Y167.349
G1 Z0.200
G1 E4.00000 F3000.00000
G1 F1200
G1 X48.809 Y162.365 E0.22138
G1 X48.809 Y161.830 E0.01677
G1 X53.610 Y166.632 E0.21327
G1 X53.573 Y166.408 E0.00715
G1 X53.581 Y166.069 E0.01064
G1 X48.809 Y161.296 E0.21197
G1 X48.809 Y160.762 E0.01677
G1 X53.629 Y165.583 E0.21411
G1 X53.728 Y165.147 E0.01403
G1 X48.809 Y160.228 E0.21847
M73 P1 R181
G1 X48.809 Y159.694 E0.01677
G1 X53.881 Y164.766 E0.22526
G1 X54.067 Y164.418 E0.01239
G1 X48.809 Y159.160 E0.23354
G1 X48.809 Y158.626 E0.01677
G1 X54.289 Y164.106 E0.24339
G1 X54.528 Y163.811 E0.01192
G1 X48.809 Y158.092 E0.25401
G1 X48.809 Y157.557 E0.01677
G1 X54.817 Y163.566 E0.26685
G1 X55.007 Y163.405 E0.00783
G1 X55.124 Y163.339 E0.00421
G1 X48.809 Y157.023 E0.28047
G1 X48.809 Y156.489 E0.01677
G1 X55.465 Y163.145 E0.29561
G1 X55.557 Y163.093 E0.00333
G1 X55.847 Y162.994 E0.00964
G1 X48.809 Y155.955 E0.31261
G1 X48.809 Y155.421 E0.01677
G1 X56.262 Y162.874 E0.33101
G1 X56.730 Y162.808 E0.01484
G1 X48.809 Y154.887 E0.35179
G1 X48.809 Y154.353 E0.01677
G1 X57.280 Y162.824 E0.37623
G1 X57.412 Y162.830 E0.00414
G1 X57.948 Y162.959 E0.01733
G1 X48.809 Y153.819 E0.40592
G1 X48.809 Y153.285 E0.01677
G1 X66.325 Y170.801 E0.77794
G1 X66.859 Y170.801 E0.01677
G1 X48.809 Y152.750 E0.80166
