; generated by PrusaSlicer 2.1.1+win64 on 2020-03-22 at 20:50:06 UTC

; 

; external perimeters extrusion width = 0.60mm
; perimeters extrusion width = 0.43mm
; infill extrusion width = 0.45mm
; solid infill extrusion width = 0.70mm
; top infill extrusion width = 0.43mm
; first layer extrusion width = 0.42mm

M73 P0 R115
M201 X9000 Y9000 Z500 E10000 ; sets maximum accelerations, mm/sec^2
M203 X500 Y500 Z12 E120 ; sets maximum feedrates, mm/sec
M204 P2000 R1500 T2000 ; sets acceleration (P, T) and retract acceleration (R), mm/sec^2
M205 X10.00 Y10.00 Z0.20 E2.50 ; sets the jerk limits, mm/sec
M205 S0 T0 ; sets the minimum extruding and travel feed rate, mm/sec
M107
M862.3 P "MK2SMM" ; printer model check
M862.1 P0.4 ; nozzle diameter check
M115 U3.2.3 ; tell printer latest fw version
M204 S2000 T1500 ; MK2 firmware only supports the old M204 format
; Start G-Code sequence START
T0
M104 S215 ; set extruder temp
M140 S60 ; set bed temp
M190 S60 ; wait for bed temp
M109 S215 ; wait for extruder temp
G90 ; use absolute coordinates
M83 ; use relative distances for extrusion
G28 W
G80
G92 E0.0
M203 E100 ; set max feedrate
M92 E140 ; E-steps per filament milimeter

G1 Z0.250 F7200.000
G1 X50.0 E80.0 F1000.0
M73 P0 R115
G1 X160.0 E20.0 F1000.0
G1 Z0.200 F7200.000
G1 X220.0 E13 F1000.0
G1 X240.0 E0 F1000.0

G92 E0.0
G21 ; set units to millimeters
G90 ; use absolute coordinates
M83 ; use relative distances for extrusion
M900 K200 ; Filament gcode
;BEFORE_LAYER_CHANGE
G92 E0.0
;0.2


G1 Z0.200 F10800.000
;AFTER_LAYER_CHANGE
;0.2
G1 E-4.00000 F4800.00000
G1 Z0.800 F10800.000
G1 X59.899 Y39.460
G1 Z0.200
G1 E4.00000 F3000.00000
M204 S1000
G1 F1200
G1 X60.378 Y38.750 E0.02687
G1 X61.083 Y38.281 E0.02653
G1 X61.909 Y38.116 E0.02642
G1 X185.422 Y38.116 E3.87267
G1 X186.252 Y38.281 E0.02653
G1 X186.957 Y38.748 E0.02653
G1 X187.432 Y39.448 E0.02653
G1 X187.607 Y40.276 E0.02653
G1 X187.607 Y160.315 E3.76373
G1 X187.436 Y161.151 E0.02676
G1 X186.959 Y161.859 E0.02676
G1 X186.254 Y162.327 E0.02653
G1 X185.428 Y162.493 E0.02642
G1 X61.918 Y162.493 E3.87255
G1 X61.074 Y162.323 E0.02698
G1 X60.364 Y161.845 E0.02687
G1 X59.897 Y161.143 E0.02642
G1 X59.730 Y160.317 E0.02642
G1 X59.730 Y40.304 E3.76293
G1 X59.887 Y39.519 E0.02510
G1 E-2.40000 F4800.00000
G1 F8640
G1 X60.378 Y38.750 E-0.48167
G1 X61.083 Y38.281 E-0.44661
G1 X61.909 Y38.116 E-0.44472
G1 X62.187 Y38.116 E-0.14700
G1 E-0.08000 F4800.00000
G1 Z0.800 F10800.000
G1 X69.277 Y151.718
G1 Z0.200
G1 E4.00000 F3000.00000
G1 F1200
G1 X69.834 Y151.744 E0.01751
G1 X70.146 Y151.803 E0.00993
G1 X70.681 Y151.984 E0.01771
G1 X71.185 Y152.269 E0.01815
G1 X71.626 Y152.643 E0.01815
G1 X71.991 Y153.093 E0.01815
G1 X72.265 Y153.603 E0.01815
G1 X72.439 Y154.155 E0.01815
G1 X72.507 Y154.730 E0.01815
G1 X72.467 Y155.307 E0.01815
G1 X72.319 Y155.867 E0.01815
G1 X72.070 Y156.390 E0.01817
G1 X71.723 Y156.861 E0.01834
G1 X71.314 Y157.242 E0.01751
G1 X71.055 Y157.423 E0.00994
G1 X70.551 Y157.679 E0.01771
G1 X69.995 Y157.840 E0.01815
G1 X69.418 Y157.894 E0.01815
G1 X68.842 Y157.840 E0.01815
G1 X68.286 Y157.679 E0.01815
G1 X67.769 Y157.417 E0.01815
G1 X67.311 Y157.064 E0.01815
G1 X66.927 Y156.631 E0.01815
G1 X66.630 Y156.134 E0.01815
G1 X66.435 Y155.604 E0.01771
G1 X66.369 Y155.294 E0.00994
G1 X66.329 Y154.736 E0.01752
G1 X66.397 Y154.155 E0.01834
G1 X66.572 Y153.603 E0.01816
G1 X66.846 Y153.093 E0.01815
G1 X67.210 Y152.643 E0.01815
G1 X67.652 Y152.269 E0.01815
G1 X68.156 Y151.984 E0.01815
G1 X68.704 Y151.798 E0.01815
G1 X69.217 Y151.726 E0.01626
G1 X69.270 Y152.100 F10800.000
G1 F1200
G1 X69.790 Y152.119 E0.01634
G1 X70.050 Y152.168 E0.00827
G1 X70.526 Y152.330 E0.01577
G1 X70.968 Y152.580 E0.01592
G1 X71.356 Y152.908 E0.01592
G1 X71.675 Y153.303 E0.01592
G1 X71.916 Y153.750 E0.01592
G1 X72.069 Y154.235 E0.01592
G1 X72.128 Y154.739 E0.01593
G1 X72.093 Y155.246 E0.01593
G1 X71.964 Y155.737 E0.01592
G1 X71.745 Y156.195 E0.01593
G1 X71.440 Y156.609 E0.01611
G1 X71.077 Y156.948 E0.01558
G1 X70.860 Y157.099 E0.00828
G1 X70.412 Y157.326 E0.01577
G1 X69.924 Y157.467 E0.01592
G1 X69.418 Y157.515 E0.01592
G1 X68.913 Y157.467 E0.01593
G1 X68.425 Y157.326 E0.01592
G1 X67.972 Y157.097 E0.01592
G1 X67.569 Y156.787 E0.01592
G1 X67.232 Y156.407 E0.01593
G1 X66.971 Y155.971 E0.01592
G1 X66.798 Y155.499 E0.01577
G1 X66.743 Y155.241 E0.00828
G1 X66.708 Y154.745 E0.01558
G1 X66.768 Y154.235 E0.01611
G1 X66.921 Y153.750 E0.01593
G1 X67.161 Y153.303 E0.01592
G1 X67.481 Y152.908 E0.01592
G1 X67.868 Y152.580 E0.01592
G1 X68.310 Y152.330 E0.01592
G1 X68.791 Y152.167 E0.01592
G1 X69.210 Y152.108 E0.01326
G1 X69.451 Y151.743 F10800.000
G1 E-2.40000 F4800.00000
G1 F8640
G1 X69.790 Y152.119 E-0.30625
G1 X70.050 Y152.168 E-0.13929
G1 X70.526 Y152.330 E-0.26544
G1 X70.968 Y152.580 E-0.26805
G1 X71.356 Y152.908 E-0.26806
G1 X71.675 Y153.303 E-0.26805
G1 X71.680 Y153.311 E-0.00487
G1 E-0.08000 F4800.00000
G1 Z0.800 F10800.000
G1 X175.329 Y154.736
G1 Z0.200
G1 E4.00000 F3000.00000
G1 F1200
G1 X175.397 Y154.155 E0.01834
G1 X175.572 Y153.603 E0.01816
G1 X175.846 Y153.093 E0.01815
G1 X176.210 Y152.643 E0.01815
G1 X176.652 Y152.269 E0.01815
G1 X177.156 Y151.984 E0.01815
G1 X177.704 Y151.798 E0.01815
G1 X178.277 Y151.718 E0.01814
G1 X178.834 Y151.744 E0.01751
G1 X179.146 Y151.803 E0.00993
G1 X179.681 Y151.984 E0.01771
G1 X180.185 Y152.269 E0.01815
G1 X180.626 Y152.643 E0.01815
G1 X180.991 Y153.093 E0.01815
G1 X181.265 Y153.603 E0.01815
G1 X181.439 Y154.155 E0.01815
G1 X181.507 Y154.730 E0.01815
G1 X181.467 Y155.307 E0.01815
G1 X181.319 Y155.867 E0.01815
G1 X181.070 Y156.390 E0.01817
G1 X180.723 Y156.861 E0.01834
G1 X180.314 Y157.242 E0.01752
G1 X180.055 Y157.423 E0.00994
G1 X179.551 Y157.679 E0.01771
G1 X178.995 Y157.840 E0.01815
G1 X178.418 Y157.894 E0.01815
G1 X177.842 Y157.840 E0.01815
G1 X177.286 Y157.679 E0.01815
G1 X176.769 Y157.417 E0.01815
G1 X176.311 Y157.064 E0.01815
G1 X175.927 Y156.631 E0.01815
G1 X175.629 Y156.134 E0.01815
G1 X175.435 Y155.604 E0.01771
G1 X175.369 Y155.294 E0.00994
G1 X175.334 Y154.796 E0.01563
G1 X175.710 Y154.770 F10800.000
G1 F1200
G1 X175.768 Y154.235 E0.01687
G1 X175.921 Y153.750 E0.01593
G1 X176.161 Y153.303 E0.01592
G1 X176.481 Y152.908 E0.01592
G1 X176.868 Y152.580 E0.01592
G1 X177.310 Y152.330 E0.01592
G1 X177.791 Y152.167 E0.01592
G1 X178.294 Y152.096 E0.01592
G1 X178.790 Y152.119 E0.01558
G1 X179.050 Y152.168 E0.00827
G1 X179.526 Y152.330 E0.01577
G1 X179.968 Y152.580 E0.01592
G1 X180.356 Y152.908 E0.01592
G1 X180.675 Y153.303 E0.01592
G1 X180.916 Y153.750 E0.01592
G1 X181.069 Y154.235 E0.01592
G1 X181.128 Y154.739 E0.01592
G1 X181.093 Y155.246 E0.01593
G1 X180.964 Y155.737 E0.01592
G1 X180.745 Y156.195 E0.01593
G1 X180.440 Y156.609 E0.01611
G1 X180.077 Y156.948 E0.01558
G1 X179.860 Y157.099 E0.00828
G1 X179.412 Y157.326 E0.01577
G1 X178.924 Y157.467 E0.01592
G1 X178.418 Y157.515 E0.01593
G1 X177.913 Y157.467 E0.01592
G1 X177.425 Y157.326 E0.01592
G1 X176.972 Y157.097 E0.01592
G1 X176.569 Y156.787 E0.01592
G1 X176.232 Y156.407 E0.01593
G1 X175.971 Y155.971 E0.01592
G1 X175.798 Y155.499 E0.01577
G1 X175.743 Y155.241 E0.00828
G1 X175.714 Y154.830 E0.01293
G1 X175.370 Y154.559 F10800.000
G1 E-2.40000 F4800.00000
G1 F8640
G1 X175.768 Y154.235 E-0.31523
G1 X175.921 Y153.750 E-0.26814
G1 X176.161 Y153.303 E-0.26806
G1 X176.481 Y152.908 E-0.26805
G1 X176.868 Y152.580 E-0.26806
G1 X177.087 Y152.456 E-0.13247
G1 E-0.08000 F4800.00000
G1 Z0.800 F10800.000
G1 X178.493 Y48.893
G1 Z0.200
G1 E4.00000 F3000.00000
G1 F1200
G1 X177.915 Y48.852 E0.01815
G1 X177.355 Y48.705 E0.01815
G1 X176.832 Y48.456 E0.01816
G1 X176.361 Y48.109 E0.01834
G1 X175.981 Y47.700 E0.01751
G1 X175.799 Y47.440 E0.00994
G1 X175.544 Y46.937 E0.01772
G1 X175.383 Y46.380 E0.01815
G1 X175.329 Y45.804 E0.01815
G1 X175.383 Y45.228 E0.01815
G1 X175.544 Y44.672 E0.01815
G1 X175.805 Y44.155 E0.01815
G1 X176.159 Y43.697 E0.01815
G1 X176.591 Y43.312 E0.01815
G1 X177.088 Y43.015 E0.01815
G1 X177.619 Y42.821 E0.01771
G1 X177.929 Y42.755 E0.00994
G1 X178.486 Y42.715 E0.01752
G1 X179.067 Y42.783 E0.01834
G1 X179.619 Y42.958 E0.01816
G1 X180.129 Y43.232 E0.01815
G1 X180.579 Y43.596 E0.01815
G1 X180.953 Y44.038 E0.01815
G1 X181.238 Y44.542 E0.01815
G1 X181.424 Y45.090 E0.01815
G1 X181.503 Y45.649 E0.01772
G1 X181.502 Y45.966 E0.00993
G1 X181.424 Y46.519 E0.01751
G1 X181.238 Y47.067 E0.01814
G1 X180.953 Y47.570 E0.01815
G1 X180.579 Y48.012 E0.01815
G1 X180.129 Y48.377 E0.01815
G1 X179.619 Y48.651 E0.01815
G1 X179.067 Y48.825 E0.01815
G1 X178.552 Y48.886 E0.01627
G1 X178.508 Y48.511 F10800.000
G1 F1200
G1 X177.977 Y48.479 E0.01668
G1 X177.486 Y48.350 E0.01592
G1 X177.027 Y48.131 E0.01593
G1 X176.613 Y47.826 E0.01611
G1 X176.274 Y47.463 E0.01558
G1 X176.123 Y47.246 E0.00828
G1 X175.896 Y46.798 E0.01577
G1 X175.755 Y46.310 E0.01592
G1 X175.707 Y45.804 E0.01593
G1 X175.755 Y45.298 E0.01593
G1 X175.896 Y44.810 E0.01592
G1 X176.126 Y44.357 E0.01592
G1 X176.436 Y43.955 E0.01593
G1 X176.815 Y43.618 E0.01592
G1 X177.251 Y43.357 E0.01593
G1 X177.723 Y43.184 E0.01577
G1 X177.982 Y43.129 E0.00828
G1 X178.477 Y43.094 E0.01558
G1 X178.988 Y43.154 E0.01611
G1 X179.472 Y43.306 E0.01593
G1 X179.920 Y43.547 E0.01592
G1 X180.314 Y43.867 E0.01592
G1 X180.642 Y44.254 E0.01592
G1 X180.892 Y44.696 E0.01592
G1 X181.056 Y45.177 E0.01592
G1 X181.126 Y45.675 E0.01577
G1 X181.125 Y45.939 E0.00828
G1 X181.056 Y46.431 E0.01557
G1 X180.892 Y46.912 E0.01592
G1 X180.642 Y47.354 E0.01593
G1 X180.314 Y47.742 E0.01592
G1 X179.920 Y48.061 E0.01592
G1 X179.472 Y48.302 E0.01592
G1 X178.988 Y48.454 E0.01592
G1 X178.567 Y48.504 E0.01327
G1 X178.318 Y48.864 F10800.000
G1 E-2.40000 F4800.00000
G1 F8640
G1 X177.977 Y48.479 E-0.31199
G1 X177.486 Y48.350 E-0.26806
G1 X177.027 Y48.131 E-0.26814
G1 X176.613 Y47.826 E-0.27122
G1 X176.274 Y47.463 E-0.26222
G1 X176.124 Y47.248 E-0.13836
G1 E-0.08000 F4800.00000
G1 Z0.800 F10800.000
G1 X162.574 Y63.929
G1 Z0.200
G1 E4.00000 F3000.00000
G1 F1200
G1 X162.881 Y64.247 E0.01385
G1 X164.349 Y65.900 E0.06931
G1 X165.740 Y67.606 E0.06903
G1 X167.060 Y69.368 E0.06903
G1 X168.304 Y71.181 E0.06893
G1 X168.901 Y72.113 E0.03471
G1 X170.030 Y73.999 E0.06893
G1 X171.081 Y75.934 E0.06903
G1 X172.050 Y77.907 E0.06893
G1 X172.506 Y78.916 E0.03471
G1 X173.350 Y80.946 E0.06893
G1 X174.109 Y83.009 E0.06893
G1 X174.458 Y84.056 E0.03461
G1 X174.785 Y85.111 E0.03461
G1 X175.368 Y87.221 E0.06865
G1 X175.868 Y89.374 E0.06931
G1 X176.276 Y91.535 E0.06893
G1 X176.448 Y92.628 E0.03471
G1 X176.719 Y94.801 E0.06865
G1 X176.903 Y97.004 E0.06931
G1 X176.994 Y99.203 E0.06903
G1 X176.994 Y101.405 E0.06903
G1 X176.903 Y103.601 E0.06893
G1 X176.823 Y104.705 E0.03471
G1 X176.595 Y106.889 E0.06884
G1 X176.447 Y107.986 E0.03471
G1 X176.085 Y110.145 E0.06865
G1 X175.630 Y112.309 E0.06931
G1 X175.089 Y114.439 E0.06893
G1 X174.783 Y115.503 E0.03471
G1 X174.113 Y117.588 E0.06865
G1 X173.350 Y119.662 E0.06931
G1 X172.506 Y121.692 E0.06893
G1 X172.050 Y122.701 E0.03471
G1 X171.081 Y124.675 E0.06893
G1 X170.032 Y126.606 E0.06893
G1 X169.473 Y127.562 E0.03471
G1 X168.310 Y129.417 E0.06865
G1 X167.060 Y131.240 E0.06931
G1 X165.742 Y133.000 E0.06893
G1 X165.051 Y133.865 E0.03471
G1 X163.632 Y135.532 E0.06865
G1 X162.131 Y137.155 E0.06931
G1 X160.571 Y138.708 E0.06903
G1 X158.947 Y140.194 E0.06903
G1 X157.263 Y141.613 E0.06903
G1 X155.524 Y142.958 E0.06893
G1 X154.628 Y143.607 E0.03471
G1 X152.811 Y144.840 E0.06884
G1 X151.876 Y145.433 E0.03471
G1 X149.984 Y146.552 E0.06893
G1 X148.044 Y147.593 E0.06903
G1 X146.065 Y148.551 E0.06893
G1 X145.054 Y149.002 E0.03471
G1 X143.020 Y149.836 E0.06893
G1 X140.953 Y150.584 E0.06893
G1 X139.901 Y150.928 E0.03471
G1 X137.800 Y151.544 E0.06865
G1 X135.658 Y152.077 E0.06922
G1 X134.576 Y152.310 E0.03471
G1 X132.422 Y152.706 E0.06865
G1 X130.233 Y153.014 E0.06931
G1 X128.042 Y153.231 E0.06903
G1 X125.856 Y153.356 E0.06865
G1 X124.741 Y153.385 E0.03499
G1 X122.545 Y153.373 E0.06884
G1 X121.439 Y153.333 E0.03471
G1 X119.255 Y153.186 E0.06865
G1 X117.057 Y152.946 E0.06931
G1 X114.880 Y152.616 E0.06903
G1 X112.719 Y152.197 E0.06903
G1 X110.589 Y151.691 E0.06865
G1 X108.456 Y151.089 E0.06950
G1 X106.366 Y150.406 E0.06893
G1 X104.304 Y149.635 E0.06903
G1 X102.278 Y148.780 E0.06893
G1 X101.272 Y148.319 E0.03471
G1 X99.306 Y147.341 E0.06884
G1 X98.331 Y146.818 E0.03471
G1 X96.427 Y145.719 E0.06893
G1 X94.568 Y144.540 E0.06903
G1 X92.759 Y143.285 E0.06903
G1 X91.004 Y141.956 E0.06903
G1 X89.307 Y140.557 E0.06893
G1 X88.476 Y139.827 E0.03471
G1 X86.870 Y138.326 E0.06893
G1 X85.325 Y136.757 E0.06903
G1 X83.847 Y135.126 E0.06903
G1 X82.438 Y133.434 E0.06903
G1 X81.107 Y131.696 E0.06865
G1 X80.456 Y130.789 E0.03499
G1 X79.231 Y128.963 E0.06893
G1 X78.083 Y127.088 E0.06893
G1 X77.535 Y126.127 E0.03471
G1 X76.507 Y124.187 E0.06884
G1 X76.019 Y123.193 E0.03471
G1 X75.112 Y121.190 E0.06893
G1 X74.288 Y119.149 E0.06903
G1 X73.551 Y117.078 E0.06893
G1 X73.212 Y116.024 E0.03471
G1 X72.604 Y113.911 E0.06893
G1 X72.087 Y111.784 E0.06865
G1 X71.857 Y110.692 E0.03499
G1 X71.472 Y108.527 E0.06893
G1 X71.176 Y106.346 E0.06903
G1 X70.971 Y104.157 E0.06893
G1 X70.902 Y103.052 E0.03471
G1 X70.834 Y100.854 E0.06893
G1 X70.857 Y98.653 E0.06903
G1 X70.971 Y96.455 E0.06903
G1 X71.176 Y94.266 E0.06893
G1 X71.313 Y93.167 E0.03471
G1 X71.653 Y90.998 E0.06884
G1 X71.858 Y89.911 E0.03471
G1 X72.333 Y87.764 E0.06893
G1 X72.898 Y85.636 E0.06903
G1 X73.550 Y83.533 E0.06903
G1 X74.287 Y81.462 E0.06893
G1 X74.691 Y80.431 E0.03471
G1 X75.556 Y78.410 E0.06893
G1 X76.500 Y76.435 E0.06865
G1 X77.012 Y75.443 E0.03499
G1 X78.080 Y73.525 E0.06884
G1 X78.648 Y72.575 E0.03471
G1 X79.835 Y70.725 E0.06893
G1 X81.100 Y68.922 E0.06903
G1 X82.438 Y67.174 E0.06903
M73 P0 R114
G1 X83.845 Y65.485 E0.06893
G1 X84.580 Y64.657 E0.03471
G1 X86.089 Y63.059 E0.06893
G1 X87.666 Y61.522 E0.06903
G1 X89.303 Y60.055 E0.06893
G1 X90.149 Y59.342 E0.03471
G1 X91.874 Y57.979 E0.06893
G1 X93.657 Y56.686 E0.06903
G1 X95.491 Y55.469 E0.06903
G1 X97.364 Y54.335 E0.06865
G1 X98.336 Y53.787 E0.03499
G1 X100.284 Y52.768 E0.06893
G1 X102.264 Y51.834 E0.06865
G1 X103.288 Y51.389 E0.03499
G1 X105.331 Y50.577 E0.06893
G1 X107.406 Y49.850 E0.06893
G1 X108.461 Y49.517 E0.03471
G1 X110.577 Y48.920 E0.06893
G1 X112.719 Y48.412 E0.06903
G1 X114.877 Y47.992 E0.06893
G1 X115.970 Y47.815 E0.03471
G1 X118.150 Y47.531 E0.06893
G1 X120.340 Y47.338 E0.06893
G1 X121.445 Y47.275 E0.03471
G1 X123.634 Y47.218 E0.06865
G1 X125.844 Y47.252 E0.06931
G1 X128.042 Y47.377 E0.06903
G1 X130.233 Y47.594 E0.06903
G1 X132.401 Y47.899 E0.06865
G1 X133.501 Y48.089 E0.03499
G1 X135.655 Y48.530 E0.06893
G1 X137.791 Y49.062 E0.06903
G1 X139.904 Y49.681 E0.06903
G1 X141.986 Y50.386 E0.06893
G1 X143.023 Y50.774 E0.03471
G1 X145.057 Y51.607 E0.06893
G1 X147.055 Y52.524 E0.06893
G1 X148.047 Y53.017 E0.03471
G1 X149.981 Y54.055 E0.06884
G1 X150.940 Y54.608 E0.03471
G1 X152.801 Y55.762 E0.06865
G1 X154.630 Y57.003 E0.06931
G1 X156.399 Y58.313 E0.06903
G1 X158.110 Y59.694 E0.06893
G1 X158.949 Y60.416 E0.03471
G1 X160.568 Y61.898 E0.06884
G1 X161.361 Y62.671 E0.03471
G1 X162.533 Y63.885 E0.05291
G1 X162.261 Y64.147 F10800.000
G1 F1200
G1 X162.604 Y64.503 E0.01549
G1 X164.061 Y66.144 E0.06882
G1 X165.443 Y67.838 E0.06854
G1 X166.753 Y69.588 E0.06854
G1 X167.990 Y71.389 E0.06850
G1 X168.581 Y72.311 E0.03434
G1 X169.702 Y74.186 E0.06850
G1 X170.746 Y76.107 E0.06854
G1 X171.708 Y78.068 E0.06850
G1 X172.160 Y79.066 E0.03434
G1 X172.999 Y81.083 E0.06850
G1 X173.753 Y83.134 E0.06850
G1 X174.099 Y84.172 E0.03430
G1 X174.423 Y85.217 E0.03430
G1 X175.002 Y87.314 E0.06822
G1 X175.499 Y89.452 E0.06882
G1 X175.904 Y91.599 E0.06850
G1 X176.074 Y92.681 E0.03434
G1 X176.344 Y94.840 E0.06822
G1 X176.526 Y97.027 E0.06882
G1 X176.617 Y99.211 E0.06854
G1 X176.617 Y101.397 E0.06854
G1 X176.526 Y103.580 E0.06850
G1 X176.447 Y104.672 E0.03434
G1 X176.221 Y106.844 E0.06847
G1 X176.074 Y107.930 E0.03434
G1 X175.715 Y110.075 E0.06822
G1 X175.263 Y112.223 E0.06882
G1 X174.725 Y114.341 E0.06850
G1 X174.422 Y115.393 E0.03434
G1 X173.756 Y117.465 E0.06822
G1 X172.999 Y119.525 E0.06882
