; generated by PrusaSlicer 2.1.1+win64 on 2020-03-22 at 20:50:45 UTC

; 

; external perimeters extrusion width = 0.60mm
; perimeters extrusion width = 0.43mm
; infill extrusion width = 0.45mm
; solid infill extrusion width = 0.70mm
; top infill extrusion width = 0.43mm
; first layer extrusion width = 0.42mm

M73 P0 R123
M201 X9000 Y9000 Z500 E10000 ; sets maximum accelerations, mm/sec^2
M203 X500 Y500 Z12 E120 ; sets maximum feedrates, mm/sec
M204 P2000 R1500 T2000 ; sets acceleration (P, T) and retract acceleration (R), mm/sec^2
M205 X10.00 Y10.00 Z0.20 E2.50 ; sets the jerk limits, mm/sec
M205 S0 T0 ; sets the minimum extruding and travel feed rate, mm/sec
M107
M862.3 P "MK2SMM" ; printer model check
M862.1 P0.4 ; nozzle diameter check
M115 U3.2.3 ; tell printer latest fw version
M204 S2000 T1500 ; MK2 firmware only supports the old M204 format
; Start G-Code sequence START
T0
M104 S215 ; set extruder temp
M140 S60 ; set bed temp
M190 S60 ; wait for bed temp
M109 S215 ; wait for extruder temp
G90 ; use absolute coordinates
M83 ; use relative distances for extrusion
G28 W
G80
G92 E0.0
M203 E100 ; set max feedrate
M92 E140 ; E-steps per filament milimeter

G1 Z0.250 F7200.000
G1 X50.0 E80.0 F1000.0
M73 P0 R123
G1 X160.0 E20.0 F1000.0
G1 Z0.200 F7200.000
G1 X220.0 E13 F1000.0
G1 X240.0 E0 F1000.0

G92 E0.0
G21 ; set units to millimeters
G90 ; use absolute coordinates
M83 ; use relative distances for extrusion
M900 K200 ; Filament gcode
;BEFORE_LAYER_CHANGE
G92 E0.0
;0.2


G1 Z0.200 F10800.000
;AFTER_LAYER_CHANGE
;0.2
G1 E-4.00000 F4800.00000
G1 Z0.800 F10800.000
G1 X56.628 Y53.237
G1 Z0.200
G1 E4.00000 F3000.00000
M204 S1000
G1 F1200
G1 X57.333 Y52.769 E0.02653
G1 X58.159 Y52.603 E0.02642
G1 X181.672 Y52.603 E3.87267
G1 X182.502 Y52.768 E0.02653
G1 X183.208 Y53.236 E0.02653
G1 X183.683 Y53.936 E0.02653
G1 X183.857 Y54.764 E0.02653
G1 X183.857 Y174.803 E3.76373
G1 X183.687 Y175.639 E0.02676
G1 X183.209 Y176.346 E0.02676
G1 X182.504 Y176.814 E0.02653
G1 X181.678 Y176.980 E0.02642
G1 X58.169 Y176.980 E3.87255
G1 X57.325 Y176.811 E0.02698
G1 X56.614 Y176.332 E0.02687
G1 X56.147 Y175.631 E0.02642
G1 X55.980 Y174.805 E0.02642
G1 X55.980 Y54.792 E3.76293
G1 X56.149 Y53.948 E0.02698
G1 X56.595 Y53.287 E0.02499
G1 E-2.40000 F4800.00000
G1 F8640
G1 X57.333 Y52.769 E-0.47604
G1 X58.159 Y52.603 E-0.44472
G1 X59.295 Y52.603 E-0.59924
G1 E-0.08000 F4800.00000
G1 Z0.800 F10800.000
G1 X58.756 Y55.379
G1 Z0.200
G1 E4.00000 F3000.00000
G1 F1200
G1 X181.082 Y55.379 E3.83544
G1 X181.082 Y174.205 E3.72570
G1 X58.756 Y174.205 E3.83544
G1 X58.756 Y55.439 E3.72382
M73 P0 R122
G1 X58.379 Y55.002 F10800.000
G1 F1200
G1 X181.459 Y55.002 E3.85909
G1 X181.459 Y174.582 E3.74935
G1 X58.379 Y174.582 E3.85909
G1 X58.379 Y55.062 E3.74747
G1 X58.765 Y55.103 F10800.000
G1 E-2.40000 F4800.00000
G1 F8640
G1 X61.259 Y55.060 E-1.52000
G1 E-0.08000 F4800.00000
G1 Z0.800 F10800.000
G1 X58.869 Y173.328
G1 Z0.200
G1 E4.00000 F3000.00000
G1 F1200
G1 X59.462 Y173.922 E0.02634
G1 X59.996 Y173.922 E0.01676
G1 X59.038 Y172.964 E0.04251
G1 X59.038 Y172.430 E0.01676
G1 X60.530 Y173.922 E0.06621
G1 X61.064 Y173.922 E0.01676
G1 X59.038 Y171.896 E0.08990
G1 X59.038 Y171.363 E0.01676
G1 X61.598 Y173.922 E0.11360
G1 X62.131 Y173.922 E0.01676
G1 X59.038 Y170.829 E0.13730
G1 X59.038 Y170.295 E0.01676
G1 X62.665 Y173.922 E0.16100
G1 X63.199 Y173.922 E0.01676
G1 X59.038 Y169.761 E0.18470
G1 X59.038 Y169.227 E0.01676
G1 X63.733 Y173.922 E0.20840
G1 X64.267 Y173.922 E0.01676
G1 X59.038 Y168.693 E0.23210
G1 X59.038 Y168.159 E0.01676
G1 X64.801 Y173.922 E0.25580
G1 X65.335 Y173.922 E0.01676
G1 X59.038 Y167.625 E0.27950
G1 X59.038 Y167.092 E0.01676
G1 X65.869 Y173.922 E0.30320
G1 X66.402 Y173.922 E0.01676
G1 X59.038 Y166.558 E0.32690
G1 X59.038 Y166.024 E0.01676
G1 X66.936 Y173.922 E0.35060
G1 X67.470 Y173.922 E0.01676
G1 X59.038 Y165.490 E0.37429
G1 X59.038 Y164.956 E0.01676
G1 X68.004 Y173.922 E0.39799
G1 X68.538 Y173.922 E0.01676
G1 X59.038 Y164.422 E0.42169
G1 X59.038 Y163.888 E0.01676
G1 X69.072 Y173.922 E0.44539
G1 X69.606 Y173.922 E0.01676
G1 X59.038 Y163.355 E0.46909
G1 X59.038 Y162.821 E0.01676
G1 X70.140 Y173.922 E0.49279
G1 X70.673 Y173.922 E0.01676
G1 X59.038 Y162.287 E0.51649
G1 X59.038 Y161.753 E0.01676
G1 X71.207 Y173.922 E0.54019
G1 X71.741 Y173.922 E0.01676
G1 X59.038 Y161.219 E0.56389
G1 X59.038 Y160.685 E0.01676
G1 X72.275 Y173.922 E0.58759
G1 X72.809 Y173.922 E0.01676
G1 X59.038 Y160.151 E0.61129
G1 X59.038 Y159.617 E0.01676
G1 X73.343 Y173.922 E0.63498
G1 X73.877 Y173.922 E0.01676
G1 X59.038 Y159.084 E0.65868
G1 X59.038 Y158.550 E0.01676
G1 X74.410 Y173.922 E0.68238
G1 X74.944 Y173.922 E0.01676
G1 X59.038 Y158.016 E0.70608
G1 X59.038 Y157.482 E0.01676
G1 X75.478 Y173.922 E0.72978
G1 X76.012 Y173.922 E0.01676
G1 X59.038 Y156.948 E0.75348
G1 X59.038 Y156.414 E0.01676
G1 X76.546 Y173.922 E0.77718
G1 X77.080 Y173.922 E0.01676
G1 X59.038 Y155.880 E0.80088
G1 X59.038 Y155.347 E0.01676
G1 X77.614 Y173.922 E0.82458
G1 X78.148 Y173.922 E0.01676
G1 X59.038 Y154.813 E0.84828
G1 X59.038 Y154.279 E0.01676
G1 X78.681 Y173.922 E0.87198
G1 X79.215 Y173.922 E0.01676
G1 X59.038 Y153.745 E0.89568
G1 X59.038 Y153.211 E0.01676
G1 X79.749 Y173.922 E0.91937
G1 X80.283 Y173.922 E0.01676
G1 X59.038 Y152.677 E0.94307
G1 X59.038 Y152.143 E0.01676
G1 X80.817 Y173.922 E0.96677
G1 X81.351 Y173.922 E0.01676
G1 X59.038 Y151.609 E0.99047
M73 P1 R121
G1 X59.038 Y151.076 E0.01676
G1 X81.885 Y173.922 E1.01417
G1 X82.418 Y173.922 E0.01676
G1 X59.038 Y150.542 E1.03787
G1 X59.038 Y150.008 E0.01676
G1 X82.952 Y173.922 E1.06157
G1 X83.486 Y173.922 E0.01676
G1 X59.038 Y149.474 E1.08527
G1 X59.038 Y148.940 E0.01676
G1 X84.020 Y173.922 E1.10897
G1 X84.554 Y173.922 E0.01676
G1 X59.038 Y148.406 E1.13267
G1 X59.038 Y147.872 E0.01676
G1 X85.088 Y173.922 E1.15637
G1 X85.622 Y173.922 E0.01676
G1 X59.038 Y147.338 E1.18006
G1 X59.038 Y146.805 E0.01676
G1 X86.156 Y173.922 E1.20376
G1 X86.689 Y173.922 E0.01676
G1 X59.038 Y146.271 E1.22746
G1 X59.038 Y145.737 E0.01676
G1 X87.223 Y173.922 E1.25116
G1 X87.757 Y173.922 E0.01676
G1 X59.038 Y145.203 E1.27486
G1 X59.038 Y144.669 E0.01676
G1 X88.291 Y173.922 E1.29856
G1 X88.825 Y173.922 E0.01676
G1 X59.038 Y144.135 E1.32226
G1 X59.038 Y143.601 E0.01676
G1 X89.359 Y173.922 E1.34596
G1 X89.893 Y173.922 E0.01676
G1 X59.038 Y143.068 E1.36966
G1 X59.038 Y142.534 E0.01676
G1 X90.427 Y173.922 E1.39336
G1 X90.960 Y173.922 E0.01676
G1 X59.038 Y142.000 E1.41706
G1 X59.038 Y141.466 E0.01676
G1 X91.494 Y173.922 E1.44076
G1 X92.028 Y173.922 E0.01676
G1 X59.038 Y140.932 E1.46445
G1 X59.038 Y140.398 E0.01676
G1 X92.562 Y173.922 E1.48815
G1 X93.096 Y173.922 E0.01676
G1 X59.038 Y139.864 E1.51185
G1 X59.038 Y139.330 E0.01676
G1 X93.630 Y173.922 E1.53555
G1 X94.164 Y173.922 E0.01676
G1 X59.038 Y138.797 E1.55925
G1 X59.038 Y138.263 E0.01676
G1 X94.697 Y173.922 E1.58295
G1 X95.231 Y173.922 E0.01676
G1 X59.038 Y137.729 E1.60665
G1 X59.038 Y137.195 E0.01676
G1 X95.765 Y173.922 E1.63035
G1 X96.299 Y173.922 E0.01676
G1 X59.038 Y136.661 E1.65405
M73 P2 R120
G1 X59.038 Y136.127 E0.01676
G1 X96.833 Y173.922 E1.67775
G1 X97.367 Y173.922 E0.01676
G1 X59.038 Y135.593 E1.70145
G1 X59.038 Y135.060 E0.01676
G1 X97.901 Y173.922 E1.72515
G1 X98.435 Y173.922 E0.01676
G1 X59.038 Y134.526 E1.74884
G1 X59.038 Y133.992 E0.01676
G1 X98.968 Y173.922 E1.77254
G1 X99.502 Y173.922 E0.01676
G1 X59.038 Y133.458 E1.79624
G1 X59.038 Y132.924 E0.01676
G1 X100.036 Y173.922 E1.81994
G1 X100.570 Y173.922 E0.01676
G1 X59.038 Y132.390 E1.84364
G1 X59.038 Y131.856 E0.01676
G1 X101.104 Y173.922 E1.86734
G1 X101.638 Y173.922 E0.01676
G1 X59.038 Y131.322 E1.89104
G1 X59.038 Y130.789 E0.01676
G1 X102.172 Y173.922 E1.91474
G1 X102.705 Y173.922 E0.01676
G1 X59.038 Y130.255 E1.93844
G1 X59.038 Y129.721 E0.01676
G1 X103.239 Y173.922 E1.96214
G1 X103.773 Y173.922 E0.01676
G1 X59.038 Y129.187 E1.98584
G1 X59.038 Y128.653 E0.01676
G1 X104.307 Y173.922 E2.00953
G1 X104.841 Y173.922 E0.01676
G1 X59.038 Y128.119 E2.03323
G1 X59.038 Y127.585 E0.01676
G1 X105.375 Y173.922 E2.05693
G1 X105.909 Y173.922 E0.01676
G1 X59.038 Y127.051 E2.08063
G1 X59.038 Y126.518 E0.01676
G1 X106.443 Y173.922 E2.10433
G1 X106.976 Y173.922 E0.01676
G1 X59.038 Y125.984 E2.12803
M73 P3 R119
G1 X59.038 Y125.450 E0.01676
G1 X107.510 Y173.922 E2.15173
G1 X108.044 Y173.922 E0.01676
G1 X59.038 Y124.916 E2.17543
G1 X59.038 Y124.382 E0.01676
G1 X108.578 Y173.922 E2.19913
G1 X109.112 Y173.922 E0.01676
G1 X59.038 Y123.848 E2.22283
G1 X59.038 Y123.314 E0.01676
G1 X109.646 Y173.922 E2.24653
G1 X110.180 Y173.922 E0.01676
G1 X59.038 Y122.781 E2.27023
G1 X59.038 Y122.247 E0.01676
G1 X110.714 Y173.922 E2.29392
G1 X111.247 Y173.922 E0.01676
G1 X59.038 Y121.713 E2.31762
G1 X59.038 Y121.179 E0.01676
G1 X111.781 Y173.922 E2.34132
G1 X112.315 Y173.922 E0.01676
G1 X59.038 Y120.645 E2.36502
G1 X59.038 Y120.111 E0.01676
G1 X112.849 Y173.922 E2.38872
G1 X113.383 Y173.922 E0.01676
G1 X59.038 Y119.577 E2.41242
G1 X59.038 Y119.043 E0.01676
G1 X113.917 Y173.922 E2.43612
G1 X114.451 Y173.922 E0.01676
G1 X59.038 Y118.510 E2.45982
G1 X59.038 Y117.976 E0.01676
G1 X114.984 Y173.922 E2.48352
G1 X115.518 Y173.922 E0.01676
G1 X59.038 Y117.442 E2.50722
G1 X59.038 Y116.908 E0.01676
G1 X116.052 Y173.922 E2.53092
M73 P4 R118
G1 X116.586 Y173.922 E0.01676
G1 X59.038 Y116.374 E2.55461
G1 X59.038 Y115.840 E0.01676
G1 X117.120 Y173.922 E2.57831
G1 X117.654 Y173.922 E0.01676
G1 X59.038 Y115.306 E2.60201
G1 X59.038 Y114.773 E0.01676
G1 X118.188 Y173.922 E2.62571
G1 X118.722 Y173.922 E0.01676
G1 X59.038 Y114.239 E2.64941
G1 X59.038 Y113.705 E0.01676
G1 X119.255 Y173.922 E2.67311
G1 X119.789 Y173.922 E0.01676
G1 X59.038 Y113.171 E2.69681
G1 X59.038 Y112.637 E0.01676
G1 X120.323 Y173.922 E2.72051
G1 X120.857 Y173.922 E0.01676
G1 X59.038 Y112.103 E2.74421
G1 X59.038 Y111.569 E0.01676
G1 X121.391 Y173.922 E2.76791
G1 X121.925 Y173.922 E0.01676
G1 X59.038 Y111.035 E2.79161
G1 X59.038 Y110.502 E0.01676
G1 X122.459 Y173.922 E2.81531
G1 X122.992 Y173.922 E0.01676
G1 X59.038 Y109.968 E2.83900
G1 X59.038 Y109.434 E0.01676
G1 X123.526 Y173.922 E2.86270
M73 P5 R117
G1 X124.060 Y173.922 E0.01676
G1 X59.038 Y108.900 E2.88640
G1 X59.038 Y108.366 E0.01676
G1 X124.594 Y173.922 E2.91010
G1 X125.128 Y173.922 E0.01676
G1 X59.038 Y107.832 E2.93380
G1 X59.038 Y107.298 E0.01676
G1 X125.662 Y173.922 E2.95750
G1 X126.196 Y173.922 E0.01676
G1 X59.038 Y106.764 E2.98120
G1 X59.038 Y106.231 E0.01676
G1 X126.730 Y173.922 E3.00490
G1 X127.263 Y173.922 E0.01676
G1 X59.038 Y105.697 E3.02860
G1 X59.038 Y105.163 E0.01676
G1 X127.797 Y173.922 E3.05230
G1 X128.331 Y173.922 E0.01676
G1 X59.038 Y104.629 E3.07600
G1 X59.038 Y104.095 E0.01676
G1 X128.865 Y173.922 E3.09969
G1 X129.399 Y173.922 E0.01676
G1 X59.038 Y103.561 E3.12339
G1 X59.038 Y103.027 E0.01676
G1 X129.933 Y173.922 E3.14709
G1 X130.467 Y173.922 E0.01676
G1 X59.038 Y102.494 E3.17079
M73 P5 R116
G1 X59.038 Y101.960 E0.01676
G1 X131.001 Y173.922 E3.19449
G1 X131.534 Y173.922 E0.01676
G1 X59.038 Y101.426 E3.21819
G1 X59.038 Y100.892 E0.01676
G1 X132.068 Y173.922 E3.24189
G1 X132.602 Y173.922 E0.01676
G1 X59.038 Y100.358 E3.26559
G1 X59.038 Y99.824 E0.01676
G1 X133.136 Y173.922 E3.28929
G1 X133.670 Y173.922 E0.01676
G1 X59.038 Y99.290 E3.31299
G1 X59.038 Y98.756 E0.01676
G1 X134.204 Y173.922 E3.33669
G1 X134.738 Y173.922 E0.01676
G1 X59.038 Y98.223 E3.36039
G1 X59.038 Y97.689 E0.01676
G1 X135.271 Y173.922 E3.38408
G1 X135.805 Y173.922 E0.01676
G1 X59.038 Y97.155 E3.40778
G1 X59.038 Y96.621 E0.01676
G1 X136.339 Y173.922 E3.43148
G1 X136.873 Y173.922 E0.01676
G1 X59.038 Y96.087 E3.45518
M73 P6 R115
G1 X59.038 Y95.553 E0.01676
G1 X137.407 Y173.922 E3.47888
G1 X137.941 Y173.922 E0.01676
G1 X59.038 Y95.019 E3.50258
G1 X59.038 Y94.486 E0.01676
G1 X138.475 Y173.922 E3.52628
G1 X139.009 Y173.922 E0.01676
G1 X59.038 Y93.952 E3.54998
G1 X59.038 Y93.418 E0.01676
G1 X139.542 Y173.922 E3.57368
G1 X140.076 Y173.922 E0.01676
G1 X59.038 Y92.884 E3.59738
G1 X59.038 Y92.350 E0.01676
G1 X140.610 Y173.922 E3.62108
G1 X141.144 Y173.922 E0.01676
G1 X59.038 Y91.816 E3.64478
G1 X59.038 Y91.282 E0.01676
G1 X141.678 Y173.922 E3.66847
G1 X142.212 Y173.922 E0.01676
G1 X59.038 Y90.748 E3.69217
G1 X59.038 Y90.215 E0.01676
G1 X142.746 Y173.922 E3.71587
M73 P7 R114
G1 X143.279 Y173.922 E0.01676
G1 X59.038 Y89.681 E3.73957
G1 X59.038 Y89.147 E0.01676
G1 X143.813 Y173.922 E3.76327
G1 X144.347 Y173.922 E0.01676
G1 X59.038 Y88.613 E3.78697
G1 X59.038 Y88.079 E0.01676
G1 X144.881 Y173.922 E3.81067
G1 X145.415 Y173.922 E0.01676
G1 X59.038 Y87.545 E3.83437
G1 X59.038 Y87.011 E0.01676
G1 X145.949 Y173.922 E3.85807
G1 X146.483 Y173.922 E0.01676
G1 X59.038 Y86.477 E3.88177
G1 X59.038 Y85.944 E0.01676
G1 X147.017 Y173.922 E3.90547
G1 X147.550 Y173.922 E0.01676
G1 X59.038 Y85.410 E3.92916
G1 X59.038 Y84.876 E0.01676
G1 X148.084 Y173.922 E3.95286
M73 P8 R113
G1 X148.618 Y173.922 E0.01676
G1 X59.038 Y84.342 E3.97656
G1 X59.038 Y83.808 E0.01676
G1 X149.152 Y173.922 E4.00026
G1 X149.686 Y173.922 E0.01676
G1 X59.038 Y83.274 E4.02396
G1 X59.038 Y82.740 E0.01676
G1 X150.220 Y173.922 E4.04766
G1 X150.754 Y173.922 E0.01676
G1 X59.038 Y82.207 E4.07136
G1 X59.038 Y81.673 E0.01676
G1 X151.288 Y173.922 E4.09506
G1 X151.821 Y173.922 E0.01676
G1 X59.038 Y81.139 E4.11876
G1 X59.038 Y80.605 E0.01676
G1 X152.355 Y173.922 E4.14246
G1 X152.889 Y173.922 E0.01676
G1 X59.038 Y80.071 E4.16616
G1 X59.038 Y79.537 E0.01676
G1 X153.423 Y173.922 E4.18986
M73 P9 R112
G1 X153.957 Y173.922 E0.01676
G1 X59.038 Y79.003 E4.21355
G1 X59.038 Y78.469 E0.01676
G1 X154.491 Y173.922 E4.23725
G1 X155.025 Y173.922 E0.01676
G1 X59.038 Y77.936 E4.26095
G1 X59.038 Y77.402 E0.01676
G1 X155.558 Y173.922 E4.28465
G1 X156.092 Y173.922 E0.01676
G1 X59.038 Y76.868 E4.30835
G1 X59.038 Y76.334 E0.01676
G1 X156.626 Y173.922 E4.33205
G1 X157.160 Y173.922 E0.01676
G1 X59.038 Y75.800 E4.35575
G1 X59.038 Y75.266 E0.01676
G1 X157.694 Y173.922 E4.37945
G1 X158.228 Y173.922 E0.01676
G1 X59.038 Y74.732 E4.40315
M73 P10 R111
G1 X59.038 Y74.199 E0.01676
G1 X158.762 Y173.922 E4.42685
G1 X159.296 Y173.922 E0.01676
G1 X59.038 Y73.665 E4.45055
G1 X59.038 Y73.131 E0.01676
G1 X159.829 Y173.922 E4.47424
G1 X160.363 Y173.922 E0.01676
G1 X59.038 Y72.597 E4.49794
G1 X59.038 Y72.063 E0.01676
G1 X160.897 Y173.922 E4.52164
G1 X161.431 Y173.922 E0.01676
G1 X59.038 Y71.529 E4.54534
G1 X59.038 Y70.995 E0.01676
G1 X161.965 Y173.922 E4.56904
G1 X162.499 Y173.922 E0.01676
G1 X59.038 Y70.461 E4.59274
G1 X59.038 Y69.928 E0.01676
G1 X163.033 Y173.922 E4.61644
M73 P11 R110
G1 X163.566 Y173.922 E0.01676
G1 X59.038 Y69.394 E4.64014
G1 X59.038 Y68.860 E0.01676
G1 X164.100 Y173.922 E4.66384
G1 X164.634 Y173.922 E0.01676
G1 X59.038 Y68.326 E4.68754
G1 X59.038 Y67.792 E0.01676
G1 X165.168 Y173.922 E4.71124
G1 X165.702 Y173.922 E0.01676
G1 X59.038 Y67.258 E4.73494
G1 X59.038 Y66.724 E0.01676
G1 X166.236 Y173.922 E4.75863
G1 X166.770 Y173.922 E0.01676
G1 X59.038 Y66.190 E4.78233
G1 X59.038 Y65.657 E0.01676
G1 X167.304 Y173.922 E4.80603
M73 P11 R108
G1 X167.837 Y173.922 E0.01676
G1 X59.038 Y65.123 E4.82973
G1 X59.038 Y64.589 E0.01676
G1 X168.371 Y173.922 E4.85343
G1 X168.905 Y173.922 E0.01676
G1 X59.038 Y64.055 E4.87713
G1 X59.038 Y63.521 E0.01676
G1 X169.439 Y173.922 E4.90083
G1 X169.973 Y173.922 E0.01676
G1 X59.038 Y62.987 E4.92453
G1 X59.038 Y62.453 E0.01676
G1 X170.507 Y173.922 E4.94823
G1 X171.041 Y173.922 E0.01676
G1 X59.038 Y61.920 E4.97193
G1 X59.038 Y61.386 E0.01676
G1 X171.575 Y173.922 E4.99563
M73 P12 R107
G1 X172.108 Y173.922 E0.01676
G1 X59.038 Y60.852 E5.01932
G1 X59.038 Y60.318 E0.01676
G1 X172.642 Y173.922 E5.04302
G1 X173.176 Y173.922 E0.01676
G1 X59.038 Y59.784 E5.06672
G1 X59.038 Y59.250 E0.01676
G1 X173.710 Y173.922 E5.09042
G1 X174.244 Y173.922 E0.01676
G1 X59.038 Y58.716 E5.11412
G1 X59.038 Y58.182 E0.01676
G1 X174.778 Y173.922 E5.13782
G1 X175.312 Y173.922 E0.01676
G1 X59.038 Y57.649 E5.16152
G1 X59.038 Y57.115 E0.01676
G1 X175.845 Y173.922 E5.18522
M73 P13 R106
G1 X176.379 Y173.922 E0.01676
G1 X59.038 Y56.581 E5.20892
G1 X59.038 Y56.047 E0.01676
G1 X176.913 Y173.922 E5.23262
