; generated by PrusaSlicer 2.1.1+win64 on 2020-03-22 at 20:50:24 UTC

; 

; external perimeters extrusion width = 0.60mm
; perimeters extrusion width = 0.43mm
; infill extrusion width = 0.45mm
; solid infill extrusion width = 0.70mm
; top infill extrusion width = 0.43mm
; first layer extrusion width = 0.42mm

M73 P0 R57
M201 X9000 Y9000 Z500 E10000 ; sets maximum accelerations, mm/sec^2
M203 X500 Y500 Z12 E120 ; sets maximum feedrates, mm/sec
M204 P2000 R1500 T2000 ; sets acceleration (P, T) and retract acceleration (R), mm/sec^2
M205 X10.00 Y10.00 Z0.20 E2.50 ; sets the jerk limits, mm/sec
M205 S0 T0 ; sets the minimum extruding and travel feed rate, mm/sec
M107
M862.3 P "MK2SMM" ; printer model check
M862.1 P0.4 ; nozzle diameter check
M115 U3.2.3 ; tell printer latest fw version
M204 S2000 T1500 ; MK2 firmware only supports the old M204 format
; Start G-Code sequence START
T0
M104 S215 ; set extruder temp
M140 S60 ; set bed temp
M190 S60 ; wait for bed temp
M109 S215 ; wait for extruder temp
G90 ; use absolute coordinates
M83 ; use relative distances for extrusion
G28 W
G80
G92 E0.0
M203 E100 ; set max feedrate
M92 E140 ; E-steps per filament milimeter

G1 Z0.250 F7200.000
G1 X50.0 E80.0 F1000.0
M73 P0 R57
G1 X160.0 E20.0 F1000.0
G1 Z0.200 F7200.000
G1 X220.0 E13 F1000.0
G1 X240.0 E0 F1000.0

G92 E0.0
G21 ; set units to millimeters
G90 ; use absolute coordinates
M83 ; use relative distances for extrusion
M900 K200 ; Filament gcode
;BEFORE_LAYER_CHANGE
G92 E0.0
;0.2


G1 Z0.200 F10800.000
;AFTER_LAYER_CHANGE
;0.2
G1 E-4.00000 F4800.00000
G1 Z0.800 F10800.000
G1 X85.073 Y47.412
G1 Z0.200
G1 E4.00000 F3000.00000
M204 S1000
G1 F1200
G1 X85.415 Y46.963 E0.01771
G1 X85.861 Y46.616 E0.01771
G1 X86.381 Y46.394 E0.01771
G1 X86.940 Y46.313 E0.01771
G1 X156.975 Y46.313 E2.19590
G1 X157.801 Y46.477 E0.02642
G1 X158.507 Y46.943 E0.02653
G1 X158.982 Y47.639 E0.02642
G1 X159.159 Y48.467 E0.02653
G1 X159.160 Y168.505 E3.76373
G1 X159.085 Y169.069 E0.01783
G1 X158.869 Y169.591 E0.01771
G1 X158.527 Y170.041 E0.01771
G1 X158.078 Y170.390 E0.01783
G1 X157.555 Y170.611 E0.01783
G1 X156.995 Y170.690 E0.01771
G1 X86.964 Y170.690 E2.19579
G1 X86.404 Y170.615 E0.01771
G1 X85.882 Y170.400 E0.01771
G1 X85.429 Y170.055 E0.01783
G1 X85.080 Y169.602 E0.01794
G1 X84.860 Y169.078 E0.01783
G1 X84.783 Y168.515 E0.01783
G1 X84.783 Y48.498 E3.76304
G1 X84.857 Y47.934 E0.01783
G1 X85.050 Y47.468 E0.01583
G1 X87.558 Y49.089 F10800.000
G1 F1200
G1 X156.384 Y49.089 E2.15799
G1 X156.384 Y167.915 E3.72570
G1 X87.558 Y167.915 E2.15799
G1 X87.558 Y49.149 E3.72382
G1 X87.181 Y48.712 F10800.000
G1 F1200
G1 X156.761 Y48.712 E2.18163
G1 X156.761 Y168.292 E3.74935
M73 P1 R56
G1 X87.181 Y168.292 E2.18163
G1 X87.181 Y48.772 E3.74747
G1 X87.557 Y48.848 F10800.000
G1 E-2.40000 F4800.00000
G1 F8640
G1 X90.061 Y48.769 E-1.52000
G1 E-0.08000 F4800.00000
G1 Z0.800 F10800.000
G1 X156.271 Y49.965
G1 Z0.200
G1 E4.00000 F3000.00000
G1 F1200
G1 X155.678 Y49.372 E0.02631
G1 X155.144 Y49.372 E0.01674
G1 X156.101 Y50.328 E0.04245
G1 X156.101 Y50.862 E0.01674
G1 X154.611 Y49.372 E0.06612
G1 X154.077 Y49.372 E0.01674
G1 X156.101 Y51.395 E0.08979
G1 X156.101 Y51.929 E0.01674
G1 X153.544 Y49.372 E0.11346
G1 X153.010 Y49.372 E0.01674
G1 X156.101 Y52.463 E0.13713
G1 X156.101 Y52.996 E0.01674
G1 X152.477 Y49.372 E0.16080
G1 X151.943 Y49.372 E0.01674
G1 X156.101 Y53.530 E0.18447
G1 X156.101 Y54.063 E0.01674
G1 X151.410 Y49.372 E0.20814
G1 X150.876 Y49.372 E0.01674
G1 X156.101 Y54.597 E0.23181
G1 X156.101 Y55.130 E0.01674
G1 X150.342 Y49.372 E0.25549
G1 X149.809 Y49.372 E0.01674
G1 X156.101 Y55.664 E0.27916
G1 X156.101 Y56.197 E0.01674
G1 X149.275 Y49.372 E0.30283
G1 X148.742 Y49.372 E0.01674
G1 X156.101 Y56.731 E0.32650
G1 X156.101 Y57.264 E0.01674
G1 X148.208 Y49.372 E0.35017
G1 X147.675 Y49.372 E0.01674
G1 X156.101 Y57.798 E0.37384
G1 X156.101 Y58.332 E0.01674
G1 X147.141 Y49.372 E0.39751
G1 X146.608 Y49.372 E0.01674
G1 X156.101 Y58.865 E0.42118
G1 X156.101 Y59.399 E0.01674
G1 X146.074 Y49.372 E0.44485
G1 X145.541 Y49.372 E0.01674
G1 X156.101 Y59.932 E0.46852
G1 X156.101 Y60.466 E0.01674
G1 X145.007 Y49.372 E0.49219
G1 X144.473 Y49.372 E0.01674
G1 X156.101 Y60.999 E0.51586
G1 X156.101 Y61.533 E0.01674
G1 X143.940 Y49.372 E0.53953
G1 X143.406 Y49.372 E0.01674
G1 X156.101 Y62.066 E0.56320
G1 X156.101 Y62.600 E0.01674
G1 X142.873 Y49.372 E0.58687
G1 X142.339 Y49.372 E0.01674
G1 X156.101 Y63.133 E0.61054
G1 X156.101 Y63.667 E0.01674
G1 X141.806 Y49.372 E0.63421
G1 X141.272 Y49.372 E0.01674
G1 X156.101 Y64.201 E0.65788
G1 X156.101 Y64.734 E0.01674
G1 X140.739 Y49.372 E0.68155
G1 X140.205 Y49.372 E0.01674
G1 X156.101 Y65.268 E0.70523
G1 X156.101 Y65.801 E0.01674
G1 X139.671 Y49.372 E0.72890
G1 X139.138 Y49.372 E0.01674
G1 X156.101 Y66.335 E0.75257
G1 X156.101 Y66.868 E0.01674
G1 X138.604 Y49.372 E0.77624
G1 X138.071 Y49.372 E0.01674
G1 X156.101 Y67.402 E0.79991
G1 X156.101 Y67.935 E0.01674
G1 X137.537 Y49.372 E0.82358
G1 X137.004 Y49.372 E0.01674
G1 X156.101 Y68.469 E0.84725
G1 X156.101 Y69.002 E0.01674
G1 X136.470 Y49.372 E0.87092
G1 X135.937 Y49.372 E0.01674
G1 X156.101 Y69.536 E0.89459
G1 X156.101 Y70.070 E0.01674
G1 X135.403 Y49.372 E0.91826
G1 X134.870 Y49.372 E0.01674
G1 X156.101 Y70.603 E0.94193
G1 X156.101 Y71.137 E0.01674
G1 X134.336 Y49.372 E0.96560
G1 X133.802 Y49.372 E0.01674
G1 X156.101 Y71.670 E0.98927
G1 X156.101 Y72.204 E0.01674
G1 X133.269 Y49.372 E1.01294
G1 X132.735 Y49.372 E0.01674
G1 X156.101 Y72.737 E1.03661
G1 X156.101 Y73.271 E0.01674
G1 X132.202 Y49.372 E1.06028
G1 X131.668 Y49.372 E0.01674
G1 X156.101 Y73.804 E1.08395
G1 X156.101 Y74.338 E0.01674
G1 X131.135 Y49.372 E1.10762
G1 X130.601 Y49.372 E0.01674
G1 X156.101 Y74.871 E1.13129
G1 X156.101 Y75.405 E0.01674
G1 X130.068 Y49.372 E1.15496
G1 X129.534 Y49.372 E0.01674
G1 X156.101 Y75.939 E1.17864
G1 X156.101 Y76.472 E0.01674
G1 X129.001 Y49.372 E1.20231
M73 P3 R55
G1 X128.467 Y49.372 E0.01674
G1 X156.101 Y77.006 E1.22598
G1 X156.101 Y77.539 E0.01674
G1 X127.933 Y49.372 E1.24965
G1 X127.400 Y49.372 E0.01674
G1 X156.101 Y78.073 E1.27332
G1 X156.101 Y78.606 E0.01674
G1 X126.866 Y49.372 E1.29699
G1 X126.333 Y49.372 E0.01674
G1 X156.101 Y79.140 E1.32066
G1 X156.101 Y79.673 E0.01674
G1 X125.799 Y49.372 E1.34433
G1 X125.266 Y49.372 E0.01674
G1 X156.101 Y80.207 E1.36800
G1 X156.101 Y80.740 E0.01674
G1 X124.732 Y49.372 E1.39167
G1 X124.199 Y49.372 E0.01674
G1 X156.101 Y81.274 E1.41534
G1 X156.101 Y81.808 E0.01674
G1 X123.665 Y49.372 E1.43901
G1 X123.132 Y49.372 E0.01674
G1 X156.101 Y82.341 E1.46268
G1 X156.101 Y82.875 E0.01674
G1 X122.598 Y49.372 E1.48635
G1 X122.064 Y49.372 E0.01674
G1 X156.101 Y83.408 E1.51002
G1 X156.101 Y83.942 E0.01674
G1 X121.531 Y49.372 E1.53369
G1 X120.997 Y49.372 E0.01674
G1 X156.101 Y84.475 E1.55736
G1 X156.101 Y85.009 E0.01674
G1 X120.464 Y49.372 E1.58103
G1 X119.930 Y49.372 E0.01674
G1 X156.101 Y85.542 E1.60470
G1 X156.101 Y86.076 E0.01674
G1 X119.397 Y49.372 E1.62838
G1 X118.863 Y49.372 E0.01674
G1 X156.101 Y86.610 E1.65205
G1 X156.101 Y87.143 E0.01674
G1 X118.330 Y49.372 E1.67572
G1 X117.796 Y49.372 E0.01674
G1 X156.101 Y87.677 E1.69939
G1 X156.101 Y88.210 E0.01674
G1 X117.263 Y49.372 E1.72306
G1 X116.729 Y49.372 E0.01674
G1 X156.101 Y88.744 E1.74673
G1 X156.101 Y89.277 E0.01674
G1 X116.195 Y49.372 E1.77040
G1 X115.662 Y49.372 E0.01674
G1 X156.101 Y89.811 E1.79407
M73 P5 R54
G1 X156.101 Y90.344 E0.01674
G1 X115.128 Y49.372 E1.81774
G1 X114.595 Y49.372 E0.01674
G1 X156.101 Y90.878 E1.84141
G1 X156.101 Y91.411 E0.01674
G1 X114.061 Y49.372 E1.86508
G1 X113.528 Y49.372 E0.01674
G1 X156.101 Y91.945 E1.88875
G1 X156.101 Y92.479 E0.01674
G1 X112.994 Y49.372 E1.91242
G1 X112.461 Y49.372 E0.01674
G1 X156.101 Y93.012 E1.93609
G1 X156.101 Y93.546 E0.01674
G1 X111.927 Y49.372 E1.95976
G1 X111.394 Y49.372 E0.01674
G1 X156.101 Y94.079 E1.98343
G1 X156.101 Y94.613 E0.01674
G1 X110.860 Y49.372 E2.00710
G1 X110.326 Y49.372 E0.01674
G1 X156.101 Y95.146 E2.03077
G1 X156.101 Y95.680 E0.01674
G1 X109.793 Y49.372 E2.05444
G1 X109.259 Y49.372 E0.01674
G1 X156.101 Y96.213 E2.07812
G1 X156.101 Y96.747 E0.01674
G1 X108.726 Y49.372 E2.10179
G1 X108.192 Y49.372 E0.01674
G1 X156.101 Y97.280 E2.12546
G1 X156.101 Y97.814 E0.01674
G1 X107.659 Y49.372 E2.14913
G1 X107.125 Y49.372 E0.01674
G1 X156.101 Y98.348 E2.17280
G1 X156.101 Y98.881 E0.01674
G1 X106.592 Y49.372 E2.19647
G1 X106.058 Y49.372 E0.01674
G1 X156.101 Y99.415 E2.22014
G1 X156.101 Y99.948 E0.01674
G1 X105.525 Y49.372 E2.24381
M73 P7 R53
G1 X104.991 Y49.372 E0.01674
G1 X156.101 Y100.482 E2.26748
G1 X156.101 Y101.015 E0.01674
G1 X104.457 Y49.372 E2.29115
G1 X103.924 Y49.372 E0.01674
G1 X156.101 Y101.549 E2.31482
G1 X156.101 Y102.082 E0.01674
G1 X103.390 Y49.372 E2.33849
G1 X102.857 Y49.372 E0.01674
G1 X156.101 Y102.616 E2.36216
G1 X156.101 Y103.149 E0.01674
G1 X102.323 Y49.372 E2.38583
G1 X101.790 Y49.372 E0.01674
G1 X156.101 Y103.683 E2.40950
G1 X156.101 Y104.217 E0.01674
G1 X101.256 Y49.372 E2.43317
G1 X100.723 Y49.372 E0.01674
G1 X156.101 Y104.750 E2.45684
G1 X156.101 Y105.284 E0.01674
G1 X100.189 Y49.372 E2.48051
G1 X99.656 Y49.372 E0.01674
G1 X156.101 Y105.817 E2.50418
G1 X156.101 Y106.351 E0.01674
G1 X99.122 Y49.372 E2.52785
G1 X98.588 Y49.372 E0.01674
G1 X156.101 Y106.884 E2.55153
G1 X156.101 Y107.418 E0.01674
G1 X98.055 Y49.372 E2.57520
G1 X97.521 Y49.372 E0.01674
G1 X156.101 Y107.951 E2.59887
G1 X156.101 Y108.485 E0.01674
G1 X96.988 Y49.372 E2.62254
M73 P9 R52
G1 X96.454 Y49.372 E0.01674
G1 X156.101 Y109.018 E2.64621
G1 X156.101 Y109.552 E0.01674
G1 X95.921 Y49.372 E2.66988
G1 X95.387 Y49.372 E0.01674
G1 X156.101 Y110.086 E2.69355
G1 X156.101 Y110.619 E0.01674
G1 X94.854 Y49.372 E2.71722
G1 X94.320 Y49.372 E0.01674
G1 X156.101 Y111.153 E2.74089
G1 X156.101 Y111.686 E0.01674
G1 X93.787 Y49.372 E2.76456
G1 X93.253 Y49.372 E0.01674
G1 X156.101 Y112.220 E2.78823
G1 X156.101 Y112.753 E0.01674
G1 X92.719 Y49.372 E2.81190
G1 X92.186 Y49.372 E0.01674
G1 X156.101 Y113.287 E2.83557
G1 X156.101 Y113.820 E0.01674
G1 X91.652 Y49.372 E2.85924
G1 X91.119 Y49.372 E0.01674
G1 X156.101 Y114.354 E2.88291
G1 X156.101 Y114.887 E0.01674
G1 X90.585 Y49.372 E2.90658
G1 X90.052 Y49.372 E0.01674
G1 X156.101 Y115.421 E2.93025
G1 X156.101 Y115.955 E0.01674
G1 X89.518 Y49.372 E2.95392
M73 P10 R51
G1 X88.985 Y49.372 E0.01674
G1 X156.101 Y116.488 E2.97759
G1 X156.101 Y117.022 E0.01674
G1 X88.451 Y49.372 E3.00127
G1 X87.918 Y49.372 E0.01674
G1 X156.101 Y117.555 E3.02494
G1 X156.101 Y118.089 E0.01674
G1 X87.841 Y49.828 E3.02834
G1 X87.841 Y50.362 E0.01674
G1 X156.101 Y118.622 E3.02834
G1 X156.101 Y119.156 E0.01674
G1 X87.841 Y50.896 E3.02834
G1 X87.841 Y51.429 E0.01674
G1 X156.101 Y119.689 E3.02834
G1 X156.101 Y120.223 E0.01674
G1 X87.841 Y51.963 E3.02834
G1 X87.841 Y52.496 E0.01674
G1 X156.101 Y120.756 E3.02834
G1 X156.101 Y121.290 E0.01674
G1 X87.841 Y53.030 E3.02834
G1 X87.841 Y53.563 E0.01674
G1 X156.101 Y121.824 E3.02834
G1 X156.101 Y122.357 E0.01674
G1 X87.841 Y54.097 E3.02834
G1 X87.841 Y54.630 E0.01674
G1 X156.101 Y122.891 E3.02834
M73 P12 R50
G1 X156.101 Y123.424 E0.01674
G1 X87.841 Y55.164 E3.02834
G1 X87.841 Y55.697 E0.01674
G1 X156.101 Y123.958 E3.02834
G1 X156.101 Y124.491 E0.01674
G1 X87.841 Y56.231 E3.02834
G1 X87.841 Y56.765 E0.01674
G1 X156.101 Y125.025 E3.02834
G1 X156.101 Y125.558 E0.01674
G1 X87.841 Y57.298 E3.02834
G1 X87.841 Y57.832 E0.01674
G1 X156.101 Y126.092 E3.02834
G1 X156.101 Y126.625 E0.01674
G1 X87.841 Y58.365 E3.02834
G1 X87.841 Y58.899 E0.01674
G1 X156.101 Y127.159 E3.02834
G1 X156.101 Y127.693 E0.01674
G1 X87.841 Y59.432 E3.02834
G1 X87.841 Y59.966 E0.01674
G1 X156.101 Y128.226 E3.02834
G1 X156.101 Y128.760 E0.01674
G1 X87.841 Y60.499 E3.02834
G1 X87.841 Y61.033 E0.01674
G1 X156.101 Y129.293 E3.02834
G1 X156.101 Y129.827 E0.01674
G1 X87.841 Y61.566 E3.02834
M73 P14 R49
G1 X87.841 Y62.100 E0.01674
G1 X156.101 Y130.360 E3.02834
G1 X156.101 Y130.894 E0.01674
G1 X87.841 Y62.634 E3.02834
G1 X87.841 Y63.167 E0.01674
G1 X156.101 Y131.427 E3.02834
G1 X156.101 Y131.961 E0.01674
G1 X87.841 Y63.701 E3.02834
G1 X87.841 Y64.234 E0.01674
G1 X156.101 Y132.494 E3.02834
G1 X156.101 Y133.028 E0.01674
G1 X87.841 Y64.768 E3.02834
G1 X87.841 Y65.301 E0.01674
G1 X156.101 Y133.562 E3.02834
G1 X156.101 Y134.095 E0.01674
G1 X87.841 Y65.835 E3.02834
G1 X87.841 Y66.368 E0.01674
G1 X156.101 Y134.629 E3.02834
G1 X156.101 Y135.162 E0.01674
G1 X87.841 Y66.902 E3.02834
G1 X87.841 Y67.435 E0.01674
G1 X156.101 Y135.696 E3.02834
G1 X156.101 Y136.229 E0.01674
G1 X87.841 Y67.969 E3.02834
G1 X87.841 Y68.503 E0.01674
G1 X156.101 Y136.763 E3.02834
M73 P16 R48
G1 X156.101 Y137.296 E0.01674
G1 X87.841 Y69.036 E3.02834
G1 X87.841 Y69.570 E0.01674
G1 X156.101 Y137.830 E3.02834
G1 X156.101 Y138.363 E0.01674
G1 X87.841 Y70.103 E3.02834
G1 X87.841 Y70.637 E0.01674
G1 X156.101 Y138.897 E3.02834
G1 X156.101 Y139.431 E0.01674
G1 X87.841 Y71.170 E3.02834
G1 X87.841 Y71.704 E0.01674
G1 X156.101 Y139.964 E3.02834
G1 X156.101 Y140.498 E0.01674
G1 X87.841 Y72.237 E3.02834
G1 X87.841 Y72.771 E0.01674
G1 X156.101 Y141.031 E3.02834
G1 X156.101 Y141.565 E0.01674
G1 X87.841 Y73.304 E3.02834
G1 X87.841 Y73.838 E0.01674
G1 X156.101 Y142.098 E3.02834
G1 X156.101 Y142.632 E0.01674
G1 X87.841 Y74.372 E3.02834
G1 X87.841 Y74.905 E0.01674
G1 X156.101 Y143.165 E3.02834
G1 X156.101 Y143.699 E0.01674
G1 X87.841 Y75.439 E3.02834
M73 P18 R47
G1 X87.841 Y75.972 E0.01674
G1 X156.101 Y144.232 E3.02834
G1 X156.101 Y144.766 E0.01674
G1 X87.841 Y76.506 E3.02834
G1 X87.841 Y77.039 E0.01674
G1 X156.101 Y145.300 E3.02834
G1 X156.101 Y145.833 E0.01674
G1 X87.841 Y77.573 E3.02834
G1 X87.841 Y78.106 E0.01674
G1 X156.101 Y146.367 E3.02834
G1 X156.101 Y146.900 E0.01674
G1 X87.841 Y78.640 E3.02834
G1 X87.841 Y79.173 E0.01674
G1 X156.101 Y147.434 E3.02834
G1 X156.101 Y147.967 E0.01674
G1 X87.841 Y79.707 E3.02834
G1 X87.841 Y80.241 E0.01674
G1 X156.101 Y148.501 E3.02834
G1 X156.101 Y149.034 E0.01674
G1 X87.841 Y80.774 E3.02834
G1 X87.841 Y81.308 E0.01674
G1 X156.101 Y149.568 E3.02834
G1 X156.101 Y150.101 E0.01674
G1 X87.841 Y81.841 E3.02834
G1 X87.841 Y82.375 E0.01674
G1 X156.101 Y150.635 E3.02834
M73 P20 R46
G1 X156.101 Y151.169 E0.01674
G1 X87.841 Y82.908 E3.02834
G1 X87.841 Y83.442 E0.01674
G1 X156.101 Y151.702 E3.02834
G1 X156.101 Y152.236 E0.01674
G1 X87.841 Y83.975 E3.02834
G1 X87.841 Y84.509 E0.01674
G1 X156.101 Y152.769 E3.02834
G1 X156.101 Y153.303 E0.01674
G1 X87.841 Y85.042 E3.02834
G1 X87.841 Y85.576 E0.01674
G1 X156.101 Y153.836 E3.02834
G1 X156.101 Y154.370 E0.01674
G1 X87.841 Y86.110 E3.02834
G1 X87.841 Y86.643 E0.01674
G1 X156.101 Y154.903 E3.02834
G1 X156.101 Y155.437 E0.01674
G1 X87.841 Y87.177 E3.02834
G1 X87.841 Y87.710 E0.01674
G1 X156.101 Y155.970 E3.02834
G1 X156.101 Y156.504 E0.01674
G1 X87.841 Y88.244 E3.02834
G1 X87.841 Y88.777 E0.01674
G1 X156.101 Y157.038 E3.02834
G1 X156.101 Y157.571 E0.01674
G1 X87.841 Y89.311 E3.02834
M73 P21 R45
G1 X87.841 Y89.844 E0.01674
G1 X156.101 Y158.105 E3.02834
G1 X156.101 Y158.638 E0.01674
G1 X87.841 Y90.378 E3.02834
G1 X87.841 Y90.911 E0.01674
G1 X156.101 Y159.172 E3.02834
G1 X156.101 Y159.705 E0.01674
G1 X87.841 Y91.445 E3.02834
G1 X87.841 Y91.979 E0.01674
G1 X156.101 Y160.239 E3.02834
G1 X156.101 Y160.772 E0.01674
G1 X87.841 Y92.512 E3.02834
G1 X87.841 Y93.046 E0.01674
G1 X156.101 Y161.306 E3.02834
G1 X156.101 Y161.839 E0.01674
G1 X87.841 Y93.579 E3.02834
G1 X87.841 Y94.113 E0.01674
G1 X156.101 Y162.373 E3.02834
G1 X156.101 Y162.907 E0.01674
G1 X87.841 Y94.646 E3.02834
G1 X87.841 Y95.180 E0.01674
G1 X156.101 Y163.440 E3.02834
G1 X156.101 Y163.974 E0.01674
G1 X87.841 Y95.713 E3.02834
G1 X87.841 Y96.247 E0.01674
G1 X156.101 Y164.507 E3.02834
M73 P23 R44
G1 X156.101 Y165.041 E0.01674
G1 X87.841 Y96.780 E3.02834
G1 X87.841 Y97.314 E0.01674
G1 X156.101 Y165.574 E3.02834
G1 X156.101 Y166.108 E0.01674
G1 X87.841 Y97.848 E3.02834
G1 X87.841 Y98.381 E0.01674
G1 X156.101 Y166.641 E3.02834
G1 X156.101 Y167.175 E0.01674
G1 X87.841 Y98.915 E3.02834
G1 X87.841 Y99.448 E0.01674
G1 X156.024 Y167.632 E3.02493
G1 X155.491 Y167.632 E0.01674
G1 X87.841 Y99.982 E3.00126
