; generated by PrusaSlicer 2.1.1+win64 on 2020-03-22 at 20:54:09 UTC

; 

; external perimeters extrusion width = 0.60mm
; perimeters extrusion width = 0.43mm
; infill extrusion width = 0.45mm
; solid infill extrusion width = 0.70mm
; top infill extrusion width = 0.43mm
; first layer extrusion width = 0.42mm

M73 P0 R117
M201 X9000 Y9000 Z500 E10000 ; sets maximum accelerations, mm/sec^2
M203 X500 Y500 Z12 E120 ; sets maximum feedrates, mm/sec
M204 P2000 R1500 T2000 ; sets acceleration (P, T) and retract acceleration (R), mm/sec^2
M205 X10.00 Y10.00 Z0.20 E2.50 ; sets the jerk limits, mm/sec
M205 S0 T0 ; sets the minimum extruding and travel feed rate, mm/sec
M107
M862.3 P "MK2SMM" ; printer model check
M862.1 P0.4 ; nozzle diameter check
M115 U3.2.3 ; tell printer latest fw version
M204 S2000 T1500 ; MK2 firmware only supports the old M204 format
; Start G-Code sequence START
T0
M104 S255 ; set extruder temp
M140 S100 ; set bed temp
M190 S100 ; wait for bed temp
M109 S255 ; wait for extruder temp
G90 ; use absolute coordinates
M83 ; use relative distances for extrusion
G28 W
G80
G92 E0.0
M203 E100 ; set max feedrate
M92 E140 ; E-steps per filament milimeter

G1 Z0.250 F7200.000
G1 X50.0 E80.0 F1000.0
M73 P0 R117
G1 X160.0 E20.0 F1000.0
G1 Z0.200 F7200.000
G1 X220.0 E13 F1000.0
G1 X240.0 E0 F1000.0

G92 E0.0
G21 ; set units to millimeters
G90 ; use absolute coordinates
M83 ; use relative distances for extrusion
M900 K200 ; Filament gcode
;BEFORE_LAYER_CHANGE
G92 E0.0
;0.2


G1 Z0.200 F10800.000
;AFTER_LAYER_CHANGE
;0.2
G1 E-4.00000 F4800.00000
G1 Z0.800 F10800.000
G1 X65.540 Y45.400
G1 Z0.200
G1 E4.00000 F3000.00000
M204 S1000
G1 F1200
G1 X66.245 Y44.931 E0.02653
G1 X67.071 Y44.766 E0.02642
G1 X190.584 Y44.766 E3.87267
G1 X191.414 Y44.931 E0.02653
G1 X192.120 Y45.398 E0.02653
G1 X192.595 Y46.098 E0.02653
G1 X192.769 Y46.926 E0.02653
G1 X192.769 Y166.965 E3.76373
G1 X192.599 Y167.801 E0.02676
G1 X192.121 Y168.509 E0.02676
G1 X191.416 Y168.977 E0.02653
G1 X190.590 Y169.143 E0.02642
G1 X67.081 Y169.143 E3.87255
G1 X66.237 Y168.973 E0.02698
G1 X65.526 Y168.495 E0.02687
G1 X65.059 Y167.793 E0.02642
G1 X64.892 Y166.967 E0.02642
G1 X64.892 Y46.954 E3.76293
G1 X65.061 Y46.110 E0.02698
G1 X65.507 Y45.449 E0.02499
G1 E-2.40000 F4800.00000
G1 F8640
G1 X66.245 Y44.931 E-0.47604
G1 X67.071 Y44.766 E-0.44472
G1 X68.206 Y44.766 E-0.59924
G1 E-0.08000 F4800.00000
G1 Z0.800 F10800.000
G1 X74.439 Y158.368
G1 Z0.200
G1 E4.00000 F3000.00000
G1 F1200
G1 X74.997 Y158.394 E0.01751
G1 X75.308 Y158.453 E0.00993
G1 X75.843 Y158.634 E0.01771
G1 X76.347 Y158.919 E0.01815
G1 X76.789 Y159.293 E0.01815
G1 X77.153 Y159.743 E0.01815
G1 X77.427 Y160.253 E0.01815
G1 X77.601 Y160.805 E0.01815
G1 X77.669 Y161.380 E0.01815
G1 X77.629 Y161.957 E0.01815
G1 X77.482 Y162.517 E0.01815
G1 X77.232 Y163.040 E0.01817
G1 X76.886 Y163.511 E0.01834
G1 X76.477 Y163.892 E0.01751
G1 X76.217 Y164.073 E0.00994
G1 X75.713 Y164.329 E0.01771
G1 X75.157 Y164.489 E0.01815
G1 X74.581 Y164.544 E0.01815
G1 X74.004 Y164.489 E0.01815
G1 X73.448 Y164.329 E0.01815
G1 X72.932 Y164.067 E0.01815
G1 X72.473 Y163.714 E0.01815
G1 X72.089 Y163.281 E0.01815
G1 X71.792 Y162.784 E0.01815
G1 X71.597 Y162.254 E0.01771
G1 X71.531 Y161.944 E0.00994
G1 X71.492 Y161.386 E0.01752
G1 X71.560 Y160.805 E0.01834
G1 X71.734 Y160.253 E0.01816
G1 X72.008 Y159.743 E0.01815
G1 X72.372 Y159.293 E0.01815
G1 X72.814 Y158.919 E0.01815
G1 X73.318 Y158.634 E0.01815
G1 X73.866 Y158.448 E0.01815
G1 X74.380 Y158.376 E0.01626
G1 X74.432 Y158.749 F10800.000
G1 F1200
G1 X74.953 Y158.769 E0.01634
G1 X75.212 Y158.818 E0.00827
G1 X75.688 Y158.980 E0.01577
G1 X76.130 Y159.230 E0.01592
G1 X76.518 Y159.558 E0.01592
G1 X76.838 Y159.953 E0.01592
G1 X77.078 Y160.400 E0.01592
G1 X77.231 Y160.884 E0.01592
G1 X77.291 Y161.389 E0.01593
G1 X77.255 Y161.896 E0.01593
G1 X77.126 Y162.387 E0.01592
G1 X76.907 Y162.845 E0.01593
G1 X76.603 Y163.259 E0.01611
G1 X76.239 Y163.598 E0.01558
G1 X76.023 Y163.749 E0.00828
G1 X75.574 Y163.976 E0.01577
G1 X75.086 Y164.117 E0.01592
G1 X74.581 Y164.165 E0.01592
G1 X74.075 Y164.117 E0.01593
G1 X73.587 Y163.976 E0.01592
G1 X73.134 Y163.747 E0.01592
G1 X72.732 Y163.437 E0.01592
G1 X72.394 Y163.057 E0.01593
G1 X72.134 Y162.621 E0.01592
G1 X71.961 Y162.149 E0.01577
G1 X71.906 Y161.891 E0.00828
G1 X71.870 Y161.395 E0.01558
G1 X71.930 Y160.885 E0.01611
G1 X72.083 Y160.400 E0.01593
G1 X72.323 Y159.953 E0.01592
G1 X72.643 Y159.558 E0.01592
G1 X73.031 Y159.230 E0.01592
G1 X73.473 Y158.980 E0.01592
G1 X73.954 Y158.817 E0.01592
G1 X74.373 Y158.758 E0.01326
G1 X74.613 Y158.393 F10800.000
G1 E-2.40000 F4800.00000
G1 F8640
G1 X74.953 Y158.769 E-0.30625
G1 X75.212 Y158.818 E-0.13929
G1 X75.688 Y158.980 E-0.26544
G1 X76.130 Y159.230 E-0.26805
G1 X76.518 Y159.558 E-0.26806
G1 X76.838 Y159.953 E-0.26805
G1 X76.842 Y159.961 E-0.00487
G1 E-0.08000 F4800.00000
G1 Z0.800 F10800.000
G1 X180.492 Y161.386
G1 Z0.200
G1 E4.00000 F3000.00000
G1 F1200
G1 X180.560 Y160.805 E0.01834
G1 X180.734 Y160.253 E0.01816
G1 X181.008 Y159.743 E0.01815
G1 X181.372 Y159.293 E0.01815
G1 X181.814 Y158.919 E0.01815
G1 X182.318 Y158.634 E0.01815
G1 X182.866 Y158.448 E0.01815
G1 X183.439 Y158.368 E0.01814
G1 X183.997 Y158.394 E0.01751
G1 X184.308 Y158.453 E0.00993
G1 X184.843 Y158.634 E0.01771
G1 X185.347 Y158.919 E0.01815
G1 X185.789 Y159.293 E0.01815
G1 X186.153 Y159.743 E0.01815
G1 X186.427 Y160.253 E0.01815
G1 X186.601 Y160.805 E0.01815
G1 X186.669 Y161.380 E0.01815
G1 X186.629 Y161.957 E0.01815
G1 X186.482 Y162.517 E0.01815
G1 X186.232 Y163.040 E0.01817
G1 X185.886 Y163.511 E0.01834
G1 X185.477 Y163.892 E0.01752
G1 X185.217 Y164.073 E0.00994
G1 X184.713 Y164.329 E0.01771
G1 X184.157 Y164.489 E0.01815
G1 X183.581 Y164.544 E0.01815
G1 X183.004 Y164.489 E0.01815
G1 X182.448 Y164.329 E0.01815
G1 X181.932 Y164.067 E0.01815
G1 X181.473 Y163.714 E0.01815
G1 X181.089 Y163.281 E0.01815
G1 X180.792 Y162.784 E0.01815
G1 X180.597 Y162.254 E0.01771
G1 X180.531 Y161.944 E0.00994
G1 X180.496 Y161.446 E0.01563
G1 X180.872 Y161.420 F10800.000
G1 F1200
G1 X180.930 Y160.885 E0.01687
G1 X181.083 Y160.400 E0.01593
G1 X181.323 Y159.953 E0.01592
G1 X181.643 Y159.558 E0.01592
G1 X182.031 Y159.230 E0.01592
G1 X182.473 Y158.980 E0.01592
G1 X182.954 Y158.817 E0.01592
G1 X183.457 Y158.746 E0.01592
G1 X183.953 Y158.769 E0.01558
G1 X184.212 Y158.818 E0.00827
G1 X184.688 Y158.980 E0.01577
G1 X185.130 Y159.230 E0.01592
G1 X185.518 Y159.558 E0.01592
G1 X185.838 Y159.953 E0.01592
G1 X186.078 Y160.400 E0.01592
G1 X186.231 Y160.884 E0.01592
G1 X186.291 Y161.389 E0.01592
G1 X186.255 Y161.896 E0.01593
G1 X186.126 Y162.387 E0.01592
G1 X185.907 Y162.845 E0.01593
G1 X185.603 Y163.259 E0.01611
G1 X185.239 Y163.598 E0.01558
G1 X185.023 Y163.749 E0.00828
G1 X184.574 Y163.976 E0.01577
G1 X184.086 Y164.117 E0.01592
G1 X183.581 Y164.165 E0.01593
G1 X183.075 Y164.117 E0.01592
G1 X182.587 Y163.976 E0.01592
G1 X182.134 Y163.747 E0.01592
G1 X181.732 Y163.437 E0.01592
G1 X181.394 Y163.057 E0.01593
G1 X181.134 Y162.621 E0.01592
G1 X180.961 Y162.149 E0.01577
G1 X180.906 Y161.891 E0.00828
G1 X180.876 Y161.479 E0.01293
G1 X180.532 Y161.209 F10800.000
G1 E-2.40000 F4800.00000
G1 F8640
G1 X180.930 Y160.885 E-0.31523
G1 X181.083 Y160.400 E-0.26814
G1 X181.323 Y159.953 E-0.26806
G1 X181.643 Y159.558 E-0.26805
G1 X182.031 Y159.230 E-0.26806
G1 X182.249 Y159.106 E-0.13247
G1 E-0.08000 F4800.00000
G1 Z0.800 F10800.000
G1 X183.655 Y55.543
G1 Z0.200
G1 E4.00000 F3000.00000
G1 F1200
G1 X183.077 Y55.502 E0.01815
G1 X182.518 Y55.355 E0.01815
G1 X181.995 Y55.106 E0.01816
G1 X181.524 Y54.759 E0.01834
G1 X181.143 Y54.350 E0.01751
G1 X180.961 Y54.090 E0.00994
G1 X180.706 Y53.586 E0.01772
G1 X180.545 Y53.030 E0.01815
G1 X180.491 Y52.454 E0.01815
G1 X180.545 Y51.878 E0.01815
G1 X180.706 Y51.322 E0.01815
G1 X180.968 Y50.805 E0.01815
G1 X181.321 Y50.347 E0.01815
G1 X181.754 Y49.962 E0.01815
G1 X182.251 Y49.665 E0.01815
G1 X182.781 Y49.471 E0.01771
G1 X183.091 Y49.405 E0.00994
G1 X183.648 Y49.365 E0.01752
G1 X184.229 Y49.433 E0.01834
G1 X184.782 Y49.607 E0.01816
G1 X185.292 Y49.882 E0.01815
G1 X185.741 Y50.246 E0.01815
G1 X186.115 Y50.688 E0.01815
G1 X186.400 Y51.191 E0.01815
G1 X186.586 Y51.740 E0.01815
G1 X186.665 Y52.299 E0.01772
G1 X186.665 Y52.616 E0.00993
G1 X186.586 Y53.169 E0.01751
G1 X186.400 Y53.717 E0.01814
G1 X186.115 Y54.220 E0.01815
G1 X185.741 Y54.662 E0.01815
G1 X185.292 Y55.027 E0.01815
G1 X184.782 Y55.301 E0.01815
G1 X184.230 Y55.475 E0.01815
G1 X183.714 Y55.536 E0.01627
G1 X183.670 Y55.161 F10800.000
G1 F1200
G1 X183.139 Y55.129 E0.01668
G1 X182.648 Y54.999 E0.01592
G1 X182.189 Y54.781 E0.01593
G1 X181.775 Y54.476 E0.01611
G1 X181.437 Y54.113 E0.01558
G1 X181.286 Y53.896 E0.00828
G1 X181.058 Y53.448 E0.01577
G1 X180.917 Y52.960 E0.01592
G1 X180.870 Y52.454 E0.01593
G1 X180.917 Y51.948 E0.01593
G1 X181.058 Y51.460 E0.01592
G1 X181.288 Y51.007 E0.01592
G1 X181.598 Y50.605 E0.01593
G1 X181.978 Y50.268 E0.01592
G1 X182.414 Y50.007 E0.01593
G1 X182.886 Y49.834 E0.01577
G1 X183.144 Y49.779 E0.00828
G1 X183.640 Y49.744 E0.01558
G1 X184.150 Y49.804 E0.01611
G1 X184.635 Y49.956 E0.01593
G1 X185.082 Y50.197 E0.01592
G1 X185.477 Y50.517 E0.01592
G1 X185.805 Y50.904 E0.01592
G1 X186.055 Y51.346 E0.01592
G1 X186.218 Y51.827 E0.01592
G1 X186.288 Y52.325 E0.01577
G1 X186.288 Y52.589 E0.00828
G1 X186.218 Y53.081 E0.01557
G1 X186.055 Y53.562 E0.01592
G1 X185.805 Y54.004 E0.01593
G1 X185.477 Y54.392 E0.01592
G1 X185.082 Y54.711 E0.01592
G1 X184.635 Y54.952 E0.01592
G1 X184.150 Y55.104 E0.01592
G1 X183.730 Y55.154 E0.01327
G1 X183.481 Y55.514 F10800.000
G1 E-2.40000 F4800.00000
G1 F8640
G1 X183.139 Y55.129 E-0.31199
G1 X182.648 Y54.999 E-0.26806
G1 X182.189 Y54.781 E-0.26814
G1 X181.775 Y54.476 E-0.27122
G1 X181.437 Y54.113 E-0.26222
G1 X181.287 Y53.898 E-0.13836
G1 E-0.08000 F4800.00000
G1 Z0.800 F10800.000
G1 X167.737 Y70.579
G1 Z0.200
G1 E4.00000 F3000.00000
G1 F1200
G1 X168.043 Y70.897 E0.01385
G1 X169.511 Y72.550 E0.06931
G1 X170.903 Y74.256 E0.06903
G1 X172.222 Y76.018 E0.06903
G1 X173.466 Y77.831 E0.06893
G1 X174.064 Y78.763 E0.03471
G1 X175.192 Y80.649 E0.06893
G1 X176.243 Y82.584 E0.06903
G1 X177.212 Y84.557 E0.06893
G1 X177.668 Y85.566 E0.03471
G1 X178.512 Y87.596 E0.06893
G1 X179.271 Y89.659 E0.06893
G1 X179.620 Y90.706 E0.03461
G1 X179.947 Y91.761 E0.03461
G1 X180.530 Y93.871 E0.06865
G1 X181.030 Y96.024 E0.06931
G1 X181.438 Y98.185 E0.06893
G1 X181.610 Y99.278 E0.03471
G1 X181.882 Y101.451 E0.06865
G1 X182.065 Y103.654 E0.06931
G1 X182.156 Y105.853 E0.06903
G1 X182.156 Y108.055 E0.06903
G1 X182.065 Y110.251 E0.06893
G1 X181.985 Y111.355 E0.03471
G1 X181.758 Y113.539 E0.06884
G1 X181.609 Y114.636 E0.03471
G1 X181.248 Y116.795 E0.06865
G1 X180.793 Y118.959 E0.06931
G1 X180.251 Y121.089 E0.06893
G1 X179.945 Y122.153 E0.03471
G1 X179.275 Y124.238 E0.06865
G1 X178.512 Y126.312 E0.06931
G1 X177.668 Y128.342 E0.06893
G1 X177.212 Y129.351 E0.03471
G1 X176.243 Y131.324 E0.06893
G1 X175.194 Y133.256 E0.06893
G1 X174.635 Y134.212 E0.03471
G1 X173.473 Y136.067 E0.06865
G1 X172.222 Y137.890 E0.06931
G1 X170.904 Y139.650 E0.06893
G1 X170.214 Y140.515 E0.03471
G1 X168.795 Y142.182 E0.06865
G1 X167.294 Y143.805 E0.06931
G1 X165.733 Y145.358 E0.06903
G1 X164.109 Y146.844 E0.06903
G1 X162.425 Y148.262 E0.06903
G1 X160.686 Y149.608 E0.06893
G1 X159.790 Y150.257 E0.03471
G1 X157.973 Y151.490 E0.06884
G1 X157.039 Y152.083 E0.03471
G1 X155.146 Y153.202 E0.06893
G1 X153.206 Y154.243 E0.06903
G1 X151.228 Y155.201 E0.06893
G1 X150.217 Y155.652 E0.03471
G1 X148.182 Y156.486 E0.06893
G1 X146.115 Y157.234 E0.06893
G1 X145.063 Y157.578 E0.03471
G1 X142.962 Y158.194 E0.06865
G1 X140.820 Y158.727 E0.06922
G1 X139.738 Y158.960 E0.03471
G1 X137.584 Y159.356 E0.06865
G1 X135.395 Y159.664 E0.06931
G1 X133.205 Y159.881 E0.06903
G1 X131.019 Y160.006 E0.06865
G1 X129.903 Y160.035 E0.03499
G1 X127.708 Y160.023 E0.06884
G1 X126.602 Y159.983 E0.03471
G1 X124.417 Y159.836 E0.06865
G1 X122.220 Y159.596 E0.06931
G1 X120.043 Y159.266 E0.06903
G1 X117.882 Y158.847 E0.06903
G1 X115.752 Y158.341 E0.06865
G1 X113.618 Y157.739 E0.06950
G1 X111.528 Y157.056 E0.06893
G1 X109.466 Y156.285 E0.06903
G1 X107.441 Y155.430 E0.06893
G1 X106.435 Y154.969 E0.03471
G1 X104.469 Y153.991 E0.06884
G1 X103.493 Y153.468 E0.03471
G1 X101.589 Y152.369 E0.06893
G1 X99.730 Y151.190 E0.06903
G1 X97.921 Y149.935 E0.06903
G1 X96.166 Y148.606 E0.06903
G1 X94.470 Y147.207 E0.06893
G1 X93.638 Y146.477 E0.03471
G1 X92.032 Y144.976 E0.06893
G1 X90.487 Y143.407 E0.06903
G1 X89.009 Y141.775 E0.06903
G1 X87.600 Y140.084 E0.06903
G1 X86.269 Y138.346 E0.06865
G1 X85.619 Y137.439 E0.03499
G1 X84.394 Y135.613 E0.06893
G1 X83.246 Y133.738 E0.06893
G1 X82.697 Y132.777 E0.03471
G1 X81.669 Y130.837 E0.06884
G1 X81.181 Y129.843 E0.03471
G1 X80.275 Y127.840 E0.06893
G1 X79.451 Y125.799 E0.06903
G1 X78.713 Y123.728 E0.06893
G1 X78.374 Y122.674 E0.03471
G1 X77.767 Y120.561 E0.06893
G1 X77.250 Y118.434 E0.06865
G1 X77.020 Y117.342 E0.03499
G1 X76.634 Y115.177 E0.06893
G1 X76.338 Y112.996 E0.06903
G1 X76.133 Y110.807 E0.06893
G1 X76.065 Y109.702 E0.03471
G1 X75.996 Y107.504 E0.06893
G1 X76.019 Y105.303 E0.06903
G1 X76.133 Y103.104 E0.06903
G1 X76.338 Y100.916 E0.06893
G1 X76.475 Y99.817 E0.03471
G1 X76.815 Y97.648 E0.06884
G1 X77.021 Y96.561 E0.03471
G1 X77.496 Y94.414 E0.06893
G1 X78.060 Y92.286 E0.06903
G1 X78.712 Y90.183 E0.06903
G1 X79.450 Y88.112 E0.06893
G1 X79.853 Y87.081 E0.03471
G1 X80.718 Y85.060 E0.06893
G1 X81.662 Y83.085 E0.06865
G1 X82.174 Y82.093 E0.03499
G1 X83.242 Y80.175 E0.06884
G1 X83.811 Y79.225 E0.03471
G1 X84.998 Y77.375 E0.06893
G1 X86.262 Y75.572 E0.06903
G1 X87.600 Y73.824 E0.06903
M73 P0 R116
G1 X89.007 Y72.135 E0.06893
G1 X89.742 Y71.307 E0.03471
G1 X91.251 Y69.709 E0.06893
G1 X92.828 Y68.172 E0.06903
G1 X94.465 Y66.705 E0.06893
G1 X95.312 Y65.992 E0.03471
G1 X97.037 Y64.629 E0.06893
G1 X98.819 Y63.336 E0.06903
G1 X100.654 Y62.119 E0.06903
G1 X102.527 Y60.985 E0.06865
G1 X103.499 Y60.437 E0.03499
G1 X105.447 Y59.418 E0.06893
G1 X107.427 Y58.484 E0.06865
G1 X108.450 Y58.039 E0.03499
G1 X110.493 Y57.227 E0.06893
G1 X112.568 Y56.500 E0.06893
G1 X113.624 Y56.167 E0.03471
G1 X115.740 Y55.570 E0.06893
G1 X117.882 Y55.062 E0.06903
G1 X120.040 Y54.642 E0.06893
G1 X121.132 Y54.465 E0.03471
G1 X123.313 Y54.181 E0.06893
G1 X125.503 Y53.988 E0.06893
G1 X126.608 Y53.925 E0.03471
G1 X128.796 Y53.868 E0.06865
G1 X131.007 Y53.902 E0.06931
G1 X133.205 Y54.027 E0.06903
G1 X135.395 Y54.244 E0.06903
G1 X137.563 Y54.549 E0.06865
G1 X138.663 Y54.739 E0.03499
G1 X140.817 Y55.180 E0.06893
G1 X142.953 Y55.712 E0.06903
G1 X145.066 Y56.331 E0.06903
G1 X147.148 Y57.036 E0.06893
G1 X148.185 Y57.424 E0.03471
G1 X150.220 Y58.257 E0.06893
G1 X152.218 Y59.174 E0.06893
G1 X153.209 Y59.667 E0.03471
G1 X155.143 Y60.705 E0.06884
G1 X156.102 Y61.258 E0.03471
G1 X157.963 Y62.411 E0.06865
G1 X159.793 Y63.653 E0.06931
G1 X161.562 Y64.963 E0.06903
G1 X163.272 Y66.344 E0.06893
G1 X164.112 Y67.066 E0.03471
G1 X165.731 Y68.548 E0.06884
G1 X166.524 Y69.321 E0.03471
G1 X167.695 Y70.535 E0.05291
G1 X167.424 Y70.797 F10800.000
G1 F1200
G1 X167.767 Y71.153 E0.01549
G1 X169.224 Y72.794 E0.06882
G1 X170.605 Y74.488 E0.06854
G1 X171.916 Y76.238 E0.06854
G1 X173.152 Y78.039 E0.06850
G1 X173.743 Y78.961 E0.03434
G1 X174.865 Y80.836 E0.06850
G1 X175.908 Y82.757 E0.06854
G1 X176.871 Y84.718 E0.06850
G1 X177.323 Y85.716 E0.03434
G1 X178.161 Y87.733 E0.06850
G1 X178.916 Y89.784 E0.06850
G1 X179.261 Y90.822 E0.03430
G1 X179.585 Y91.867 E0.03430
G1 X180.165 Y93.964 E0.06822
G1 X180.661 Y96.102 E0.06882
G1 X181.067 Y98.249 E0.06850
G1 X181.236 Y99.331 E0.03434
G1 X181.507 Y101.490 E0.06822
G1 X181.689 Y103.677 E0.06882
G1 X181.779 Y105.861 E0.06854
G1 X181.779 Y108.047 E0.06854
G1 X181.689 Y110.230 E0.06850
G1 X181.609 Y111.322 E0.03434
G1 X181.383 Y113.494 E0.06847
G1 X181.236 Y114.579 E0.03434
G1 X180.877 Y116.725 E0.06822
G1 X180.425 Y118.873 E0.06882
G1 X179.887 Y120.991 E0.06850
G1 X179.585 Y122.043 E0.03434
G1 X178.919 Y124.115 E0.06822
G1 X178.161 Y126.175 E0.06882
G1 X177.323 Y128.192 E0.06850
