; generated by PrusaSlicer 2.1.1+win64 on 2020-03-22 at 20:51:23 UTC

; 

; external perimeters extrusion width = 0.60mm
; perimeters extrusion width = 0.43mm
; infill extrusion width = 0.45mm
; solid infill extrusion width = 0.70mm
; top infill extrusion width = 0.43mm
; first layer extrusion width = 0.42mm

M73 P0 R115
M201 X9000 Y9000 Z500 E10000 ; sets maximum accelerations, mm/sec^2
M203 X500 Y500 Z12 E120 ; sets maximum feedrates, mm/sec
M204 P2000 R1500 T2000 ; sets acceleration (P, T) and retract acceleration (R), mm/sec^2
M205 X10.00 Y10.00 Z0.20 E2.50 ; sets the jerk limits, mm/sec
M205 S0 T0 ; sets the minimum extruding and travel feed rate, mm/sec
M107
M862.3 P "MK2SMM" ; printer model check
M862.1 P0.4 ; nozzle diameter check
M115 U3.2.3 ; tell printer latest fw version
M204 S2000 T1500 ; MK2 firmware only supports the old M204 format
; Start G-Code sequence START
T0
M104 S215 ; set extruder temp
M140 S60 ; set bed temp
M190 S60 ; wait for bed temp
M109 S215 ; wait for extruder temp
G90 ; use absolute coordinates
M83 ; use relative distances for extrusion
G28 W
G80
G92 E0.0
M203 E100 ; set max feedrate
M92 E140 ; E-steps per filament milimeter

G1 Z0.250 F7200.000
G1 X50.0 E80.0 F1000.0
M73 P0 R115
G1 X160.0 E20.0 F1000.0
G1 Z0.200 F7200.000
G1 X220.0 E13 F1000.0
G1 X240.0 E0 F1000.0

G92 E0.0
G21 ; set units to millimeters
G90 ; use absolute coordinates
M83 ; use relative distances for extrusion
M900 K200 ; Filament gcode
;BEFORE_LAYER_CHANGE
G92 E0.0
;0.2


G1 Z0.200 F10800.000
;AFTER_LAYER_CHANGE
;0.2
G1 E-4.00000 F4800.00000
G1 Z0.800 F10800.000
G1 X43.572 Y51.223
G1 Z0.200
G1 E4.00000 F3000.00000
M204 S1000
G1 F1200
G1 X44.265 Y51.108 E0.02202
G1 X205.614 Y51.108 E5.05896
G1 X206.444 Y51.273 E0.02653
G1 X207.149 Y51.741 E0.02653
G1 X207.626 Y52.444 E0.02664
G1 X207.798 Y53.273 E0.02653
G1 X207.798 Y173.311 E3.76373
G1 X207.738 Y173.807 E0.01567
G1 X207.567 Y174.277 E0.01567
G1 X207.294 Y174.695 E0.01567
G1 X206.930 Y175.042 E0.01578
G1 X206.309 Y175.371 E0.02202
G1 X205.616 Y175.485 E0.02202
G1 X44.264 Y175.485 E5.05908
G1 X43.764 Y175.426 E0.01578
G1 X43.291 Y175.254 E0.01578
G1 X42.873 Y174.980 E0.01567
G1 X42.525 Y174.616 E0.01578
G1 X42.197 Y173.995 E0.02202
G1 X42.083 Y173.306 E0.02191
G1 X42.083 Y53.289 E3.76304
G1 X42.142 Y52.790 E0.01578
G1 X42.314 Y52.317 E0.01578
G1 X42.587 Y51.898 E0.01567
G1 X42.951 Y51.551 E0.01578
G1 X43.519 Y51.251 E0.02014
G1 E-2.40000 F4800.00000
G1 F8640
G1 X44.265 Y51.108 E-0.40084
G1 X46.386 Y51.108 E-1.11916
G1 E-0.08000 F4800.00000
G1 Z0.800 F10800.000
G1 X196.207 Y165.854
G1 Z0.200
G1 E4.00000 F3000.00000
G1 F1200
G1 X196.612 Y165.440 E0.01814
G1 X197.086 Y165.109 E0.01814
G1 X197.602 Y164.877 E0.01774
G1 X197.915 Y164.788 E0.01019
G1 X198.465 Y164.710 E0.01744
G1 X199.043 Y164.738 E0.01814
G1 X199.606 Y164.872 E0.01814
G1 X200.121 Y165.103 E0.01771
G1 X200.389 Y165.272 E0.00994
G1 X200.820 Y165.638 E0.01771
G1 X201.184 Y166.088 E0.01814
G1 X201.457 Y166.598 E0.01814
G1 X201.631 Y167.150 E0.01814
G1 X201.699 Y167.724 E0.01814
G1 X201.658 Y168.301 E0.01814
G1 X201.511 Y168.861 E0.01814
G1 X201.261 Y169.383 E0.01814
G1 X200.919 Y169.850 E0.01814
G1 X200.496 Y170.244 E0.01814
G1 X200.006 Y170.553 E0.01814
G1 X199.468 Y170.765 E0.01814
G1 X198.899 Y170.873 E0.01814
G1 X198.321 Y170.873 E0.01814
G1 X197.766 Y170.767 E0.01771
G1 X197.466 Y170.665 E0.00994
G1 X196.962 Y170.410 E0.01771
G1 X196.503 Y170.057 E0.01814
G1 X196.119 Y169.624 E0.01814
G1 X195.822 Y169.128 E0.01814
G1 X195.622 Y168.585 E0.01814
G1 X195.528 Y168.014 E0.01814
G1 X195.541 Y167.435 E0.01814
G1 X195.663 Y166.870 E0.01814
G1 X195.887 Y166.336 E0.01814
G1 X196.174 Y165.904 E0.01626
G1 X196.488 Y166.113 F10800.000
G1 F1200
G1 X196.857 Y165.729 E0.01667
G1 X197.273 Y165.438 E0.01592
G1 X197.732 Y165.232 E0.01577
G1 X197.993 Y165.158 E0.00852
G1 X198.483 Y165.089 E0.01551
G1 X198.990 Y165.113 E0.01592
G1 X199.484 Y165.230 E0.01592
G1 X199.942 Y165.436 E0.01576
G1 X200.166 Y165.577 E0.00828
G1 X200.549 Y165.902 E0.01576
G1 X200.868 Y166.297 E0.01592
G1 X201.108 Y166.745 E0.01592
G1 X201.261 Y167.229 E0.01592
G1 X201.320 Y167.733 E0.01592
G1 X201.284 Y168.240 E0.01592
G1 X201.155 Y168.731 E0.01592
G1 X200.936 Y169.189 E0.01592
G1 X200.636 Y169.598 E0.01592
G1 X200.264 Y169.944 E0.01592
G1 X199.835 Y170.215 E0.01592
G1 X199.363 Y170.401 E0.01592
G1 X198.864 Y170.496 E0.01592
G1 X198.356 Y170.496 E0.01592
G1 X197.862 Y170.402 E0.01576
G1 X197.612 Y170.317 E0.00828
G1 X197.164 Y170.090 E0.01576
G1 X196.762 Y169.780 E0.01592
G1 X196.424 Y169.400 E0.01592
G1 X196.164 Y168.965 E0.01592
G1 X195.989 Y168.488 E0.01592
G1 X195.906 Y167.987 E0.01592
G1 X195.918 Y167.480 E0.01592
G1 X196.024 Y166.983 E0.01592
G1 X196.221 Y166.515 E0.01592
G1 X196.455 Y166.163 E0.01327
G1 X196.342 Y165.740 F10800.000
G1 E-2.40000 F4800.00000
G1 F8640
G1 X196.857 Y165.729 E-0.31188
G1 X197.273 Y165.438 E-0.26796
G1 X197.732 Y165.232 E-0.26551
G1 X197.993 Y165.158 E-0.14346
G1 X198.483 Y165.089 E-0.26107
G1 X198.990 Y165.113 E-0.26791
G1 X198.994 Y165.114 E-0.00222
G1 E-0.08000 F4800.00000
G1 Z0.800 F10800.000
G1 X198.682 Y61.885
G1 Z0.200
G1 E4.00000 F3000.00000
G1 F1200
G1 X198.105 Y61.845 E0.01814
G1 X197.546 Y61.697 E0.01814
G1 X197.023 Y61.448 E0.01814
G1 X196.557 Y61.106 E0.01814
G1 X196.162 Y60.682 E0.01814
G1 X195.854 Y60.193 E0.01814
G1 X195.642 Y59.654 E0.01814
G1 X195.536 Y59.100 E0.01771
G1 X195.522 Y58.783 E0.00994
G1 X195.574 Y58.221 E0.01771
G1 X195.735 Y57.665 E0.01814
G1 X195.997 Y57.148 E0.01814
G1 X196.350 Y56.690 E0.01814
G1 X196.782 Y56.306 E0.01814
G1 X197.279 Y56.009 E0.01814
G1 X197.823 Y55.809 E0.01816
G1 X198.402 Y55.714 E0.01839
G1 X198.958 Y55.728 E0.01744
G1 X199.270 Y55.780 E0.00993
G1 X199.809 Y55.949 E0.01771
G1 X200.319 Y56.223 E0.01814
G1 X200.769 Y56.586 E0.01814
G1 X201.143 Y57.028 E0.01814
G1 X201.429 Y57.531 E0.01814
G1 X201.615 Y58.079 E0.01814
G1 X201.694 Y58.638 E0.01771
G1 X201.694 Y58.955 E0.00994
G1 X201.615 Y59.514 E0.01771
G1 X201.429 Y60.062 E0.01814
G1 X201.143 Y60.566 E0.01814
G1 X200.769 Y61.007 E0.01814
G1 X200.319 Y61.371 E0.01814
G1 X199.809 Y61.644 E0.01814
G1 X199.257 Y61.818 E0.01814
G1 X198.742 Y61.878 E0.01626
G1 X198.698 Y61.504 F10800.000
G1 F1200
G1 X198.167 Y61.471 E0.01668
G1 X197.676 Y61.342 E0.01592
G1 X197.218 Y61.123 E0.01592
G1 X196.809 Y60.823 E0.01592
G1 X196.462 Y60.451 E0.01592
G1 X196.192 Y60.022 E0.01592
G1 X196.006 Y59.549 E0.01592
G1 X195.912 Y59.055 E0.01576
G1 X195.899 Y58.792 E0.00828
G1 X195.947 Y58.291 E0.01576
G1 X196.088 Y57.803 E0.01592
G1 X196.317 Y57.351 E0.01592
G1 X196.627 Y56.948 E0.01592
G1 X197.006 Y56.611 E0.01592
G1 X197.442 Y56.350 E0.01592
G1 X197.919 Y56.175 E0.01593
G1 X198.428 Y56.092 E0.01616
G1 X198.922 Y56.104 E0.01551
G1 X199.182 Y56.147 E0.00827
G1 X199.662 Y56.298 E0.01576
G1 X200.109 Y56.538 E0.01592
G1 X200.504 Y56.857 E0.01592
G1 X200.833 Y57.245 E0.01592
G1 X201.083 Y57.686 E0.01592
G1 X201.247 Y58.167 E0.01592
G1 X201.317 Y58.665 E0.01576
G1 X201.317 Y58.929 E0.00828
G1 X201.247 Y59.426 E0.01576
G1 X201.083 Y59.907 E0.01592
G1 X200.833 Y60.349 E0.01592
G1 X200.504 Y60.736 E0.01592
G1 X200.109 Y61.055 E0.01592
G1 X199.662 Y61.295 E0.01592
G1 X199.178 Y61.447 E0.01592
G1 X198.757 Y61.497 E0.01327
G1 X198.508 Y61.856 F10800.000
G1 E-2.40000 F4800.00000
G1 F8640
G1 X198.167 Y61.471 E-0.31191
G1 X197.676 Y61.342 E-0.26795
G1 X197.218 Y61.123 E-0.26795
G1 X196.809 Y60.823 E-0.26796
G1 X196.462 Y60.451 E-0.26797
G1 X196.325 Y60.233 E-0.13626
G1 E-0.08000 F4800.00000
G1 Z0.800 F10800.000
G1 X182.611 Y76.751
G1 Z0.200
G1 E4.00000 F3000.00000
G1 F1200
G1 X183.077 Y77.244 E0.02125
G1 X184.536 Y78.888 E0.06893
G1 X185.934 Y80.602 E0.06936
G1 X186.607 Y81.481 E0.03470
G1 X187.880 Y83.256 E0.06850
G1 X189.088 Y85.097 E0.06902
G1 X190.225 Y86.998 E0.06945
G1 X191.268 Y88.917 E0.06850
G1 X191.766 Y89.906 E0.03470
G1 X192.699 Y91.911 E0.06935
G1 X193.538 Y93.929 E0.06850
G1 X193.931 Y94.964 E0.03470
G1 X194.652 Y97.055 E0.06936
G1 X195.281 Y99.161 E0.06893
G1 X195.567 Y100.241 E0.03502
G1 X196.055 Y102.346 E0.06775
G1 X196.470 Y104.541 E0.07004
G1 X196.787 Y106.714 E0.06885
G1 X196.913 Y107.812 E0.03466
G1 X197.092 Y109.965 E0.06775
G1 X197.186 Y112.197 E0.07005
G1 X197.185 Y114.431 E0.07004
G1 X197.095 Y116.590 E0.06775
G1 X197.015 Y117.693 E0.03466
G1 X196.788 Y119.877 E0.06885
G1 X196.464 Y122.087 E0.07004
G1 X196.063 Y124.210 E0.06775
G1 X195.825 Y125.290 E0.03466
G1 X195.281 Y127.429 E0.06921
G1 X194.647 Y129.551 E0.06945
G1 X193.936 Y131.617 E0.06850
G1 X193.543 Y132.652 E0.03470
G1 X192.699 Y134.682 E0.06893
G1 X191.766 Y136.687 E0.06936
G1 X191.268 Y137.676 E0.03471
G1 X190.225 Y139.596 E0.06850
G1 X189.089 Y141.494 E0.06935
G1 X188.492 Y142.426 E0.03470
G1 X187.256 Y144.227 E0.06850
G1 X185.930 Y145.998 E0.06935
G1 X185.239 Y146.862 E0.03471
G1 X183.823 Y148.526 E0.06850
G1 X182.319 Y150.152 E0.06945
G1 X180.770 Y151.693 E0.06850
G1 X179.962 Y152.449 E0.03470
G1 X178.299 Y153.909 E0.06936
G1 X176.589 Y155.289 E0.06893
G1 X175.706 Y155.957 E0.03470
G1 X173.924 Y157.221 E0.06850
G1 X172.066 Y158.427 E0.06945
G1 X170.173 Y159.545 E0.06893
G1 X169.203 Y160.079 E0.03470
G1 X167.257 Y161.072 E0.06850
G1 X165.247 Y161.994 E0.06935
G1 X164.227 Y162.424 E0.03470
G1 X162.189 Y163.211 E0.06850
G1 X160.083 Y163.924 E0.06970
G1 X157.974 Y164.542 E0.06892
G1 X156.903 Y164.819 E0.03470
G1 X154.794 Y165.297 E0.06778
G1 X152.594 Y165.702 E0.07014
G1 X150.417 Y166.008 E0.06892
G1 X149.317 Y166.128 E0.03470
G1 X147.162 Y166.296 E0.06778
G1 X144.929 Y166.377 E0.07005
G1 X143.823 Y166.383 E0.03470
G1 X141.662 Y166.327 E0.06778
G1 X139.430 Y166.177 E0.07014
G1 X137.245 Y165.938 E0.06892
G1 X136.149 Y165.783 E0.03470
G1 X134.018 Y165.416 E0.06778
G1 X131.832 Y164.944 E0.07014
G1 X129.704 Y164.392 E0.06892
G1 X128.642 Y164.080 E0.03470
G1 X126.588 Y163.408 E0.06778
G1 X124.497 Y162.628 E0.06997
G1 X123.473 Y162.208 E0.03471
G1 X121.478 Y161.318 E0.06850
G1 X119.494 Y160.332 E0.06945
G1 X117.568 Y159.272 E0.06893
G1 X116.615 Y158.709 E0.03471
G1 X114.770 Y157.539 E0.06850
G1 X112.950 Y156.277 E0.06945
G1 X111.197 Y154.950 E0.06893
G1 X110.336 Y154.254 E0.03470
G1 X108.679 Y152.830 E0.06850
G1 X107.063 Y151.320 E0.06936
G1 X106.278 Y150.539 E0.03471
G1 X104.778 Y148.951 E0.06850
G1 X103.324 Y147.279 E0.06945
G1 X101.952 Y145.561 E0.06893
G1 X101.289 Y144.675 E0.03471
G1 X100.034 Y142.887 E0.06850
G1 X98.838 Y141.022 E0.06945
G1 X97.727 Y139.121 E0.06903
G1 X96.697 Y137.176 E0.06902
G1 X95.754 Y135.205 E0.06850
G1 X94.880 Y133.163 E0.06965
G1 X94.105 Y131.121 E0.06850
G1 X93.404 Y129.019 E0.06945
G1 X92.797 Y126.906 E0.06893
G1 X92.524 Y125.833 E0.03470
G1 X92.052 Y123.700 E0.06850
G1 X91.663 Y121.520 E0.06945
G1 X91.368 Y119.341 E0.06893
G1 X91.253 Y118.240 E0.03471
G1 X91.095 Y116.061 E0.06850
G1 X91.026 Y113.847 E0.06945
G1 X91.049 Y111.632 E0.06946
G1 X91.162 Y109.450 E0.06850
G1 X91.254 Y108.347 E0.03470
G1 X91.504 Y106.163 E0.06893
G1 X91.848 Y103.975 E0.06945
G1 X92.275 Y101.832 E0.06850
M73 P0 R114
G1 X92.526 Y100.754 E0.03470
G1 X93.089 Y98.629 E0.06893
G1 X93.746 Y96.513 E0.06945
G1 X94.479 Y94.455 E0.06850
G1 X94.882 Y93.425 E0.03471
G1 X95.753 Y91.391 E0.06936
G1 X96.695 Y89.420 E0.06850
G1 X97.203 Y88.437 E0.03470
G1 X98.273 Y86.516 E0.06893
G1 X99.430 Y84.627 E0.06945
G1 X100.648 Y82.813 E0.06850
G1 X101.293 Y81.913 E0.03470
G1 X102.627 Y80.170 E0.06884
G1 X103.335 Y79.302 E0.03513
G1 X104.768 Y77.653 E0.06850
G1 X106.280 Y76.052 E0.06903
G1 X107.867 Y74.507 E0.06945
G1 X109.494 Y73.048 E0.06850
G1 X110.340 Y72.335 E0.03471
G1 X112.065 Y70.972 E0.06893
G1 X113.859 Y69.672 E0.06945
G1 X115.679 Y68.464 E0.06850
G1 X116.620 Y67.881 E0.03470
G1 X118.524 Y66.782 E0.06893
G1 X120.487 Y65.755 E0.06945
G1 X122.463 Y64.823 E0.06850
G1 X123.478 Y64.383 E0.03471
G1 X125.552 Y63.559 E0.06997
G1 X127.593 Y62.844 E0.06778
G1 X128.648 Y62.511 E0.03470
G1 X130.764 Y61.915 E0.06892
G1 X132.940 Y61.398 E0.07014
G1 X135.062 Y60.986 E0.06778
G1 X136.155 Y60.809 E0.03470
G1 X138.334 Y60.525 E0.06892
G1 X140.563 Y60.328 E0.07014
G1 X142.722 Y60.228 E0.06778
G1 X143.829 Y60.210 E0.03470
G1 X146.027 Y60.244 E0.06892
G1 X148.260 Y60.372 E0.07014
G1 X150.411 Y60.585 E0.06778
G1 X151.509 Y60.728 E0.03470
G1 X153.678 Y61.079 E0.06892
G1 X155.835 Y61.520 E0.06901
G1 X158.006 Y62.061 E0.07014
G1 X160.080 Y62.669 E0.06778
G1 X161.132 Y63.013 E0.03470
G1 X163.220 Y63.768 E0.06961
G1 X165.241 Y64.597 E0.06850
G1 X166.252 Y65.048 E0.03470
G1 X168.231 Y66.006 E0.06893
G1 X170.183 Y67.053 E0.06945
G1 X172.063 Y68.165 E0.06850
G1 X172.998 Y68.758 E0.03471
G1 X174.828 Y70.000 E0.06936
G1 X176.584 Y71.300 E0.06850
G1 X177.452 Y71.986 E0.03470
G1 X179.134 Y73.402 E0.06893
G1 X180.768 Y74.898 E0.06945
G1 X182.570 Y76.707 E0.08007
G1 X182.296 Y76.966 F10800.000
G1 F1200
G1 X182.799 Y77.498 E0.02295
G1 X184.249 Y79.132 E0.06850
G1 X185.638 Y80.836 E0.06893
G1 X186.304 Y81.705 E0.03434
G1 X187.569 Y83.470 E0.06808
G1 X188.768 Y85.297 E0.06853
G1 X189.897 Y87.185 E0.06896
G1 X190.934 Y89.092 E0.06807
G1 X191.427 Y90.070 E0.03434
G1 X192.354 Y92.063 E0.06893
G1 X193.187 Y94.068 E0.06807
G1 X193.576 Y95.092 E0.03434
G1 X194.292 Y97.170 E0.06892
G1 X194.918 Y99.264 E0.06850
G1 X195.201 Y100.332 E0.03465
G1 X195.686 Y102.424 E0.06732
G1 X196.098 Y104.603 E0.06955
G1 X196.413 Y106.762 E0.06842
G1 X196.538 Y107.849 E0.03429
G1 X196.716 Y109.989 E0.06732
G1 X196.809 Y112.205 E0.06955
G1 X196.808 Y114.423 E0.06955
G1 X196.718 Y116.569 E0.06732
G1 X196.639 Y117.659 E0.03430
G1 X196.413 Y119.830 E0.06842
G1 X196.092 Y122.025 E0.06955
G1 X195.694 Y124.135 E0.06732
G1 X195.458 Y125.203 E0.03429
G1 X194.918 Y127.329 E0.06878
G1 X194.288 Y129.436 E0.06896
G1 X193.581 Y131.489 E0.06807
G1 X193.192 Y132.513 E0.03434
G1 X192.354 Y134.530 E0.06850
G1 X191.427 Y136.523 E0.06893
G1 X190.934 Y137.501 E0.03434
G1 X189.897 Y139.409 E0.06807
G1 X188.769 Y141.295 E0.06892
G1 X188.178 Y142.217 E0.03434
G1 X186.949 Y144.007 E0.06807
G1 X185.631 Y145.767 E0.06892
G1 X184.948 Y146.622 E0.03434
G1 X183.541 Y148.276 E0.06807
G1 X182.047 Y149.890 E0.06896
G1 X180.508 Y151.422 E0.06807
G1 X179.708 Y152.170 E0.03434
G1 X178.056 Y153.620 E0.06893
G1 X176.356 Y154.992 E0.06850
G1 X175.483 Y155.653 E0.03434
G1 X173.712 Y156.909 E0.06807
G1 X171.867 Y158.106 E0.06896
G1 X169.986 Y159.218 E0.06850
G1 X169.027 Y159.745 E0.03434
G1 X167.093 Y160.732 E0.06807
G1 X165.095 Y161.649 E0.06892
G1 X164.086 Y162.075 E0.03434
G1 X162.060 Y162.856 E0.06807
G1 X159.970 Y163.564 E0.06921
G1 X157.873 Y164.178 E0.06849
G1 X156.813 Y164.453 E0.03433
G1 X154.718 Y164.928 E0.06736
G1 X152.534 Y165.329 E0.06965
G1 X150.371 Y165.634 E0.06849
G1 X149.282 Y165.752 E0.03433
G1 X147.140 Y165.919 E0.06736
G1 X144.922 Y166.000 E0.06962
G1 X143.827 Y166.006 E0.03433
G1 X141.679 Y165.950 E0.06736
G1 X139.463 Y165.801 E0.06965
G1 X137.291 Y165.564 E0.06849
G1 X136.207 Y165.411 E0.03433
G1 X134.090 Y165.045 E0.06736
G1 X131.919 Y164.577 E0.06965
G1 X129.805 Y164.028 E0.06849
G1 X128.754 Y163.720 E0.03433
G1 X126.712 Y163.052 E0.06736
G1 X124.634 Y162.277 E0.06954
G1 X123.621 Y161.862 E0.03434
G1 X121.638 Y160.976 E0.06808
G1 X119.669 Y159.998 E0.06896
G1 X117.755 Y158.945 E0.06850
G1 X116.812 Y158.387 E0.03434
G1 X114.978 Y157.225 E0.06808
G1 X113.171 Y155.971 E0.06896
G1 X111.429 Y154.653 E0.06850
G1 X110.577 Y153.965 E0.03434
G1 X108.931 Y152.549 E0.06808
G1 X107.324 Y151.048 E0.06893
G1 X106.548 Y150.276 E0.03434
G1 X105.057 Y148.697 E0.06807
G1 X103.614 Y147.038 E0.06896
G1 X102.251 Y145.330 E0.06850
G1 X101.594 Y144.454 E0.03434
G1 X100.347 Y142.676 E0.06807
G1 X99.160 Y140.825 E0.06896
G1 X98.057 Y138.938 E0.06854
G1 X97.034 Y137.007 E0.06853
G1 X96.097 Y135.048 E0.06807
G1 X95.231 Y133.024 E0.06903
G1 X94.460 Y130.994 E0.06808
G1 X93.765 Y128.907 E0.06896
G1 X93.161 Y126.808 E0.06850
G1 X92.891 Y125.746 E0.03434
G1 X92.422 Y123.626 E0.06808
G1 X92.036 Y121.461 E0.06896
G1 X91.742 Y119.296 E0.06850
G1 X91.629 Y118.207 E0.03434
G1 X91.472 Y116.041 E0.06807
G1 X91.403 Y113.843 E0.06896
G1 X91.426 Y111.644 E0.06896
