; generated by PrusaSlicer 2.1.1+win64 on 2020-03-22 at 20:54:56 UTC

; 

; external perimeters extrusion width = 0.60mm
; perimeters extrusion width = 0.43mm
; infill extrusion width = 0.45mm
; solid infill extrusion width = 0.70mm
; top infill extrusion width = 0.43mm
; first layer extrusion width = 0.42mm

M73 P0 R190
M201 X9000 Y9000 Z500 E10000 ; sets maximum accelerations, mm/sec^2
M203 X500 Y500 Z12 E120 ; sets maximum feedrates, mm/sec
M204 P2000 R1500 T2000 ; sets acceleration (P, T) and retract acceleration (R), mm/sec^2
M205 X10.00 Y10.00 Z0.20 E2.50 ; sets the jerk limits, mm/sec
M205 S0 T0 ; sets the minimum extruding and travel feed rate, mm/sec
M107
M862.3 P "MK2SMM" ; printer model check
M862.1 P0.4 ; nozzle diameter check
M115 U3.2.3 ; tell printer latest fw version
M204 S2000 T1500 ; MK2 firmware only supports the old M204 format
; Start G-Code sequence START
T0
M104 S255 ; set extruder temp
M140 S100 ; set bed temp
M190 S100 ; wait for bed temp
M109 S255 ; wait for extruder temp
G90 ; use absolute coordinates
M83 ; use relative distances for extrusion
G28 W
G80
G92 E0.0
M203 E100 ; set max feedrate
M92 E140 ; E-steps per filament milimeter

G1 Z0.250 F7200.000
G1 X50.0 E80.0 F1000.0
M73 P0 R190
G1 X160.0 E20.0 F1000.0
G1 Z0.200 F7200.000
G1 X220.0 E13 F1000.0
G1 X240.0 E0 F1000.0

G92 E0.0
G21 ; set units to millimeters
G90 ; use absolute coordinates
M83 ; use relative distances for extrusion
M900 K200 ; Filament gcode
;BEFORE_LAYER_CHANGE
G92 E0.0
;0.2


G1 Z0.200 F10800.000
;AFTER_LAYER_CHANGE
;0.2
G1 E-4.00000 F4800.00000
G1 Z0.800 F10800.000
G1 X48.831 Y54.679
G1 Z0.200
G1 E4.00000 F3000.00000
M204 S1000
G1 F1200
G1 X49.545 Y54.557 E0.02270
G1 X205.216 Y54.557 E4.88095
G1 X206.046 Y54.722 E0.02653
G1 X206.751 Y55.190 E0.02653
G1 X207.228 Y55.893 E0.02664
G1 X207.400 Y56.722 E0.02653
G1 X207.401 Y176.760 E3.76373
G1 X207.343 Y177.246 E0.01532
G1 X207.177 Y177.709 E0.01544
G1 X206.912 Y178.124 E0.01544
G1 X206.564 Y178.467 E0.01532
G1 X205.932 Y178.813 E0.02259
G1 X205.218 Y178.934 E0.02270
G1 X49.547 Y178.934 E4.88095
G1 X49.058 Y178.878 E0.01544
G1 X48.591 Y178.712 E0.01555
G1 X48.175 Y178.448 E0.01544
G1 X47.830 Y178.097 E0.01544
G1 X47.484 Y177.465 E0.02259
G1 X47.362 Y176.755 E0.02259
G1 X47.362 Y56.739 E3.76304
G1 X47.419 Y56.250 E0.01544
G1 X47.584 Y55.786 E0.01544
G1 X47.849 Y55.370 E0.01544
G1 X48.199 Y55.025 E0.01544
G1 X48.779 Y54.708 E0.02071
G1 E-2.40000 F4800.00000
G1 F8640
G1 X49.545 Y54.557 E-0.41217
G1 X51.644 Y54.557 E-1.10783
G1 E-0.08000 F4800.00000
G1 Z0.800 F10800.000
G1 X165.341 Y169.087
G1 Z0.200
G1 E4.00000 F3000.00000
G1 F1200
G1 X165.782 Y168.713 E0.01814
G1 X166.285 Y168.427 E0.01814
G1 X166.833 Y168.241 E0.01814
G1 X167.406 Y168.160 E0.01814
G1 X167.984 Y168.187 E0.01814
G1 X168.547 Y168.321 E0.01814
G1 X169.075 Y168.558 E0.01814
G1 X169.549 Y168.889 E0.01814
G1 X169.954 Y169.303 E0.01814
G1 X170.274 Y169.785 E0.01814
G1 X170.498 Y170.319 E0.01816
G1 X170.620 Y170.893 E0.01839
G1 X170.633 Y171.449 E0.01744
G1 X170.596 Y171.764 E0.00993
G1 X170.451 Y172.310 E0.01771
G1 X170.202 Y172.832 E0.01814
G1 X169.860 Y173.299 E0.01814
G1 X169.437 Y173.693 E0.01814
G1 X168.947 Y174.002 E0.01814
G1 X168.409 Y174.214 E0.01814
G1 X167.840 Y174.322 E0.01814
G1 X167.262 Y174.322 E0.01814
G1 X166.693 Y174.214 E0.01814
G1 X166.155 Y174.002 E0.01814
G1 X165.665 Y173.693 E0.01814
G1 X165.242 Y173.299 E0.01814
G1 X164.908 Y172.843 E0.01771
G1 X164.758 Y172.564 E0.00994
G1 X164.563 Y172.034 E0.01771
G1 X164.469 Y171.463 E0.01814
G1 X164.482 Y170.884 E0.01816
G1 X164.607 Y170.311 E0.01839
G1 X164.823 Y169.798 E0.01744
G1 X164.986 Y169.526 E0.00993
G1 X165.303 Y169.134 E0.01583
G1 X165.596 Y169.371 F10800.000
G1 F1200
G1 X165.999 Y169.023 E0.01667
G1 X166.441 Y168.773 E0.01592
G1 X166.921 Y168.609 E0.01592
G1 X167.424 Y168.538 E0.01592
G1 X167.931 Y168.562 E0.01592
G1 X168.425 Y168.680 E0.01592
G1 X168.888 Y168.888 E0.01592
G1 X169.304 Y169.178 E0.01592
G1 X169.659 Y169.541 E0.01592
G1 X169.940 Y169.964 E0.01592
G1 X170.137 Y170.433 E0.01593
G1 X170.244 Y170.937 E0.01616
G1 X170.255 Y171.432 E0.01551
G1 X170.224 Y171.694 E0.00827
G1 X170.096 Y172.180 E0.01576
G1 X169.877 Y172.638 E0.01592
G1 X169.577 Y173.047 E0.01592
G1 X169.205 Y173.393 E0.01592
G1 X168.776 Y173.664 E0.01592
G1 X168.304 Y173.850 E0.01592
G1 X167.805 Y173.945 E0.01592
G1 X167.297 Y173.945 E0.01592
G1 X166.798 Y173.850 E0.01592
G1 X166.326 Y173.664 E0.01592
G1 X165.896 Y173.393 E0.01592
G1 X165.525 Y173.047 E0.01592
G1 X165.228 Y172.642 E0.01576
G1 X165.103 Y172.409 E0.00828
G1 X164.930 Y171.937 E0.01576
G1 X164.847 Y171.436 E0.01592
G1 X164.859 Y170.929 E0.01593
G1 X164.968 Y170.425 E0.01616
G1 X165.160 Y169.969 E0.01551
G1 X165.296 Y169.743 E0.00827
G1 X165.558 Y169.417 E0.01311
G1 X165.492 Y168.985 F10800.000
G1 E-2.40000 F4800.00000
G1 F8640
G1 X165.999 Y169.023 E-0.31189
G1 X166.441 Y168.773 E-0.26796
G1 X166.921 Y168.609 E-0.26795
G1 X167.424 Y168.538 E-0.26797
G1 X167.931 Y168.562 E-0.26795
G1 X168.182 Y168.622 E-0.13628
G1 E-0.08000 F4800.00000
G1 Z0.800 F10800.000
G1 X167.623 Y65.335
G1 Z0.200
G1 E4.00000 F3000.00000
G1 F1200
G1 X167.046 Y65.294 E0.01814
G1 X166.487 Y65.146 E0.01814
G1 X165.964 Y64.897 E0.01814
G1 X165.498 Y64.555 E0.01814
G1 X165.113 Y64.142 E0.01771
G1 X164.931 Y63.882 E0.00994
G1 X164.676 Y63.378 E0.01771
G1 X164.515 Y62.822 E0.01814
G1 X164.461 Y62.246 E0.01814
G1 X164.515 Y61.670 E0.01814
G1 X164.676 Y61.114 E0.01814
G1 X164.938 Y60.598 E0.01814
G1 X165.291 Y60.139 E0.01814
G1 X165.723 Y59.755 E0.01814
G1 X166.220 Y59.458 E0.01814
G1 X166.764 Y59.258 E0.01816
G1 X167.342 Y59.164 E0.01839
G1 X167.899 Y59.177 E0.01744
G1 X168.211 Y59.229 E0.00993
G1 X168.750 Y59.398 E0.01771
G1 X169.260 Y59.672 E0.01814
G1 X169.710 Y60.036 E0.01814
G1 X170.084 Y60.477 E0.01814
G1 X170.369 Y60.980 E0.01814
G1 X170.556 Y61.528 E0.01814
G1 X170.637 Y62.101 E0.01814
G1 X170.610 Y62.679 E0.01814
G1 X170.476 Y63.242 E0.01814
G1 X170.244 Y63.757 E0.01771
G1 X170.075 Y64.025 E0.00994
G1 X169.710 Y64.456 E0.01771
G1 X169.260 Y64.820 E0.01814
G1 X168.750 Y65.093 E0.01814
G1 X168.198 Y65.267 E0.01814
G1 X167.683 Y65.328 E0.01626
G1 X167.639 Y64.953 F10800.000
G1 F1200
G1 X167.108 Y64.920 E0.01668
G1 X166.617 Y64.791 E0.01592
G1 X166.159 Y64.572 E0.01592
G1 X165.750 Y64.272 E0.01592
G1 X165.407 Y63.904 E0.01576
G1 X165.256 Y63.688 E0.00828
G1 X165.028 Y63.239 E0.01576
G1 X164.888 Y62.751 E0.01592
G1 X164.840 Y62.246 E0.01592
G1 X164.888 Y61.740 E0.01592
G1 X165.028 Y61.253 E0.01592
G1 X165.258 Y60.800 E0.01592
G1 X165.568 Y60.398 E0.01592
G1 X165.947 Y60.060 E0.01592
G1 X166.383 Y59.799 E0.01592
G1 X166.860 Y59.625 E0.01593
G1 X167.369 Y59.541 E0.01616
G1 X167.863 Y59.553 E0.01551
G1 X168.123 Y59.597 E0.00827
G1 X168.603 Y59.747 E0.01576
G1 X169.050 Y59.987 E0.01592
G1 X169.445 Y60.307 E0.01592
G1 X169.774 Y60.694 E0.01592
G1 X170.024 Y61.135 E0.01592
G1 X170.188 Y61.616 E0.01592
G1 X170.259 Y62.119 E0.01592
G1 X170.235 Y62.626 E0.01592
G1 X170.117 Y63.120 E0.01592
G1 X169.911 Y63.578 E0.01576
G1 X169.770 Y63.802 E0.00828
G1 X169.445 Y64.185 E0.01576
G1 X169.050 Y64.504 E0.01592
G1 X168.603 Y64.744 E0.01592
G1 X168.119 Y64.897 E0.01592
G1 X167.698 Y64.946 E0.01327
G1 X167.449 Y65.305 F10800.000
G1 E-2.40000 F4800.00000
G1 F8640
G1 X167.108 Y64.920 E-0.31190
G1 X166.617 Y64.791 E-0.26796
G1 X166.159 Y64.572 E-0.26795
G1 X165.750 Y64.272 E-0.26796
G1 X165.407 Y63.904 E-0.26535
G1 X165.256 Y63.688 E-0.13887
G1 E-0.08000 F4800.00000
G1 Z0.800 F10800.000
G1 X61.637 Y62.101
G1 Z0.200
G1 E4.00000 F3000.00000
G1 F1200
G1 X61.610 Y62.679 E0.01814
G1 X61.476 Y63.242 E0.01814
G1 X61.244 Y63.757 E0.01771
G1 X61.075 Y64.025 E0.00994
G1 X60.710 Y64.456 E0.01771
G1 X60.260 Y64.820 E0.01814
G1 X59.750 Y65.093 E0.01814
G1 X59.198 Y65.267 E0.01814
G1 X58.623 Y65.335 E0.01814
G1 X58.046 Y65.294 E0.01814
G1 X57.487 Y65.146 E0.01814
G1 X56.964 Y64.897 E0.01814
G1 X56.498 Y64.555 E0.01814
G1 X56.113 Y64.142 E0.01771
G1 X55.931 Y63.882 E0.00994
G1 X55.676 Y63.378 E0.01771
G1 X55.515 Y62.822 E0.01814
G1 X55.461 Y62.246 E0.01814
G1 X55.515 Y61.670 E0.01814
G1 X55.676 Y61.114 E0.01814
G1 X55.938 Y60.598 E0.01814
G1 X56.291 Y60.139 E0.01814
G1 X56.723 Y59.755 E0.01814
G1 X57.220 Y59.458 E0.01814
G1 X57.764 Y59.258 E0.01816
G1 X58.342 Y59.164 E0.01839
G1 X58.899 Y59.177 E0.01744
G1 X59.211 Y59.229 E0.00993
G1 X59.750 Y59.398 E0.01771
G1 X60.260 Y59.672 E0.01814
G1 X60.710 Y60.036 E0.01814
G1 X61.084 Y60.477 E0.01814
G1 X61.369 Y60.980 E0.01814
G1 X61.556 Y61.528 E0.01814
G1 X61.629 Y62.042 E0.01626
G1 X61.255 Y62.095 F10800.000
G1 F1200
G1 X61.235 Y62.626 E0.01667
G1 X61.117 Y63.120 E0.01592
G1 X60.911 Y63.578 E0.01576
G1 X60.770 Y63.802 E0.00828
G1 X60.445 Y64.185 E0.01576
G1 X60.050 Y64.504 E0.01592
G1 X59.603 Y64.744 E0.01592
G1 X59.119 Y64.897 E0.01592
G1 X58.614 Y64.956 E0.01592
G1 X58.108 Y64.920 E0.01592
G1 X57.617 Y64.791 E0.01592
G1 X57.159 Y64.572 E0.01592
G1 X56.750 Y64.272 E0.01592
G1 X56.407 Y63.904 E0.01576
G1 X56.256 Y63.688 E0.00828
G1 X56.028 Y63.239 E0.01576
G1 X55.887 Y62.751 E0.01592
G1 X55.840 Y62.246 E0.01592
G1 X55.887 Y61.740 E0.01592
G1 X56.028 Y61.253 E0.01592
G1 X56.258 Y60.800 E0.01592
G1 X56.568 Y60.398 E0.01592
G1 X56.947 Y60.060 E0.01592
G1 X57.383 Y59.799 E0.01592
G1 X57.860 Y59.625 E0.01593
G1 X58.368 Y59.541 E0.01616
G1 X58.863 Y59.553 E0.01551
G1 X59.123 Y59.597 E0.00827
G1 X59.603 Y59.747 E0.01576
G1 X60.050 Y59.987 E0.01592
G1 X60.445 Y60.307 E0.01592
G1 X60.774 Y60.694 E0.01592
G1 X61.024 Y61.135 E0.01592
G1 X61.188 Y61.616 E0.01592
G1 X61.247 Y62.035 E0.01327
G1 X61.612 Y62.276 F10800.000
G1 E-2.40000 F4800.00000
G1 F8640
G1 X61.235 Y62.626 E-0.31190
G1 X61.117 Y63.120 E-0.26797
G1 X60.911 Y63.578 E-0.26534
G1 X60.770 Y63.802 E-0.13931
G1 X60.445 Y64.185 E-0.26534
G1 X60.050 Y64.504 E-0.26796
G1 X60.047 Y64.506 E-0.00219
G1 E-0.08000 F4800.00000
G1 Z0.800 F10800.000
G1 X58.406 Y168.160
G1 Z0.200
G1 E4.00000 F3000.00000
G1 F1200
G1 X58.984 Y168.187 E0.01814
G1 X59.547 Y168.321 E0.01814
G1 X60.075 Y168.558 E0.01814
G1 X60.549 Y168.889 E0.01814
G1 X60.954 Y169.303 E0.01814
G1 X61.274 Y169.785 E0.01814
G1 X61.498 Y170.319 E0.01816
G1 X61.620 Y170.893 E0.01839
G1 X61.633 Y171.449 E0.01744
G1 X61.596 Y171.764 E0.00993
G1 X61.451 Y172.310 E0.01771
G1 X61.202 Y172.832 E0.01814
G1 X60.860 Y173.299 E0.01814
G1 X60.437 Y173.693 E0.01814
G1 X59.947 Y174.002 E0.01814
G1 X59.409 Y174.214 E0.01814
G1 X58.840 Y174.322 E0.01814
G1 X58.262 Y174.322 E0.01814
G1 X57.693 Y174.214 E0.01814
G1 X57.155 Y174.002 E0.01814
G1 X56.665 Y173.693 E0.01814
G1 X56.242 Y173.299 E0.01814
G1 X55.908 Y172.843 E0.01771
G1 X55.758 Y172.564 E0.00994
G1 X55.563 Y172.034 E0.01771
G1 X55.469 Y171.463 E0.01814
G1 X55.482 Y170.885 E0.01814
G1 X55.601 Y170.332 E0.01771
G1 X55.710 Y170.035 E0.00994
G1 X55.977 Y169.537 E0.01771
G1 X56.341 Y169.087 E0.01814
G1 X56.782 Y168.713 E0.01814
G1 X57.285 Y168.427 E0.01814
G1 X57.833 Y168.241 E0.01814
G1 X58.347 Y168.168 E0.01626
G1 X58.400 Y168.541 F10800.000
G1 F1200
G1 X58.931 Y168.562 E0.01668
G1 X59.425 Y168.680 E0.01592
G1 X59.888 Y168.888 E0.01592
G1 X60.304 Y169.178 E0.01592
G1 X60.659 Y169.541 E0.01592
G1 X60.940 Y169.964 E0.01592
G1 X61.137 Y170.433 E0.01593
G1 X61.244 Y170.937 E0.01616
G1 X61.255 Y171.432 E0.01551
G1 X61.224 Y171.694 E0.00827
G1 X61.096 Y172.180 E0.01576
G1 X60.877 Y172.638 E0.01592
G1 X60.577 Y173.047 E0.01592
G1 X60.205 Y173.393 E0.01592
G1 X59.776 Y173.664 E0.01592
G1 X59.304 Y173.850 E0.01592
G1 X58.805 Y173.945 E0.01592
G1 X58.297 Y173.945 E0.01592
G1 X57.798 Y173.850 E0.01592
G1 X57.326 Y173.664 E0.01592
G1 X56.896 Y173.393 E0.01592
G1 X56.525 Y173.047 E0.01592
G1 X56.228 Y172.642 E0.01576
G1 X56.103 Y172.409 E0.00828
G1 X55.930 Y171.937 E0.01576
G1 X55.847 Y171.436 E0.01592
G1 X55.859 Y170.929 E0.01592
G1 X55.964 Y170.437 E0.01576
G1 X56.055 Y170.189 E0.00828
G1 X56.292 Y169.746 E0.01576
G1 X56.612 Y169.352 E0.01592
G1 X56.999 Y169.023 E0.01592
G1 X57.441 Y168.773 E0.01592
G1 X57.921 Y168.609 E0.01592
G1 X58.340 Y168.550 E0.01327
G1 X58.581 Y168.185 F10800.000
G1 E-2.40000 F4800.00000
G1 F8640
G1 X58.931 Y168.562 E-0.31191
G1 X59.425 Y168.680 E-0.26796
G1 X59.888 Y168.888 E-0.26796
G1 X60.304 Y169.178 E-0.26796
G1 X60.659 Y169.541 E-0.26795
G1 X60.802 Y169.757 E-0.13626
G1 E-0.08000 F4800.00000
G1 Z0.800 F10800.000
G1 X50.138 Y176.159
G1 Z0.200
G1 E4.00000 F3000.00000
G1 F1200
G1 X50.138 Y57.333 E3.72570
M73 P0 R189
G1 X204.625 Y57.333 E4.84383
G1 X204.625 Y176.159 E3.72570
G1 X50.198 Y176.159 E4.84195
G1 X49.761 Y176.536 F10800.000
G1 F1200
G1 X49.761 Y56.956 E3.74935
G1 X205.002 Y56.956 E4.86748
G1 X205.002 Y176.536 E3.74935
G1 X49.821 Y176.536 E4.86560
G1 X49.881 Y176.154 F10800.000
G1 X50.251 Y175.282
G1 F1200
G1 X50.845 Y175.876 E0.02639
G1 X51.379 Y175.876 E0.01677
G1 X50.421 Y174.917 E0.04257
G1 X50.421 Y174.383 E0.01677
G1 X51.913 Y175.876 E0.06630
G1 X52.448 Y175.876 E0.01677
G1 X50.421 Y173.849 E0.09002
G1 X50.421 Y173.315 E0.01677
G1 X52.982 Y175.876 E0.11374
G1 X53.516 Y175.876 E0.01677
G1 X50.421 Y172.781 E0.13746
G1 X50.421 Y172.247 E0.01677
G1 X54.050 Y175.876 E0.16118
G1 X54.584 Y175.876 E0.01677
G1 X50.421 Y171.713 E0.18490
G1 X50.421 Y171.179 E0.01677
G1 X55.118 Y175.876 E0.20862
G1 X55.652 Y175.876 E0.01677
G1 X50.421 Y170.644 E0.23235
G1 X50.421 Y170.110 E0.01677
G1 X56.186 Y175.876 E0.25607
G1 X56.721 Y175.876 E0.01677
G1 X50.421 Y169.576 E0.27979
G1 X50.421 Y169.042 E0.01677
G1 X57.255 Y175.876 E0.30351
G1 X57.789 Y175.876 E0.01677
G1 X50.421 Y168.508 E0.32723
G1 X50.421 Y167.974 E0.01677
G1 X58.493 Y176.046 E0.35849
G1 X57.373 Y174.392 F10800.000
G1 F1200
G1 X58.857 Y175.876 E0.06591
G1 X59.391 Y175.876 E0.01677
G1 X58.093 Y174.578 E0.05766
G1 X58.235 Y174.605 E0.00454
G1 X58.654 Y174.605 E0.01316
G1 X59.925 Y175.876 E0.05646
G1 X60.459 Y175.876 E0.01677
G1 X59.137 Y174.553 E0.05874
G1 X59.488 Y174.487 E0.01121
G1 X59.571 Y174.454 E0.00283
G1 X60.994 Y175.876 E0.06316
G1 X61.528 Y175.876 E0.01677
G1 X59.955 Y174.303 E0.06986
G1 X60.075 Y174.255 E0.00408
G1 X60.300 Y174.114 E0.00833
G1 X62.062 Y175.876 E0.07826
G1 X62.596 Y175.876 E0.01677
G1 X60.625 Y173.905 E0.08755
G1 X60.901 Y173.647 E0.01187
G1 X63.130 Y175.876 E0.09899
G1 X63.664 Y175.876 E0.01677
G1 X61.158 Y173.370 E0.11129
G1 X61.384 Y173.062 E0.01200
G1 X64.198 Y175.876 E0.12497
G1 X64.732 Y175.876 E0.01677
G1 X61.571 Y172.715 E0.14038
G1 X61.735 Y172.344 E0.01272
G1 X65.266 Y175.876 E0.15685
G1 X65.801 Y175.876 E0.01677
G1 X61.846 Y171.922 E0.17562
G1 X61.916 Y171.457 E0.01476
G1 X66.335 Y175.876 E0.19626
G1 X66.869 Y175.876 E0.01677
G1 X61.903 Y170.910 E0.22053
G1 X61.772 Y170.245 E0.02131
G1 X67.573 Y176.046 E0.25763
G1 E-2.40000 F4800.00000
G1 F8640
G1 X65.536 Y174.009 E-1.52000
G1 E-0.08000 F4800.00000
G1 Z0.800 F10800.000
G1 X55.405 Y172.424
G1 Z0.200
G1 E4.00000 F3000.00000
G1 F1200
G1 X50.421 Y167.440 E0.22138
G1 X50.421 Y166.906 E0.01677
G1 X55.223 Y171.708 E0.21327
G1 X55.186 Y171.483 E0.00715
G1 X55.193 Y171.144 E0.01064
G1 X50.421 Y166.371 E0.21197
G1 X50.421 Y165.837 E0.01677
G1 X55.242 Y170.658 E0.21411
G1 X55.340 Y170.222 E0.01403
G1 X50.421 Y165.303 E0.21847
M73 P1 R188
G1 X50.421 Y164.769 E0.01677
G1 X55.493 Y169.841 E0.22526
G1 X55.679 Y169.494 E0.01239
G1 X50.421 Y164.235 E0.23354
G1 X50.421 Y163.701 E0.01677
G1 X55.901 Y169.181 E0.24339
G1 X56.140 Y168.886 E0.01192
G1 X50.421 Y163.167 E0.25401
G1 X50.421 Y162.633 E0.01677
G1 X56.429 Y168.641 E0.26685
G1 X56.619 Y168.480 E0.00783
G1 X56.736 Y168.414 E0.00421
G1 X50.421 Y162.099 E0.28047
G1 X50.421 Y161.564 E0.01677
G1 X57.077 Y168.220 E0.29561
G1 X57.169 Y168.168 E0.00333
G1 X57.460 Y168.069 E0.00964
G1 X50.421 Y161.030 E0.31261
G1 X50.421 Y160.496 E0.01677
G1 X57.874 Y167.949 E0.33101
G1 X58.342 Y167.883 E0.01484
G1 X50.421 Y159.962 E0.35179
G1 X50.421 Y159.428 E0.01677
G1 X58.892 Y167.899 E0.37623
G1 X59.024 Y167.905 E0.00414
G1 X59.561 Y168.034 E0.01733
G1 X50.421 Y158.894 E0.40592
G1 X50.421 Y158.360 E0.01677
G1 X67.937 Y175.876 E0.77794
G1 X68.471 Y175.876 E0.01677
G1 X50.421 Y157.826 E0.80166
