; generated by PrusaSlicer 2.1.1+win64 on 2020-03-22 at 20:54:24 UTC

; 

; external perimeters extrusion width = 0.60mm
; perimeters extrusion width = 0.43mm
; infill extrusion width = 0.45mm
; solid infill extrusion width = 0.70mm
; top infill extrusion width = 0.43mm
; first layer extrusion width = 0.42mm

M73 P0 R60
M201 X9000 Y9000 Z500 E10000 ; sets maximum accelerations, mm/sec^2
M203 X500 Y500 Z12 E120 ; sets maximum feedrates, mm/sec
M204 P2000 R1500 T2000 ; sets acceleration (P, T) and retract acceleration (R), mm/sec^2
M205 X10.00 Y10.00 Z0.20 E2.50 ; sets the jerk limits, mm/sec
M205 S0 T0 ; sets the minimum extruding and travel feed rate, mm/sec
M107
M862.3 P "MK2SMM" ; printer model check
M862.1 P0.4 ; nozzle diameter check
M115 U3.2.3 ; tell printer latest fw version
M204 S2000 T1500 ; MK2 firmware only supports the old M204 format
; Start G-Code sequence START
T0
M104 S255 ; set extruder temp
M140 S100 ; set bed temp
M190 S100 ; wait for bed temp
M109 S255 ; wait for extruder temp
G90 ; use absolute coordinates
M83 ; use relative distances for extrusion
G28 W
G80
G92 E0.0
M203 E100 ; set max feedrate
M92 E140 ; E-steps per filament milimeter

G1 Z0.250 F7200.000
G1 X50.0 E80.0 F1000.0
M73 P0 R60
G1 X160.0 E20.0 F1000.0
G1 Z0.200 F7200.000
G1 X220.0 E13 F1000.0
G1 X240.0 E0 F1000.0

G92 E0.0
G21 ; set units to millimeters
G90 ; use absolute coordinates
M83 ; use relative distances for extrusion
M900 K200 ; Filament gcode
;BEFORE_LAYER_CHANGE
G92 E0.0
;0.2


G1 Z0.200 F10800.000
;AFTER_LAYER_CHANGE
;0.2
G1 E-4.00000 F4800.00000
G1 Z0.800 F10800.000
G1 X88.298 Y41.674
G1 Z0.200
G1 E4.00000 F3000.00000
M204 S1000
G1 F1200
G1 X88.640 Y41.225 E0.01771
G1 X89.085 Y40.878 E0.01771
G1 X89.605 Y40.656 E0.01771
G1 X90.164 Y40.575 E0.01771
G1 X160.199 Y40.575 E2.19590
G1 X161.026 Y40.739 E0.02642
G1 X161.732 Y41.205 E0.02653
G1 X162.207 Y41.901 E0.02642
G1 X162.384 Y42.729 E0.02653
G1 X162.384 Y162.767 E3.76373
G1 X162.310 Y163.331 E0.01783
G1 X162.094 Y163.853 E0.01771
G1 X161.752 Y164.303 E0.01771
G1 X161.303 Y164.652 E0.01783
G1 X160.779 Y164.873 E0.01783
G1 X160.220 Y164.952 E0.01771
G1 X90.188 Y164.952 E2.19579
G1 X89.629 Y164.878 E0.01771
G1 X89.106 Y164.662 E0.01771
G1 X88.654 Y164.317 E0.01783
G1 X88.304 Y163.865 E0.01794
G1 X88.085 Y163.340 E0.01783
G1 X88.007 Y162.777 E0.01783
G1 X88.007 Y42.760 E3.76304
G1 X88.082 Y42.197 E0.01783
G1 X88.275 Y41.730 E0.01583
G1 X90.783 Y43.351 F10800.000
G1 F1200
G1 X159.609 Y43.351 E2.15799
G1 X159.609 Y162.177 E3.72570
G1 X90.783 Y162.177 E2.15799
G1 X90.783 Y43.411 E3.72382
G1 X90.406 Y42.974 F10800.000
G1 F1200
G1 X159.986 Y42.974 E2.18163
G1 X159.986 Y162.554 E3.74935
M73 P1 R59
G1 X90.406 Y162.554 E2.18163
G1 X90.406 Y43.034 E3.74747
G1 X90.782 Y43.110 F10800.000
G1 E-2.40000 F4800.00000
G1 F8640
G1 X93.286 Y43.031 E-1.52000
G1 E-0.08000 F4800.00000
G1 Z0.800 F10800.000
G1 X159.496 Y44.227
G1 Z0.200
G1 E4.00000 F3000.00000
G1 F1200
G1 X158.903 Y43.634 E0.02631
G1 X158.369 Y43.634 E0.01674
G1 X159.326 Y44.591 E0.04245
G1 X159.326 Y45.124 E0.01674
G1 X157.836 Y43.634 E0.06612
G1 X157.302 Y43.634 E0.01674
G1 X159.326 Y45.658 E0.08979
G1 X159.326 Y46.191 E0.01674
G1 X156.768 Y43.634 E0.11346
G1 X156.235 Y43.634 E0.01674
G1 X159.326 Y46.725 E0.13713
G1 X159.326 Y47.258 E0.01674
G1 X155.701 Y43.634 E0.16080
G1 X155.168 Y43.634 E0.01674
G1 X159.326 Y47.792 E0.18447
G1 X159.326 Y48.325 E0.01674
G1 X154.634 Y43.634 E0.20814
G1 X154.101 Y43.634 E0.01674
G1 X159.326 Y48.859 E0.23181
G1 X159.326 Y49.392 E0.01674
G1 X153.567 Y43.634 E0.25549
G1 X153.034 Y43.634 E0.01674
G1 X159.326 Y49.926 E0.27916
G1 X159.326 Y50.460 E0.01674
G1 X152.500 Y43.634 E0.30283
G1 X151.966 Y43.634 E0.01674
G1 X159.326 Y50.993 E0.32650
G1 X159.326 Y51.527 E0.01674
G1 X151.433 Y43.634 E0.35017
G1 X150.899 Y43.634 E0.01674
G1 X159.326 Y52.060 E0.37384
G1 X159.326 Y52.594 E0.01674
G1 X150.366 Y43.634 E0.39751
G1 X149.832 Y43.634 E0.01674
G1 X159.326 Y53.127 E0.42118
G1 X159.326 Y53.661 E0.01674
G1 X149.299 Y43.634 E0.44485
G1 X148.765 Y43.634 E0.01674
G1 X159.326 Y54.194 E0.46852
G1 X159.326 Y54.728 E0.01674
G1 X148.232 Y43.634 E0.49219
G1 X147.698 Y43.634 E0.01674
G1 X159.326 Y55.261 E0.51586
G1 X159.326 Y55.795 E0.01674
G1 X147.165 Y43.634 E0.53953
G1 X146.631 Y43.634 E0.01674
G1 X159.326 Y56.329 E0.56320
G1 X159.326 Y56.862 E0.01674
G1 X146.097 Y43.634 E0.58687
G1 X145.564 Y43.634 E0.01674
G1 X159.326 Y57.396 E0.61054
G1 X159.326 Y57.929 E0.01674
G1 X145.030 Y43.634 E0.63421
G1 X144.497 Y43.634 E0.01674
G1 X159.326 Y58.463 E0.65788
G1 X159.326 Y58.996 E0.01674
G1 X143.963 Y43.634 E0.68155
G1 X143.430 Y43.634 E0.01674
G1 X159.326 Y59.530 E0.70523
G1 X159.326 Y60.063 E0.01674
G1 X142.896 Y43.634 E0.72890
G1 X142.363 Y43.634 E0.01674
G1 X159.326 Y60.597 E0.75257
G1 X159.326 Y61.130 E0.01674
G1 X141.829 Y43.634 E0.77624
G1 X141.296 Y43.634 E0.01674
G1 X159.326 Y61.664 E0.79991
G1 X159.326 Y62.198 E0.01674
G1 X140.762 Y43.634 E0.82358
G1 X140.228 Y43.634 E0.01674
G1 X159.326 Y62.731 E0.84725
G1 X159.326 Y63.265 E0.01674
G1 X139.695 Y43.634 E0.87092
G1 X139.161 Y43.634 E0.01674
G1 X159.326 Y63.798 E0.89459
G1 X159.326 Y64.332 E0.01674
G1 X138.628 Y43.634 E0.91826
G1 X138.094 Y43.634 E0.01674
G1 X159.326 Y64.865 E0.94193
G1 X159.326 Y65.399 E0.01674
G1 X137.561 Y43.634 E0.96560
G1 X137.027 Y43.634 E0.01674
G1 X159.326 Y65.932 E0.98927
G1 X159.326 Y66.466 E0.01674
G1 X136.494 Y43.634 E1.01294
G1 X135.960 Y43.634 E0.01674
G1 X159.326 Y66.999 E1.03661
G1 X159.326 Y67.533 E0.01674
G1 X135.427 Y43.634 E1.06028
G1 X134.893 Y43.634 E0.01674
G1 X159.326 Y68.067 E1.08395
G1 X159.326 Y68.600 E0.01674
G1 X134.359 Y43.634 E1.10762
G1 X133.826 Y43.634 E0.01674
G1 X159.326 Y69.134 E1.13129
G1 X159.326 Y69.667 E0.01674
G1 X133.292 Y43.634 E1.15496
G1 X132.759 Y43.634 E0.01674
G1 X159.326 Y70.201 E1.17864
G1 X159.326 Y70.734 E0.01674
G1 X132.225 Y43.634 E1.20231
M73 P3 R58
G1 X131.692 Y43.634 E0.01674
G1 X159.326 Y71.268 E1.22598
G1 X159.326 Y71.801 E0.01674
G1 X131.158 Y43.634 E1.24965
G1 X130.625 Y43.634 E0.01674
G1 X159.326 Y72.335 E1.27332
G1 X159.326 Y72.868 E0.01674
G1 X130.091 Y43.634 E1.29699
G1 X129.558 Y43.634 E0.01674
G1 X159.326 Y73.402 E1.32066
G1 X159.326 Y73.936 E0.01674
G1 X129.024 Y43.634 E1.34433
G1 X128.490 Y43.634 E0.01674
G1 X159.326 Y74.469 E1.36800
G1 X159.326 Y75.003 E0.01674
G1 X127.957 Y43.634 E1.39167
G1 X127.423 Y43.634 E0.01674
G1 X159.326 Y75.536 E1.41534
G1 X159.326 Y76.070 E0.01674
G1 X126.890 Y43.634 E1.43901
G1 X126.356 Y43.634 E0.01674
G1 X159.326 Y76.603 E1.46268
G1 X159.326 Y77.137 E0.01674
G1 X125.823 Y43.634 E1.48635
G1 X125.289 Y43.634 E0.01674
G1 X159.326 Y77.670 E1.51002
G1 X159.326 Y78.204 E0.01674
G1 X124.756 Y43.634 E1.53369
G1 X124.222 Y43.634 E0.01674
G1 X159.326 Y78.737 E1.55736
G1 X159.326 Y79.271 E0.01674
G1 X123.689 Y43.634 E1.58103
G1 X123.155 Y43.634 E0.01674
G1 X159.326 Y79.805 E1.60470
G1 X159.326 Y80.338 E0.01674
G1 X122.621 Y43.634 E1.62838
G1 X122.088 Y43.634 E0.01674
G1 X159.326 Y80.872 E1.65205
G1 X159.326 Y81.405 E0.01674
G1 X121.554 Y43.634 E1.67572
G1 X121.021 Y43.634 E0.01674
G1 X159.326 Y81.939 E1.69939
G1 X159.326 Y82.472 E0.01674
G1 X120.487 Y43.634 E1.72306
G1 X119.954 Y43.634 E0.01674
G1 X159.326 Y83.006 E1.74673
G1 X159.326 Y83.539 E0.01674
G1 X119.420 Y43.634 E1.77040
G1 X118.887 Y43.634 E0.01674
G1 X159.326 Y84.073 E1.79407
M73 P5 R57
G1 X159.326 Y84.606 E0.01674
G1 X118.353 Y43.634 E1.81774
G1 X117.820 Y43.634 E0.01674
G1 X159.326 Y85.140 E1.84141
G1 X159.326 Y85.674 E0.01674
G1 X117.286 Y43.634 E1.86508
G1 X116.752 Y43.634 E0.01674
G1 X159.326 Y86.207 E1.88875
G1 X159.326 Y86.741 E0.01674
G1 X116.219 Y43.634 E1.91242
G1 X115.685 Y43.634 E0.01674
G1 X159.326 Y87.274 E1.93609
G1 X159.326 Y87.808 E0.01674
G1 X115.152 Y43.634 E1.95976
G1 X114.618 Y43.634 E0.01674
G1 X159.326 Y88.341 E1.98343
G1 X159.326 Y88.875 E0.01674
G1 X114.085 Y43.634 E2.00710
G1 X113.551 Y43.634 E0.01674
G1 X159.326 Y89.408 E2.03077
G1 X159.326 Y89.942 E0.01674
G1 X113.018 Y43.634 E2.05444
G1 X112.484 Y43.634 E0.01674
G1 X159.326 Y90.475 E2.07812
G1 X159.326 Y91.009 E0.01674
G1 X111.951 Y43.634 E2.10179
G1 X111.417 Y43.634 E0.01674
G1 X159.326 Y91.543 E2.12546
G1 X159.326 Y92.076 E0.01674
G1 X110.883 Y43.634 E2.14913
G1 X110.350 Y43.634 E0.01674
G1 X159.326 Y92.610 E2.17280
G1 X159.326 Y93.143 E0.01674
G1 X109.816 Y43.634 E2.19647
G1 X109.283 Y43.634 E0.01674
G1 X159.326 Y93.677 E2.22014
G1 X159.326 Y94.210 E0.01674
G1 X108.749 Y43.634 E2.24381
M73 P6 R56
G1 X108.216 Y43.634 E0.01674
G1 X159.326 Y94.744 E2.26748
G1 X159.326 Y95.277 E0.01674
G1 X107.682 Y43.634 E2.29115
G1 X107.149 Y43.634 E0.01674
G1 X159.326 Y95.811 E2.31482
G1 X159.326 Y96.344 E0.01674
G1 X106.615 Y43.634 E2.33849
G1 X106.082 Y43.634 E0.01674
G1 X159.326 Y96.878 E2.36216
G1 X159.326 Y97.412 E0.01674
G1 X105.548 Y43.634 E2.38583
G1 X105.014 Y43.634 E0.01674
G1 X159.326 Y97.945 E2.40950
G1 X159.326 Y98.479 E0.01674
G1 X104.481 Y43.634 E2.43317
G1 X103.947 Y43.634 E0.01674
G1 X159.326 Y99.012 E2.45684
G1 X159.326 Y99.546 E0.01674
G1 X103.414 Y43.634 E2.48051
G1 X102.880 Y43.634 E0.01674
G1 X159.326 Y100.079 E2.50418
G1 X159.326 Y100.613 E0.01674
G1 X102.347 Y43.634 E2.52785
G1 X101.813 Y43.634 E0.01674
G1 X159.326 Y101.146 E2.55153
G1 X159.326 Y101.680 E0.01674
G1 X101.280 Y43.634 E2.57520
G1 X100.746 Y43.634 E0.01674
G1 X159.326 Y102.213 E2.59887
G1 X159.326 Y102.747 E0.01674
G1 X100.213 Y43.634 E2.62254
M73 P8 R55
G1 X99.679 Y43.634 E0.01674
G1 X159.326 Y103.281 E2.64621
G1 X159.326 Y103.814 E0.01674
G1 X99.145 Y43.634 E2.66988
G1 X98.612 Y43.634 E0.01674
G1 X159.326 Y104.348 E2.69355
G1 X159.326 Y104.881 E0.01674
G1 X98.078 Y43.634 E2.71722
G1 X97.545 Y43.634 E0.01674
G1 X159.326 Y105.415 E2.74089
G1 X159.326 Y105.948 E0.01674
G1 X97.011 Y43.634 E2.76456
G1 X96.478 Y43.634 E0.01674
G1 X159.326 Y106.482 E2.78823
G1 X159.326 Y107.015 E0.01674
G1 X95.944 Y43.634 E2.81190
G1 X95.411 Y43.634 E0.01674
G1 X159.326 Y107.549 E2.83557
G1 X159.326 Y108.083 E0.01674
G1 X94.877 Y43.634 E2.85924
G1 X94.344 Y43.634 E0.01674
G1 X159.326 Y108.616 E2.88291
G1 X159.326 Y109.150 E0.01674
G1 X93.810 Y43.634 E2.90658
G1 X93.276 Y43.634 E0.01674
G1 X159.326 Y109.683 E2.93025
G1 X159.326 Y110.217 E0.01674
G1 X92.743 Y43.634 E2.95392
M73 P10 R54
G1 X92.209 Y43.634 E0.01674
G1 X159.326 Y110.750 E2.97759
G1 X159.326 Y111.284 E0.01674
G1 X91.676 Y43.634 E3.00127
G1 X91.142 Y43.634 E0.01674
G1 X159.326 Y111.817 E3.02494
G1 X159.326 Y112.351 E0.01674
G1 X91.066 Y44.091 E3.02834
G1 X91.066 Y44.624 E0.01674
G1 X159.326 Y112.884 E3.02834
G1 X159.326 Y113.418 E0.01674
G1 X91.066 Y45.158 E3.02834
G1 X91.066 Y45.691 E0.01674
G1 X159.326 Y113.952 E3.02834
G1 X159.326 Y114.485 E0.01674
G1 X91.066 Y46.225 E3.02834
G1 X91.066 Y46.758 E0.01674
G1 X159.326 Y115.019 E3.02834
G1 X159.326 Y115.552 E0.01674
G1 X91.066 Y47.292 E3.02834
G1 X91.066 Y47.825 E0.01674
G1 X159.326 Y116.086 E3.02834
G1 X159.326 Y116.619 E0.01674
G1 X91.066 Y48.359 E3.02834
G1 X91.066 Y48.893 E0.01674
G1 X159.326 Y117.153 E3.02834
M73 P12 R53
G1 X159.326 Y117.686 E0.01674
G1 X91.066 Y49.426 E3.02834
G1 X91.066 Y49.960 E0.01674
G1 X159.326 Y118.220 E3.02834
G1 X159.326 Y118.753 E0.01674
G1 X91.066 Y50.493 E3.02834
G1 X91.066 Y51.027 E0.01674
G1 X159.326 Y119.287 E3.02834
G1 X159.326 Y119.821 E0.01674
G1 X91.066 Y51.560 E3.02834
G1 X91.066 Y52.094 E0.01674
G1 X159.326 Y120.354 E3.02834
G1 X159.326 Y120.888 E0.01674
G1 X91.066 Y52.627 E3.02834
G1 X91.066 Y53.161 E0.01674
G1 X159.326 Y121.421 E3.02834
G1 X159.326 Y121.955 E0.01674
G1 X91.066 Y53.694 E3.02834
G1 X91.066 Y54.228 E0.01674
G1 X159.326 Y122.488 E3.02834
G1 X159.326 Y123.022 E0.01674
G1 X91.066 Y54.762 E3.02834
G1 X91.066 Y55.295 E0.01674
G1 X159.326 Y123.555 E3.02834
G1 X159.326 Y124.089 E0.01674
G1 X91.066 Y55.829 E3.02834
M73 P13 R52
G1 X91.066 Y56.362 E0.01674
G1 X159.326 Y124.622 E3.02834
G1 X159.326 Y125.156 E0.01674
G1 X91.066 Y56.896 E3.02834
G1 X91.066 Y57.429 E0.01674
G1 X159.326 Y125.690 E3.02834
G1 X159.326 Y126.223 E0.01674
G1 X91.066 Y57.963 E3.02834
G1 X91.066 Y58.496 E0.01674
G1 X159.326 Y126.757 E3.02834
G1 X159.326 Y127.290 E0.01674
G1 X91.066 Y59.030 E3.02834
G1 X91.066 Y59.563 E0.01674
G1 X159.326 Y127.824 E3.02834
G1 X159.326 Y128.357 E0.01674
G1 X91.066 Y60.097 E3.02834
G1 X91.066 Y60.631 E0.01674
G1 X159.326 Y128.891 E3.02834
G1 X159.326 Y129.424 E0.01674
G1 X91.066 Y61.164 E3.02834
G1 X91.066 Y61.698 E0.01674
G1 X159.326 Y129.958 E3.02834
G1 X159.326 Y130.491 E0.01674
G1 X91.066 Y62.231 E3.02834
G1 X91.066 Y62.765 E0.01674
G1 X159.326 Y131.025 E3.02834
M73 P15 R51
G1 X159.326 Y131.559 E0.01674
G1 X91.066 Y63.298 E3.02834
G1 X91.066 Y63.832 E0.01674
G1 X159.326 Y132.092 E3.02834
G1 X159.326 Y132.626 E0.01674
G1 X91.066 Y64.365 E3.02834
G1 X91.066 Y64.899 E0.01674
G1 X159.326 Y133.159 E3.02834
G1 X159.326 Y133.693 E0.01674
G1 X91.066 Y65.432 E3.02834
G1 X91.066 Y65.966 E0.01674
G1 X159.326 Y134.226 E3.02834
G1 X159.326 Y134.760 E0.01674
G1 X91.066 Y66.500 E3.02834
G1 X91.066 Y67.033 E0.01674
G1 X159.326 Y135.293 E3.02834
G1 X159.326 Y135.827 E0.01674
G1 X91.066 Y67.567 E3.02834
G1 X91.066 Y68.100 E0.01674
G1 X159.326 Y136.360 E3.02834
G1 X159.326 Y136.894 E0.01674
G1 X91.066 Y68.634 E3.02834
G1 X91.066 Y69.167 E0.01674
G1 X159.326 Y137.428 E3.02834
G1 X159.326 Y137.961 E0.01674
G1 X91.066 Y69.701 E3.02834
M73 P17 R50
G1 X91.066 Y70.234 E0.01674
G1 X159.326 Y138.495 E3.02834
G1 X159.326 Y139.028 E0.01674
G1 X91.066 Y70.768 E3.02834
G1 X91.066 Y71.301 E0.01674
G1 X159.326 Y139.562 E3.02834
G1 X159.326 Y140.095 E0.01674
G1 X91.066 Y71.835 E3.02834
G1 X91.066 Y72.369 E0.01674
G1 X159.326 Y140.629 E3.02834
G1 X159.326 Y141.162 E0.01674
G1 X91.066 Y72.902 E3.02834
G1 X91.066 Y73.436 E0.01674
G1 X159.326 Y141.696 E3.02834
G1 X159.326 Y142.229 E0.01674
G1 X91.066 Y73.969 E3.02834
G1 X91.066 Y74.503 E0.01674
G1 X159.326 Y142.763 E3.02834
G1 X159.326 Y143.297 E0.01674
G1 X91.066 Y75.036 E3.02834
G1 X91.066 Y75.570 E0.01674
G1 X159.326 Y143.830 E3.02834
G1 X159.326 Y144.364 E0.01674
G1 X91.066 Y76.103 E3.02834
G1 X91.066 Y76.637 E0.01674
G1 X159.326 Y144.897 E3.02834
M73 P19 R49
G1 X159.326 Y145.431 E0.01674
G1 X91.066 Y77.170 E3.02834
G1 X91.066 Y77.704 E0.01674
G1 X159.326 Y145.964 E3.02834
G1 X159.326 Y146.498 E0.01674
G1 X91.066 Y78.238 E3.02834
G1 X91.066 Y78.771 E0.01674
G1 X159.326 Y147.031 E3.02834
G1 X159.326 Y147.565 E0.01674
G1 X91.066 Y79.305 E3.02834
G1 X91.066 Y79.838 E0.01674
G1 X159.326 Y148.098 E3.02834
G1 X159.326 Y148.632 E0.01674
G1 X91.066 Y80.372 E3.02834
G1 X91.066 Y80.905 E0.01674
G1 X159.326 Y149.166 E3.02834
G1 X159.326 Y149.699 E0.01674
G1 X91.066 Y81.439 E3.02834
G1 X91.066 Y81.972 E0.01674
G1 X159.326 Y150.233 E3.02834
G1 X159.326 Y150.766 E0.01674
G1 X91.066 Y82.506 E3.02834
G1 X91.066 Y83.039 E0.01674
G1 X159.326 Y151.300 E3.02834
G1 X159.326 Y151.833 E0.01674
G1 X91.066 Y83.573 E3.02834
M73 P20 R48
G1 X91.066 Y84.107 E0.01674
G1 X159.326 Y152.367 E3.02834
G1 X159.326 Y152.900 E0.01674
G1 X91.066 Y84.640 E3.02834
G1 X91.066 Y85.174 E0.01674
G1 X159.326 Y153.434 E3.02834
G1 X159.326 Y153.967 E0.01674
G1 X91.066 Y85.707 E3.02834
G1 X91.066 Y86.241 E0.01674
G1 X159.326 Y154.501 E3.02834
G1 X159.326 Y155.035 E0.01674
G1 X91.066 Y86.774 E3.02834
G1 X91.066 Y87.308 E0.01674
G1 X159.326 Y155.568 E3.02834
G1 X159.326 Y156.102 E0.01674
G1 X91.066 Y87.841 E3.02834
G1 X91.066 Y88.375 E0.01674
G1 X159.326 Y156.635 E3.02834
G1 X159.326 Y157.169 E0.01674
G1 X91.066 Y88.908 E3.02834
G1 X91.066 Y89.442 E0.01674
G1 X159.326 Y157.702 E3.02834
G1 X159.326 Y158.236 E0.01674
G1 X91.066 Y89.976 E3.02834
G1 X91.066 Y90.509 E0.01674
G1 X159.326 Y158.769 E3.02834
M73 P22 R47
G1 X159.326 Y159.303 E0.01674
G1 X91.066 Y91.043 E3.02834
G1 X91.066 Y91.576 E0.01674
G1 X159.326 Y159.836 E3.02834
G1 X159.326 Y160.370 E0.01674
G1 X91.066 Y92.110 E3.02834
G1 X91.066 Y92.643 E0.01674
G1 X159.326 Y160.904 E3.02834
G1 X159.326 Y161.437 E0.01674
G1 X91.066 Y93.177 E3.02834
G1 X91.066 Y93.710 E0.01674
G1 X159.249 Y161.894 E3.02493
G1 X158.716 Y161.894 E0.01674
G1 X91.066 Y94.244 E3.00126
