; generated by PrusaSlicer 2.1.1+win64 on 2020-03-22 at 20:42:53 UTC

; 

; external perimeters extrusion width = 0.60mm
; perimeters extrusion width = 0.43mm
; infill extrusion width = 0.45mm
; solid infill extrusion width = 0.70mm
; top infill extrusion width = 0.43mm
; first layer extrusion width = 0.42mm

M73 P0 R298
M201 X9000 Y9000 Z500 E10000 ; sets maximum accelerations, mm/sec^2
M203 X500 Y500 Z12 E120 ; sets maximum feedrates, mm/sec
M204 P2000 R1500 T2000 ; sets acceleration (P, T) and retract acceleration (R), mm/sec^2
M205 X10.00 Y10.00 Z0.20 E2.50 ; sets the jerk limits, mm/sec
M205 S0 T0 ; sets the minimum extruding and travel feed rate, mm/sec
M107
M862.3 P "MK2SMM" ; printer model check
M862.1 P0.4 ; nozzle diameter check
M115 U3.2.3 ; tell printer latest fw version
M204 S2000 T1500 ; MK2 firmware only supports the old M204 format
; Start G-Code sequence START
T0
M104 S215 ; set extruder temp
M140 S60 ; set bed temp
M190 S60 ; wait for bed temp
M109 S215 ; wait for extruder temp
G90 ; use absolute coordinates
M83 ; use relative distances for extrusion
G28 W
G80
G92 E0.0
M203 E100 ; set max feedrate
M92 E140 ; E-steps per filament milimeter

G1 Z0.250 F7200.000
G1 X50.0 E80.0 F1000.0
M73 P0 R298
G1 X160.0 E20.0 F1000.0
G1 Z0.200 F7200.000
G1 X220.0 E13 F1000.0
G1 X240.0 E0 F1000.0

G92 E0.0
G21 ; set units to millimeters
G90 ; use absolute coordinates
M83 ; use relative distances for extrusion
M900 K200 ; Filament gcode
;BEFORE_LAYER_CHANGE
G92 E0.0
;0.2


G1 Z0.200 F10800.000
;AFTER_LAYER_CHANGE
;0.2
G1 E-4.00000 F4800.00000
G1 Z0.800 F10800.000
G1 X4.863 Y29.239
G1 Z0.200
G1 E4.00000 F3000.00000
M204 S1000
G1 F1200
G1 X5.450 Y29.128 E0.01873
G1 X126.578 Y23.364 E3.80217
G1 X246.638 Y23.364 E3.76440
G1 X247.471 Y23.530 E0.02664
G1 X248.176 Y23.999 E0.02653
G1 X248.651 Y24.703 E0.02664
G1 X248.823 Y25.535 E0.02664
G1 X248.823 Y186.906 E5.05965
G1 X248.755 Y187.430 E0.01658
G1 X248.566 Y187.920 E0.01646
G1 X248.263 Y188.353 E0.01658
G1 X247.865 Y188.701 E0.01658
G1 X247.281 Y188.982 E0.02032
G1 X246.640 Y189.080 E0.02032
G1 X5.554 Y189.164 E7.55907
G1 X5.026 Y189.098 E0.01669
G1 X4.533 Y188.909 E0.01658
G1 X4.099 Y188.606 E0.01658
G1 X3.748 Y188.206 E0.01669
G1 X3.467 Y187.622 E0.02032
G1 X3.370 Y186.981 E0.02032
G1 X3.370 Y31.307 E4.88106
G1 X3.436 Y30.778 E0.01669
G1 X3.626 Y30.285 E0.01658
G1 X3.929 Y29.852 E0.01658
G1 X4.327 Y29.504 E0.01658
G1 X4.809 Y29.265 E0.01685
G1 E-2.40000 F4800.00000
G1 F8640
G1 X5.450 Y29.128 E-0.34595
G1 X7.672 Y29.022 E-1.17405
G1 E-0.08000 F4800.00000
G1 Z0.800 F10800.000
G1 X238.446 Y140.028
G1 Z0.200
G1 E4.00000 F3000.00000
G1 F1200
G1 X238.778 Y139.554 E0.01814
G1 X239.192 Y139.150 E0.01814
G1 X239.674 Y138.830 E0.01814
G1 X240.208 Y138.605 E0.01816
G1 X240.781 Y138.483 E0.01839
G1 X241.338 Y138.471 E0.01744
G1 X241.652 Y138.508 E0.00993
G1 X242.198 Y138.652 E0.01771
G1 X242.721 Y138.901 E0.01814
G1 X243.187 Y139.243 E0.01814
G1 X243.582 Y139.667 E0.01814
G1 X243.890 Y140.156 E0.01814
G1 X244.102 Y140.694 E0.01814
G1 X244.210 Y141.263 E0.01814
G1 X244.210 Y141.842 E0.01814
G1 X244.102 Y142.410 E0.01814
G1 X243.890 Y142.948 E0.01814
G1 X243.589 Y143.426 E0.01771
G1 X243.384 Y143.668 E0.00994
G1 X242.962 Y144.043 E0.01771
G1 X242.465 Y144.340 E0.01814
G1 X241.922 Y144.540 E0.01814
G1 X241.351 Y144.634 E0.01814
G1 X240.773 Y144.621 E0.01814
G1 X240.207 Y144.500 E0.01814
G1 X239.674 Y144.275 E0.01814
G1 X239.203 Y143.963 E0.01771
G1 X238.966 Y143.752 E0.00994
G1 X238.601 Y143.321 E0.01771
G1 X238.315 Y142.818 E0.01814
G1 X238.129 Y142.270 E0.01814
G1 X238.048 Y141.697 E0.01814
G1 X238.075 Y141.119 E0.01814
G1 X238.209 Y140.556 E0.01814
G1 X238.422 Y140.083 E0.01626
G1 X238.766 Y140.238 F10800.000
G1 F1200
G1 X239.066 Y139.799 E0.01668
G1 X239.430 Y139.444 E0.01592
G1 X239.853 Y139.163 E0.01592
G1 X240.321 Y138.966 E0.01593
G1 X240.825 Y138.859 E0.01616
G1 X241.320 Y138.848 E0.01551
G1 X241.582 Y138.879 E0.00827
G1 X242.068 Y139.007 E0.01576
G1 X242.526 Y139.226 E0.01592
G1 X242.935 Y139.526 E0.01592
G1 X243.282 Y139.898 E0.01592
G1 X243.552 Y140.327 E0.01592
G1 X243.738 Y140.800 E0.01592
G1 X243.833 Y141.298 E0.01592
G1 X243.833 Y141.806 E0.01592
G1 X243.738 Y142.305 E0.01592
G1 X243.552 Y142.777 E0.01592
G1 X243.284 Y143.203 E0.01576
G1 X243.113 Y143.404 E0.00828
G1 X242.738 Y143.738 E0.01576
G1 X242.302 Y143.999 E0.01592
G1 X241.825 Y144.173 E0.01592
G1 X241.325 Y144.256 E0.01592
G1 X240.817 Y144.245 E0.01592
G1 X240.321 Y144.138 E0.01592
G1 X239.853 Y143.941 E0.01592
G1 X239.434 Y143.663 E0.01576
G1 X239.237 Y143.488 E0.00828
G1 X238.911 Y143.104 E0.01576
G1 X238.661 Y142.663 E0.01592
G1 X238.497 Y142.182 E0.01592
G1 X238.426 Y141.679 E0.01592
G1 X238.450 Y141.172 E0.01592
G1 X238.568 Y140.678 E0.01592
G1 X238.741 Y140.292 E0.01327
G1 X238.561 Y139.894 F10800.000
G1 E-2.40000 F4800.00000
G1 F8640
G1 X239.066 Y139.799 E-0.31190
G1 X239.430 Y139.444 E-0.26796
G1 X239.853 Y139.163 E-0.26797
G1 X240.321 Y138.966 E-0.26809
G1 X240.825 Y138.859 E-0.27209
G1 X241.075 Y138.854 E-0.13200
G1 E-0.08000 F4800.00000
G1 Z0.800 F10800.000
G1 X241.351 Y35.634
G1 Z0.200
G1 E4.00000 F3000.00000
G1 F1200
G1 X240.773 Y35.621 E0.01814
G1 X240.207 Y35.500 E0.01814
G1 X239.674 Y35.275 E0.01814
G1 X239.192 Y34.955 E0.01814
G1 X238.788 Y34.560 E0.01771
G1 X238.594 Y34.309 E0.00994
G1 X238.315 Y33.818 E0.01771
G1 X238.129 Y33.270 E0.01814
G1 X238.048 Y32.697 E0.01814
G1 X238.075 Y32.119 E0.01814
G1 X238.209 Y31.556 E0.01814
G1 X238.446 Y31.028 E0.01814
G1 X238.778 Y30.554 E0.01814
G1 X239.192 Y30.150 E0.01814
G1 X239.674 Y29.830 E0.01814
G1 X240.208 Y29.605 E0.01816
G1 X240.781 Y29.483 E0.01839
G1 X241.338 Y29.471 E0.01744
G1 X241.652 Y29.508 E0.00993
G1 X242.198 Y29.652 E0.01771
G1 X242.721 Y29.901 E0.01814
G1 X243.187 Y30.243 E0.01814
G1 X243.582 Y30.667 E0.01814
G1 X243.890 Y31.156 E0.01814
G1 X244.102 Y31.694 E0.01814
G1 X244.210 Y32.263 E0.01814
G1 X244.210 Y32.842 E0.01814
G1 X244.102 Y33.410 E0.01814
G1 X243.890 Y33.948 E0.01814
G1 X243.582 Y34.438 E0.01814
G1 X243.187 Y34.861 E0.01814
G1 X242.732 Y35.195 E0.01771
G1 X242.452 Y35.345 E0.00994
G1 X241.922 Y35.540 E0.01771
G1 X241.410 Y35.624 E0.01626
G1 X241.349 Y35.252 F10800.000
G1 F1200
G1 X240.817 Y35.245 E0.01668
G1 X240.321 Y35.138 E0.01592
G1 X239.853 Y34.941 E0.01592
M73 P0 R297
G1 X239.430 Y34.660 E0.01592
G1 X239.070 Y34.309 E0.01576
G1 X238.909 Y34.100 E0.00828
G1 X238.661 Y33.663 E0.01576
G1 X238.497 Y33.182 E0.01592
G1 X238.426 Y32.679 E0.01592
G1 X238.450 Y32.172 E0.01592
G1 X238.568 Y31.678 E0.01592
G1 X238.776 Y31.215 E0.01592
G1 X239.066 Y30.799 E0.01592
G1 X239.430 Y30.444 E0.01592
G1 X239.853 Y30.163 E0.01592
G1 X240.321 Y29.966 E0.01593
G1 X240.825 Y29.859 E0.01616
G1 X241.320 Y29.848 E0.01551
G1 X241.582 Y29.879 E0.00827
G1 X242.068 Y30.007 E0.01576
G1 X242.526 Y30.226 E0.01592
G1 X242.935 Y30.526 E0.01592
G1 X243.282 Y30.898 E0.01592
G1 X243.552 Y31.327 E0.01592
G1 X243.738 Y31.800 E0.01592
G1 X243.833 Y32.298 E0.01592
G1 X243.833 Y32.806 E0.01592
G1 X243.738 Y33.305 E0.01592
G1 X243.552 Y33.777 E0.01592
G1 X243.282 Y34.207 E0.01592
G1 X242.935 Y34.578 E0.01592
G1 X242.530 Y34.876 E0.01576
G1 X242.297 Y35.000 E0.00828
G1 X241.825 Y35.174 E0.01576
G1 X241.408 Y35.243 E0.01327
G1 X241.176 Y35.613 F10800.000
G1 E-2.40000 F4800.00000
G1 F8640
G1 X240.817 Y35.245 E-0.31190
G1 X240.321 Y35.138 E-0.26796
G1 X239.853 Y34.941 E-0.26796
G1 X239.430 Y34.660 E-0.26797
G1 X239.070 Y34.309 E-0.26534
G1 X238.909 Y34.101 E-0.13887
G1 E-0.08000 F4800.00000
G1 Z0.800 F10800.000
G1 X225.263 Y50.652
G1 Z0.200
G1 E4.00000 F3000.00000
G1 F1200
G1 X225.784 Y51.198 E0.02370
G1 X227.246 Y52.863 E0.06945
G1 X228.629 Y54.576 E0.06902
G1 X229.929 Y56.331 E0.06850
G1 X230.560 Y57.241 E0.03470
G1 X231.764 Y59.096 E0.06936
G1 X232.883 Y60.989 E0.06893
G1 X233.416 Y61.959 E0.03470
G1 X234.409 Y63.905 E0.06850
G1 X235.332 Y65.915 E0.06935
G1 X235.762 Y66.935 E0.03471
G1 X236.548 Y68.974 E0.06850
G1 X237.261 Y71.079 E0.06970
G1 X237.879 Y73.189 E0.06892
G1 X238.157 Y74.260 E0.03470
G1 X238.635 Y76.368 E0.06778
G1 X239.039 Y78.568 E0.07014
G1 X239.345 Y80.745 E0.06892
G1 X239.465 Y81.845 E0.03470
G1 X239.633 Y84.000 E0.06778
G1 X239.715 Y86.233 E0.07005
G1 X239.720 Y87.339 E0.03470
G1 X239.665 Y89.501 E0.06778
G1 X239.515 Y91.733 E0.07014
G1 X239.275 Y93.918 E0.06892
G1 X239.121 Y95.013 E0.03470
G1 X238.753 Y97.144 E0.06778
G1 X238.282 Y99.331 E0.07014
G1 X237.729 Y101.458 E0.06892
G1 X237.418 Y102.520 E0.03470
G1 X236.746 Y104.575 E0.06778
G1 X235.965 Y106.665 E0.06997
G1 X235.546 Y107.690 E0.03471
G1 X234.655 Y109.685 E0.06850
G1 X233.669 Y111.668 E0.06945
G1 X232.610 Y113.594 E0.06893
G1 X232.046 Y114.547 E0.03470
G1 X230.876 Y116.392 E0.06850
G1 X229.614 Y118.213 E0.06945
G1 X228.287 Y119.965 E0.06893
G1 X227.592 Y120.827 E0.03470
G1 X226.167 Y122.483 E0.06850
G1 X224.657 Y124.099 E0.06936
G1 X223.876 Y124.884 E0.03471
G1 X222.288 Y126.384 E0.06850
G1 X220.616 Y127.838 E0.06945
G1 X218.898 Y129.210 E0.06893
G1 X218.013 Y129.873 E0.03470
G1 X216.224 Y131.128 E0.06850
G1 X214.360 Y132.324 E0.06945
G1 X212.461 Y133.433 E0.06893
G1 X211.489 Y133.962 E0.03471
G1 X209.538 Y134.944 E0.06850
G1 X207.523 Y135.857 E0.06936
G1 X206.500 Y136.282 E0.03471
G1 X204.458 Y137.058 E0.06850
G1 X202.357 Y137.758 E0.06945
G1 X200.244 Y138.365 E0.06893
G1 X199.171 Y138.638 E0.03470
G1 X197.038 Y139.110 E0.06850
G1 X194.857 Y139.499 E0.06945
G1 X192.675 Y139.795 E0.06903
G1 X190.487 Y139.999 E0.06893
G1 X189.382 Y140.068 E0.03470
G1 X187.184 Y140.137 E0.06893
G1 X184.969 Y140.113 E0.06945
G1 X182.788 Y140.000 E0.06850
G1 X181.685 Y139.908 E0.03471
G1 X179.503 Y139.658 E0.06883
G1 X178.408 Y139.498 E0.03471
G1 X176.244 Y139.113 E0.06893
G1 X174.094 Y138.637 E0.06903
G1 X171.953 Y138.069 E0.06945
G1 X169.867 Y137.422 E0.06850
G1 X168.820 Y137.061 E0.03471
G1 X166.765 Y136.281 E0.06893
G1 X164.728 Y135.409 E0.06945
G1 X162.757 Y134.467 E0.06850
G1 X161.774 Y133.959 E0.03471
G1 X159.853 Y132.889 E0.06893
G1 X157.964 Y131.732 E0.06945
G1 X156.150 Y130.515 E0.06850
G1 X155.251 Y129.870 E0.03471
G1 X153.505 Y128.534 E0.06893
G1 X151.803 Y127.115 E0.06945
G1 X150.184 Y125.648 E0.06850
G1 X149.387 Y124.880 E0.03471
G1 X147.844 Y123.295 E0.06936
G1 X146.385 Y121.669 E0.06850
G1 X145.673 Y120.822 E0.03470
G1 X144.309 Y119.097 E0.06893
G1 X143.010 Y117.304 E0.06945
G1 X141.802 Y115.483 E0.06850
G1 X141.219 Y114.542 E0.03470
G1 X140.119 Y112.638 E0.06893
G1 X139.093 Y110.675 E0.06945
G1 X138.161 Y108.699 E0.06850
G1 X137.720 Y107.684 E0.03471
G1 X136.896 Y105.610 E0.06997
G1 X136.182 Y103.569 E0.06778
G1 X135.848 Y102.514 E0.03470
G1 X135.252 Y100.399 E0.06892
G1 X134.735 Y98.222 E0.07014
G1 X134.324 Y96.100 E0.06778
G1 X134.146 Y95.007 E0.03470
G1 X133.862 Y92.828 E0.06892
G1 X133.666 Y90.599 E0.07014
G1 X133.565 Y88.440 E0.06778
G1 X133.548 Y87.333 E0.03470
G1 X133.583 Y85.100 E0.07005
G1 X133.706 Y82.941 E0.06778
G1 X133.804 Y81.839 E0.03470
G1 X134.065 Y79.656 E0.06892
G1 X134.423 Y77.448 E0.07014
G1 X134.857 Y75.330 E0.06778
G1 X135.113 Y74.254 E0.03470
G1 X135.687 Y72.132 E0.06892
G1 X136.361 Y69.999 E0.07014
G1 X137.100 Y67.958 E0.06805
G1 X137.509 Y66.929 E0.03470
G1 X138.389 Y64.900 E0.06935
G1 X139.342 Y62.934 E0.06850
G1 X139.855 Y61.953 E0.03470
G1 X140.934 Y60.038 E0.06893
G1 X142.101 Y58.155 E0.06945
G1 X143.328 Y56.347 E0.06850
G1 X143.977 Y55.451 E0.03470
G1 X145.322 Y53.712 E0.06893
G1 X146.749 Y52.018 E0.06945
G1 X148.224 Y50.406 E0.06850
G1 X148.996 Y49.614 E0.03470
G1 X150.579 Y48.087 E0.06893
G1 X152.235 Y46.617 E0.06945
G1 X153.928 Y45.236 E0.06850
G1 X154.807 Y44.563 E0.03471
G1 X156.605 Y43.274 E0.06935
G1 X158.432 Y42.076 E0.06850
G1 X159.375 Y41.498 E0.03470
G1 X161.297 Y40.402 E0.06935
G1 X163.238 Y39.399 E0.06850
G1 X164.236 Y38.921 E0.03470
G1 X166.261 Y38.030 E0.06936
G1 X168.308 Y37.229 E0.06893
G1 X169.351 Y36.857 E0.03470
G1 X171.431 Y36.189 E0.06850
G1 X173.566 Y35.599 E0.06945
G1 X175.715 Y35.100 E0.06917
G1 X176.799 Y34.884 E0.03466
G1 X178.930 Y34.527 E0.06775
G1 X181.146 Y34.249 E0.07004
G1 X183.335 Y34.068 E0.06885
G1 X184.439 Y34.011 E0.03466
G1 X186.599 Y33.965 E0.06775
G1 X188.832 Y34.011 E0.07004
G1 X191.062 Y34.150 E0.07004
G1 X193.211 Y34.374 E0.06775
G1 X194.307 Y34.522 E0.03466
G1 X196.472 Y34.885 E0.06885
G1 X198.624 Y35.337 E0.06894
G1 X200.777 Y35.884 E0.06963
G1 X201.840 Y36.190 E0.03471
G1 X203.920 Y36.858 E0.06850
G1 X205.999 Y37.623 E0.06945
G1 X208.016 Y38.462 E0.06850
G1 X209.025 Y38.918 E0.03470
G1 X210.999 Y39.886 E0.06893
G1 X212.945 Y40.944 E0.06945
G1 X214.820 Y42.065 E0.06850
G1 X215.752 Y42.663 E0.03470
G1 X217.575 Y43.914 E0.06936
G1 X219.337 Y45.234 E0.06902
G1 X221.030 Y46.615 E0.06850
G1 X221.866 Y47.341 E0.03470
G1 X223.487 Y48.841 E0.06926
G1 X224.276 Y49.618 E0.03471
G1 X225.221 Y50.608 E0.04293
G1 X224.948 Y50.869 F10800.000
G1 F1200
G1 X225.506 Y51.453 E0.02533
G1 X226.957 Y53.106 E0.06896
G1 X228.330 Y54.807 E0.06853
G1 X229.623 Y56.551 E0.06807
G1 X230.247 Y57.451 E0.03434
G1 X231.443 Y59.295 E0.06893
G1 X232.555 Y61.176 E0.06850
G1 X233.083 Y62.135 E0.03434
G1 X234.070 Y64.069 E0.06807
G1 X234.987 Y66.067 E0.06893
G1 X235.412 Y67.076 E0.03434
G1 X236.193 Y69.102 E0.06807
G1 X236.901 Y71.193 E0.06921
G1 X237.515 Y73.289 E0.06849
G1 X237.790 Y74.349 E0.03433
G1 X238.265 Y76.444 E0.06736
G1 X238.667 Y78.629 E0.06965
G1 X238.971 Y80.792 E0.06849
G1 X239.090 Y81.880 E0.03433
G1 X239.257 Y84.022 E0.06736
G1 X239.338 Y86.241 E0.06962
G1 X239.343 Y87.336 E0.03433
G1 X239.288 Y89.483 E0.06736
G1 X239.139 Y91.699 E0.06965
G1 X238.901 Y93.871 E0.06849
G1 X238.748 Y94.955 E0.03433
G1 X238.383 Y97.072 E0.06736
G1 X237.915 Y99.243 E0.06965
G1 X237.366 Y101.358 E0.06849
G1 X237.058 Y102.408 E0.03433
G1 X236.390 Y104.450 E0.06736
G1 X235.614 Y106.528 E0.06954
G1 X235.199 Y107.541 E0.03434
G1 X234.314 Y109.524 E0.06807
G1 X233.335 Y111.493 E0.06896
G1 X232.282 Y113.408 E0.06850
G1 X231.725 Y114.350 E0.03434
G1 X230.562 Y116.184 E0.06808
G1 X229.309 Y117.991 E0.06896
G1 X227.990 Y119.733 E0.06850
G1 X227.302 Y120.585 E0.03434
G1 X225.886 Y122.232 E0.06807
G1 X224.386 Y123.838 E0.06893
G1 X223.613 Y124.614 E0.03434
G1 X222.035 Y126.105 E0.06807
G1 X220.375 Y127.548 E0.06896
G1 X218.668 Y128.911 E0.06850
G1 X217.791 Y129.568 E0.03434
G1 X216.014 Y130.815 E0.06808
G1 X214.163 Y132.002 E0.06896
G1 X212.276 Y133.105 E0.06850
G1 X211.314 Y133.627 E0.03434
G1 X209.375 Y134.604 E0.06807
G1 X207.372 Y135.511 E0.06893
G1 X206.361 Y135.932 E0.03434
G1 X204.331 Y136.702 E0.06807
G1 X202.245 Y137.398 E0.06896
G1 X200.145 Y138.001 E0.06850
G1 X199.084 Y138.271 E0.03434
G1 X196.964 Y138.740 E0.06807
G1 X194.799 Y139.126 E0.06896
G1 X192.632 Y139.420 E0.06854
G1 X190.457 Y139.623 E0.06850
G1 X189.364 Y139.691 E0.03434
G1 X187.181 Y139.759 E0.06850
G1 X184.981 Y139.736 E0.06896
G1 X182.813 Y139.624 E0.06807
G1 X181.722 Y139.533 E0.03434
G1 X179.552 Y139.284 E0.06847
G1 X178.469 Y139.126 E0.03434
G1 X176.318 Y138.743 E0.06850
G1 X174.183 Y138.271 E0.06854
G1 X172.058 Y137.707 E0.06896
G1 X169.984 Y137.063 E0.06807
G1 X168.948 Y136.707 E0.03434
G1 X166.906 Y135.931 E0.06850
G1 X164.884 Y135.065 E0.06896
G1 X162.925 Y134.129 E0.06807
G1 X161.952 Y133.626 E0.03434
G1 X160.043 Y132.564 E0.06850
G1 X158.168 Y131.415 E0.06896
G1 X156.365 Y130.205 E0.06808
G1 X155.475 Y129.567 E0.03434
G1 X153.740 Y128.239 E0.06850
G1 X152.051 Y126.831 E0.06896
G1 X150.442 Y125.373 E0.06807
G1 X149.653 Y124.613 E0.03434
G1 X148.119 Y123.038 E0.06893
G1 X146.670 Y121.421 E0.06808
G1 X145.965 Y120.584 E0.03434
G1 X144.610 Y118.869 E0.06850
G1 X143.319 Y117.089 E0.06896
G1 X142.119 Y115.279 E0.06808
G1 X141.542 Y114.348 E0.03434
G1 X140.450 Y112.456 E0.06850
G1 X139.430 Y110.508 E0.06896
G1 X138.504 Y108.544 E0.06808
G1 X138.068 Y107.539 E0.03434
G1 X137.250 Y105.478 E0.06954
G1 X136.540 Y103.450 E0.06736
G1 X136.210 Y102.406 E0.03433
G1 X135.617 Y100.304 E0.06849
G1 X135.104 Y98.142 E0.06965
G1 X134.695 Y96.034 E0.06736
G1 X134.519 Y94.953 E0.03433
G1 X134.237 Y92.787 E0.06849
G1 X134.042 Y90.574 E0.06965
G1 X133.942 Y88.428 E0.06736
