; generated by PrusaSlicer 2.1.1+win64 on 2020-03-22 at 20:55:10 UTC

; 

; external perimeters extrusion width = 0.60mm
; perimeters extrusion width = 0.43mm
; infill extrusion width = 0.45mm
; solid infill extrusion width = 0.70mm
; top infill extrusion width = 0.43mm
; first layer extrusion width = 0.42mm

M73 P0 R118
M201 X9000 Y9000 Z500 E10000 ; sets maximum accelerations, mm/sec^2
M203 X500 Y500 Z12 E120 ; sets maximum feedrates, mm/sec
M204 P2000 R1500 T2000 ; sets acceleration (P, T) and retract acceleration (R), mm/sec^2
M205 X10.00 Y10.00 Z0.20 E2.50 ; sets the jerk limits, mm/sec
M205 S0 T0 ; sets the minimum extruding and travel feed rate, mm/sec
M107
M862.3 P "MK2SMM" ; printer model check
M862.1 P0.4 ; nozzle diameter check
M115 U3.2.3 ; tell printer latest fw version
M204 S2000 T1500 ; MK2 firmware only supports the old M204 format
; Start G-Code sequence START
T0
M104 S255 ; set extruder temp
M140 S100 ; set bed temp
M190 S100 ; wait for bed temp
M109 S255 ; wait for extruder temp
G90 ; use absolute coordinates
M83 ; use relative distances for extrusion
G28 W
G80
G92 E0.0
M203 E100 ; set max feedrate
M92 E140 ; E-steps per filament milimeter

G1 Z0.250 F7200.000
G1 X50.0 E80.0 F1000.0
M73 P0 R118
G1 X160.0 E20.0 F1000.0
G1 Z0.200 F7200.000
G1 X220.0 E13 F1000.0
G1 X240.0 E0 F1000.0

G92 E0.0
G21 ; set units to millimeters
G90 ; use absolute coordinates
M83 ; use relative distances for extrusion
M900 K200 ; Filament gcode
;BEFORE_LAYER_CHANGE
G92 E0.0
;0.2


G1 Z0.200 F10800.000
;AFTER_LAYER_CHANGE
;0.2
G1 E-4.00000 F4800.00000
G1 Z0.800 F10800.000
G1 X45.293 Y51.746
G1 Z0.200
G1 E4.00000 F3000.00000
M204 S1000
G1 F1200
G1 X45.985 Y51.631 E0.02202
G1 X207.334 Y51.631 E5.05896
G1 X208.164 Y51.796 E0.02653
G1 X208.869 Y52.264 E0.02653
G1 X209.346 Y52.967 E0.02664
G1 X209.519 Y53.796 E0.02653
G1 X209.519 Y173.834 E3.76373
G1 X209.458 Y174.330 E0.01567
G1 X209.287 Y174.800 E0.01567
G1 X209.014 Y175.218 E0.01567
G1 X208.650 Y175.566 E0.01578
G1 X208.029 Y175.894 E0.02202
G1 X207.336 Y176.008 E0.02202
G1 X45.984 Y176.008 E5.05908
G1 X45.484 Y175.949 E0.01578
G1 X45.011 Y175.777 E0.01578
G1 X44.593 Y175.503 E0.01567
G1 X44.246 Y175.139 E0.01578
G1 X43.917 Y174.518 E0.02202
G1 X43.803 Y173.829 E0.02191
G1 X43.803 Y53.812 E3.76304
G1 X43.862 Y53.313 E0.01578
G1 X44.034 Y52.840 E0.01578
G1 X44.308 Y52.421 E0.01567
G1 X44.672 Y52.074 E0.01578
G1 X45.239 Y51.774 E0.02014
G1 E-2.40000 F4800.00000
G1 F8640
G1 X45.985 Y51.631 E-0.40084
G1 X48.106 Y51.631 E-1.11916
G1 E-0.08000 F4800.00000
G1 Z0.800 F10800.000
G1 X197.928 Y166.377
G1 Z0.200
G1 E4.00000 F3000.00000
G1 F1200
G1 X198.332 Y165.963 E0.01814
G1 X198.806 Y165.632 E0.01814
G1 X199.322 Y165.400 E0.01774
G1 X199.635 Y165.311 E0.01019
G1 X200.186 Y165.233 E0.01744
G1 X200.763 Y165.261 E0.01814
G1 X201.326 Y165.395 E0.01814
G1 X201.841 Y165.626 E0.01771
G1 X202.110 Y165.795 E0.00994
G1 X202.540 Y166.161 E0.01771
G1 X202.904 Y166.611 E0.01814
G1 X203.178 Y167.121 E0.01814
G1 X203.351 Y167.673 E0.01814
G1 X203.419 Y168.247 E0.01814
G1 X203.378 Y168.824 E0.01814
G1 X203.231 Y169.384 E0.01814
G1 X202.981 Y169.906 E0.01814
G1 X202.639 Y170.373 E0.01814
G1 X202.216 Y170.767 E0.01814
G1 X201.726 Y171.076 E0.01814
G1 X201.188 Y171.288 E0.01814
G1 X200.620 Y171.396 E0.01814
G1 X200.041 Y171.396 E0.01814
G1 X199.486 Y171.290 E0.01771
G1 X199.186 Y171.188 E0.00994
G1 X198.682 Y170.933 E0.01771
G1 X198.224 Y170.580 E0.01814
G1 X197.839 Y170.147 E0.01814
G1 X197.542 Y169.651 E0.01814
G1 X197.343 Y169.108 E0.01814
G1 X197.248 Y168.537 E0.01814
G1 X197.262 Y167.958 E0.01814
G1 X197.383 Y167.393 E0.01814
G1 X197.607 Y166.859 E0.01814
G1 X197.894 Y166.427 E0.01626
G1 X198.209 Y166.636 F10800.000
G1 F1200
G1 X198.577 Y166.252 E0.01667
G1 X198.993 Y165.961 E0.01592
G1 X199.452 Y165.755 E0.01577
G1 X199.713 Y165.681 E0.00852
G1 X200.203 Y165.612 E0.01551
G1 X200.710 Y165.636 E0.01592
G1 X201.204 Y165.753 E0.01592
G1 X201.663 Y165.959 E0.01576
G1 X201.886 Y166.100 E0.00828
G1 X202.269 Y166.425 E0.01576
G1 X202.589 Y166.820 E0.01592
G1 X202.829 Y167.268 E0.01592
G1 X202.981 Y167.752 E0.01592
G1 X203.040 Y168.256 E0.01592
G1 X203.005 Y168.763 E0.01592
G1 X202.875 Y169.254 E0.01592
G1 X202.656 Y169.712 E0.01592
G1 X202.356 Y170.121 E0.01592
G1 X201.985 Y170.467 E0.01592
G1 X201.555 Y170.738 E0.01592
G1 X201.083 Y170.924 E0.01592
G1 X200.584 Y171.019 E0.01592
G1 X200.076 Y171.019 E0.01592
G1 X199.582 Y170.925 E0.01576
G1 X199.333 Y170.840 E0.00828
G1 X198.884 Y170.613 E0.01576
G1 X198.482 Y170.303 E0.01592
G1 X198.144 Y169.923 E0.01592
G1 X197.884 Y169.488 E0.01592
G1 X197.709 Y169.011 E0.01592
G1 X197.626 Y168.510 E0.01592
G1 X197.638 Y168.003 E0.01592
G1 X197.744 Y167.506 E0.01592
G1 X197.941 Y167.038 E0.01592
G1 X198.175 Y166.686 E0.01327
G1 X198.062 Y166.263 F10800.000
G1 E-2.40000 F4800.00000
G1 F8640
G1 X198.577 Y166.252 E-0.31188
G1 X198.993 Y165.961 E-0.26796
G1 X199.452 Y165.755 E-0.26551
G1 X199.713 Y165.681 E-0.14346
G1 X200.203 Y165.612 E-0.26107
G1 X200.710 Y165.636 E-0.26791
G1 X200.714 Y165.637 E-0.00222
G1 E-0.08000 F4800.00000
G1 Z0.800 F10800.000
G1 X200.403 Y62.409
G1 Z0.200
G1 E4.00000 F3000.00000
G1 F1200
G1 X199.825 Y62.368 E0.01814
G1 X199.266 Y62.220 E0.01814
G1 X198.744 Y61.971 E0.01814
G1 X198.277 Y61.629 E0.01814
G1 X197.883 Y61.205 E0.01814
G1 X197.574 Y60.716 E0.01814
G1 X197.362 Y60.178 E0.01814
G1 X197.257 Y59.623 E0.01771
G1 X197.242 Y59.306 E0.00994
G1 X197.295 Y58.744 E0.01771
G1 X197.455 Y58.188 E0.01814
G1 X197.717 Y57.671 E0.01814
G1 X198.070 Y57.213 E0.01814
G1 X198.502 Y56.829 E0.01814
G1 X198.999 Y56.532 E0.01814
G1 X199.543 Y56.332 E0.01816
G1 X200.122 Y56.237 E0.01839
G1 X200.678 Y56.251 E0.01744
G1 X200.990 Y56.303 E0.00993
G1 X201.529 Y56.472 E0.01771
G1 X202.039 Y56.746 E0.01814
G1 X202.489 Y57.109 E0.01814
G1 X202.863 Y57.551 E0.01814
G1 X203.149 Y58.054 E0.01814
G1 X203.335 Y58.602 E0.01814
G1 X203.415 Y59.161 E0.01771
G1 X203.415 Y59.478 E0.00994
G1 X203.335 Y60.037 E0.01771
G1 X203.149 Y60.585 E0.01814
G1 X202.863 Y61.089 E0.01814
G1 X202.489 Y61.530 E0.01814
G1 X202.039 Y61.894 E0.01814
G1 X201.529 Y62.167 E0.01814
G1 X200.977 Y62.341 E0.01814
G1 X200.462 Y62.401 E0.01626
G1 X200.418 Y62.027 F10800.000
G1 F1200
G1 X199.887 Y61.994 E0.01668
G1 X199.396 Y61.865 E0.01592
G1 X198.938 Y61.646 E0.01592
G1 X198.529 Y61.346 E0.01592
G1 X198.183 Y60.974 E0.01592
G1 X197.912 Y60.545 E0.01592
G1 X197.726 Y60.072 E0.01592
G1 X197.632 Y59.578 E0.01576
G1 X197.620 Y59.315 E0.00828
G1 X197.667 Y58.814 E0.01576
G1 X197.808 Y58.326 E0.01592
G1 X198.037 Y57.874 E0.01592
G1 X198.347 Y57.471 E0.01592
G1 X198.726 Y57.134 E0.01592
G1 X199.162 Y56.873 E0.01592
G1 X199.639 Y56.698 E0.01593
G1 X200.148 Y56.615 E0.01616
G1 X200.642 Y56.627 E0.01551
G1 X200.903 Y56.670 E0.00827
G1 X201.382 Y56.821 E0.01576
G1 X201.830 Y57.061 E0.01592
G1 X202.225 Y57.380 E0.01592
G1 X202.553 Y57.768 E0.01592
G1 X202.803 Y58.209 E0.01592
G1 X202.967 Y58.690 E0.01592
G1 X203.037 Y59.188 E0.01576
G1 X203.037 Y59.452 E0.00828
G1 X202.967 Y59.949 E0.01576
G1 X202.803 Y60.430 E0.01592
G1 X202.553 Y60.872 E0.01592
G1 X202.225 Y61.259 E0.01592
G1 X201.830 Y61.578 E0.01592
G1 X201.382 Y61.818 E0.01592
G1 X200.898 Y61.970 E0.01592
G1 X200.478 Y62.020 E0.01327
G1 X200.229 Y62.379 F10800.000
G1 E-2.40000 F4800.00000
G1 F8640
G1 X199.887 Y61.994 E-0.31191
G1 X199.396 Y61.865 E-0.26795
G1 X198.938 Y61.646 E-0.26795
G1 X198.529 Y61.346 E-0.26796
G1 X198.183 Y60.974 E-0.26797
G1 X198.045 Y60.756 E-0.13626
G1 E-0.08000 F4800.00000
G1 Z0.800 F10800.000
G1 X184.332 Y77.274
G1 Z0.200
G1 E4.00000 F3000.00000
G1 F1200
G1 X184.797 Y77.767 E0.02125
G1 X186.256 Y79.411 E0.06893
G1 X187.655 Y81.125 E0.06936
G1 X188.327 Y82.004 E0.03470
G1 X189.600 Y83.779 E0.06850
G1 X190.808 Y85.620 E0.06902
G1 X191.945 Y87.521 E0.06945
G1 X192.988 Y89.440 E0.06850
G1 X193.486 Y90.429 E0.03470
G1 X194.419 Y92.434 E0.06935
G1 X195.258 Y94.452 E0.06850
G1 X195.651 Y95.487 E0.03470
G1 X196.372 Y97.578 E0.06936
G1 X197.001 Y99.684 E0.06893
G1 X197.287 Y100.764 E0.03502
G1 X197.776 Y102.869 E0.06775
G1 X198.190 Y105.064 E0.07004
G1 X198.508 Y107.237 E0.06885
G1 X198.633 Y108.335 E0.03466
G1 X198.813 Y110.488 E0.06775
G1 X198.906 Y112.720 E0.07005
G1 X198.905 Y114.954 E0.07004
G1 X198.815 Y117.113 E0.06775
G1 X198.735 Y118.216 E0.03466
G1 X198.508 Y120.400 E0.06885
G1 X198.184 Y122.610 E0.07004
G1 X197.783 Y124.733 E0.06775
G1 X197.545 Y125.813 E0.03466
G1 X197.002 Y127.952 E0.06921
G1 X196.368 Y130.074 E0.06945
G1 X195.656 Y132.140 E0.06850
G1 X195.263 Y133.175 E0.03470
G1 X194.419 Y135.205 E0.06893
G1 X193.486 Y137.210 E0.06936
G1 X192.988 Y138.199 E0.03471
G1 X191.945 Y140.119 E0.06850
G1 X190.810 Y142.017 E0.06935
G1 X190.212 Y142.949 E0.03470
G1 X188.976 Y144.750 E0.06850
G1 X187.650 Y146.521 E0.06935
G1 X186.959 Y147.385 E0.03471
G1 X185.543 Y149.049 E0.06850
G1 X184.039 Y150.675 E0.06945
G1 X182.490 Y152.216 E0.06850
G1 X181.682 Y152.972 E0.03470
G1 X180.020 Y154.432 E0.06936
G1 X178.309 Y155.812 E0.06893
G1 X177.426 Y156.480 E0.03470
G1 X175.644 Y157.744 E0.06850
G1 X173.786 Y158.950 E0.06945
G1 X171.894 Y160.068 E0.06893
G1 X170.924 Y160.602 E0.03470
G1 X168.978 Y161.595 E0.06850
G1 X166.967 Y162.517 E0.06935
G1 X165.947 Y162.947 E0.03470
G1 X163.909 Y163.734 E0.06850
G1 X161.803 Y164.447 E0.06970
G1 X159.694 Y165.065 E0.06892
G1 X158.623 Y165.342 E0.03470
G1 X156.514 Y165.820 E0.06778
G1 X154.314 Y166.225 E0.07014
G1 X152.138 Y166.531 E0.06892
G1 X151.037 Y166.651 E0.03470
G1 X148.882 Y166.819 E0.06778
G1 X146.650 Y166.900 E0.07005
G1 X145.543 Y166.906 E0.03470
G1 X143.382 Y166.850 E0.06778
G1 X141.150 Y166.700 E0.07014
G1 X138.965 Y166.461 E0.06892
G1 X137.869 Y166.306 E0.03470
G1 X135.739 Y165.939 E0.06778
G1 X133.552 Y165.467 E0.07014
G1 X131.424 Y164.915 E0.06892
G1 X130.362 Y164.603 E0.03470
G1 X128.308 Y163.931 E0.06778
G1 X126.217 Y163.151 E0.06997
G1 X125.193 Y162.731 E0.03471
G1 X123.198 Y161.841 E0.06850
G1 X121.214 Y160.855 E0.06945
G1 X119.288 Y159.795 E0.06893
G1 X118.335 Y159.232 E0.03471
G1 X116.490 Y158.062 E0.06850
G1 X114.670 Y156.800 E0.06945
G1 X112.917 Y155.473 E0.06893
G1 X112.056 Y154.777 E0.03470
G1 X110.399 Y153.353 E0.06850
G1 X108.783 Y151.843 E0.06936
G1 X107.998 Y151.062 E0.03471
G1 X106.498 Y149.474 E0.06850
G1 X105.045 Y147.802 E0.06945
G1 X103.673 Y146.084 E0.06893
G1 X103.009 Y145.198 E0.03471
G1 X101.754 Y143.410 E0.06850
G1 X100.558 Y141.545 E0.06945
G1 X99.448 Y139.644 E0.06903
G1 X98.417 Y137.699 E0.06902
G1 X97.475 Y135.728 E0.06850
G1 X96.600 Y133.686 E0.06965
G1 X95.825 Y131.644 E0.06850
G1 X95.125 Y129.542 E0.06945
G1 X94.517 Y127.429 E0.06893
G1 X94.245 Y126.357 E0.03470
G1 X93.773 Y124.223 E0.06850
G1 X93.384 Y122.043 E0.06945
G1 X93.088 Y119.864 E0.06893
G1 X92.974 Y118.763 E0.03471
G1 X92.815 Y116.584 E0.06850
G1 X92.746 Y114.370 E0.06945
G1 X92.769 Y112.155 E0.06946
G1 X92.883 Y109.973 E0.06850
G1 X92.974 Y108.870 E0.03470
G1 X93.224 Y106.686 E0.06893
G1 X93.568 Y104.498 E0.06945
G1 X93.996 Y102.355 E0.06850
M73 P0 R117
G1 X94.246 Y101.277 E0.03470
G1 X94.810 Y99.152 E0.06893
G1 X95.466 Y97.036 E0.06945
G1 X96.199 Y94.978 E0.06850
G1 X96.603 Y93.948 E0.03471
G1 X97.473 Y91.914 E0.06936
G1 X98.416 Y89.943 E0.06850
G1 X98.924 Y88.960 E0.03470
G1 X99.993 Y87.039 E0.06893
G1 X101.150 Y85.150 E0.06945
G1 X102.368 Y83.336 E0.06850
G1 X103.013 Y82.436 E0.03470
G1 X104.347 Y80.693 E0.06884
G1 X105.056 Y79.825 E0.03513
G1 X106.489 Y78.176 E0.06850
G1 X108.000 Y76.575 E0.06903
G1 X109.587 Y75.030 E0.06945
G1 X111.214 Y73.571 E0.06850
G1 X112.060 Y72.858 E0.03471
G1 X113.785 Y71.495 E0.06893
G1 X115.579 Y70.195 E0.06945
G1 X117.399 Y68.987 E0.06850
G1 X118.340 Y68.404 E0.03470
G1 X120.244 Y67.305 E0.06893
G1 X122.207 Y66.278 E0.06945
G1 X124.183 Y65.346 E0.06850
G1 X125.199 Y64.906 E0.03471
G1 X127.273 Y64.082 E0.06997
G1 X129.313 Y63.367 E0.06778
G1 X130.368 Y63.034 E0.03470
G1 X132.484 Y62.438 E0.06892
G1 X134.660 Y61.921 E0.07014
G1 X136.783 Y61.509 E0.06778
G1 X137.875 Y61.332 E0.03470
G1 X140.055 Y61.048 E0.06892
G1 X142.283 Y60.851 E0.07014
G1 X144.443 Y60.751 E0.06778
G1 X145.549 Y60.733 E0.03470
G1 X147.747 Y60.767 E0.06892
G1 X149.980 Y60.895 E0.07014
G1 X152.132 Y61.108 E0.06778
G1 X153.229 Y61.251 E0.03470
G1 X155.399 Y61.602 E0.06892
G1 X157.555 Y62.043 E0.06901
G1 X159.726 Y62.584 E0.07014
G1 X161.800 Y63.192 E0.06778
G1 X162.852 Y63.536 E0.03470
G1 X164.940 Y64.291 E0.06961
G1 X166.962 Y65.120 E0.06850
G1 X167.972 Y65.571 E0.03470
G1 X169.951 Y66.529 E0.06893
G1 X171.903 Y67.576 E0.06945
G1 X173.783 Y68.688 E0.06850
G1 X174.718 Y69.281 E0.03471
G1 X176.549 Y70.523 E0.06936
G1 X178.304 Y71.823 E0.06850
G1 X179.173 Y72.510 E0.03470
G1 X180.854 Y73.925 E0.06893
G1 X182.488 Y75.421 E0.06945
G1 X184.290 Y77.230 E0.08007
G1 X184.016 Y77.489 F10800.000
G1 F1200
G1 X184.519 Y78.021 E0.02295
G1 X185.969 Y79.655 E0.06850
G1 X187.359 Y81.359 E0.06893
G1 X188.024 Y82.228 E0.03434
G1 X189.289 Y83.993 E0.06808
G1 X190.489 Y85.820 E0.06853
G1 X191.618 Y87.708 E0.06896
G1 X192.654 Y89.615 E0.06807
G1 X193.147 Y90.593 E0.03434
G1 X194.074 Y92.586 E0.06893
G1 X194.908 Y94.591 E0.06807
G1 X195.297 Y95.615 E0.03434
G1 X196.013 Y97.693 E0.06892
G1 X196.638 Y99.787 E0.06850
G1 X196.921 Y100.855 E0.03465
G1 X197.406 Y102.947 E0.06732
G1 X197.818 Y105.126 E0.06955
G1 X198.134 Y107.285 E0.06842
G1 X198.258 Y108.372 E0.03429
G1 X198.436 Y110.512 E0.06732
G1 X198.529 Y112.728 E0.06955
G1 X198.528 Y114.946 E0.06955
G1 X198.439 Y117.092 E0.06732
G1 X198.359 Y118.183 E0.03430
G1 X198.134 Y120.353 E0.06842
G1 X197.812 Y122.548 E0.06955
G1 X197.414 Y124.658 E0.06732
G1 X197.178 Y125.726 E0.03429
G1 X196.638 Y127.852 E0.06878
G1 X196.009 Y129.959 E0.06896
G1 X195.301 Y132.012 E0.06807
G1 X194.913 Y133.036 E0.03434
G1 X194.074 Y135.053 E0.06850
G1 X193.147 Y137.046 E0.06893
G1 X192.654 Y138.024 E0.03434
G1 X191.618 Y139.932 E0.06807
G1 X190.489 Y141.818 E0.06892
G1 X189.898 Y142.740 E0.03434
G1 X188.669 Y144.530 E0.06807
G1 X187.352 Y146.290 E0.06892
G1 X186.668 Y147.145 E0.03434
G1 X185.261 Y148.799 E0.06807
G1 X183.768 Y150.413 E0.06896
G1 X182.228 Y151.945 E0.06807
G1 X181.429 Y152.693 E0.03434
G1 X179.777 Y154.143 E0.06893
G1 X178.077 Y155.515 E0.06850
G1 X177.203 Y156.176 E0.03434
G1 X175.433 Y157.432 E0.06807
G1 X173.587 Y158.629 E0.06896
G1 X171.707 Y159.741 E0.06850
G1 X170.747 Y160.269 E0.03434
G1 X168.813 Y161.255 E0.06807
G1 X166.815 Y162.172 E0.06892
G1 X165.806 Y162.598 E0.03434
G1 X163.780 Y163.379 E0.06807
G1 X161.690 Y164.087 E0.06921
G1 X159.594 Y164.701 E0.06849
G1 X158.534 Y164.976 E0.03433
G1 X156.439 Y165.451 E0.06736
G1 X154.254 Y165.852 E0.06965
G1 X152.091 Y166.157 E0.06849
G1 X151.002 Y166.275 E0.03433
G1 X148.861 Y166.442 E0.06736
G1 X146.642 Y166.523 E0.06962
G1 X145.547 Y166.529 E0.03433
G1 X143.399 Y166.473 E0.06736
G1 X141.183 Y166.324 E0.06965
G1 X139.012 Y166.087 E0.06849
G1 X137.927 Y165.934 E0.03433
G1 X135.811 Y165.568 E0.06736
G1 X133.639 Y165.100 E0.06965
G1 X131.525 Y164.551 E0.06849
G1 X130.474 Y164.243 E0.03433
G1 X128.432 Y163.575 E0.06736
G1 X126.355 Y162.800 E0.06954
G1 X125.341 Y162.385 E0.03434
G1 X123.359 Y161.500 E0.06808
G1 X121.389 Y160.521 E0.06896
G1 X119.475 Y159.468 E0.06850
G1 X118.532 Y158.910 E0.03434
G1 X116.698 Y157.748 E0.06808
G1 X114.891 Y156.494 E0.06896
G1 X113.149 Y155.176 E0.06850
G1 X112.297 Y154.488 E0.03434
G1 X110.651 Y153.072 E0.06808
G1 X109.045 Y151.571 E0.06893
G1 X108.268 Y150.799 E0.03434
G1 X106.777 Y149.220 E0.06807
G1 X105.334 Y147.561 E0.06896
G1 X103.971 Y145.853 E0.06850
G1 X103.315 Y144.977 E0.03434
G1 X102.068 Y143.199 E0.06807
G1 X100.880 Y141.348 E0.06896
G1 X99.777 Y139.461 E0.06854
G1 X98.754 Y137.530 E0.06853
G1 X97.817 Y135.571 E0.06807
G1 X96.951 Y133.547 E0.06903
G1 X96.180 Y131.517 E0.06808
G1 X95.485 Y129.430 E0.06896
G1 X94.881 Y127.331 E0.06850
G1 X94.612 Y126.269 E0.03434
G1 X94.142 Y124.149 E0.06808
G1 X93.756 Y121.984 E0.06896
G1 X93.463 Y119.819 E0.06850
G1 X93.349 Y118.730 E0.03434
G1 X93.192 Y116.565 E0.06807
G1 X93.123 Y114.366 E0.06896
G1 X93.146 Y112.167 E0.06896
