; generated by PrusaSlicer 2.1.1+win64 on 2020-03-22 at 20:54:42 UTC

; 

; external perimeters extrusion width = 0.60mm
; perimeters extrusion width = 0.43mm
; infill extrusion width = 0.45mm
; solid infill extrusion width = 0.70mm
; top infill extrusion width = 0.43mm
; first layer extrusion width = 0.42mm

M73 P0 R128
M201 X9000 Y9000 Z500 E10000 ; sets maximum accelerations, mm/sec^2
M203 X500 Y500 Z12 E120 ; sets maximum feedrates, mm/sec
M204 P2000 R1500 T2000 ; sets acceleration (P, T) and retract acceleration (R), mm/sec^2
M205 X10.00 Y10.00 Z0.20 E2.50 ; sets the jerk limits, mm/sec
M205 S0 T0 ; sets the minimum extruding and travel feed rate, mm/sec
M107
M862.3 P "MK2SMM" ; printer model check
M862.1 P0.4 ; nozzle diameter check
M115 U3.2.3 ; tell printer latest fw version
M204 S2000 T1500 ; MK2 firmware only supports the old M204 format
; Start G-Code sequence START
T0
M104 S255 ; set extruder temp
M140 S100 ; set bed temp
M190 S100 ; wait for bed temp
M109 S255 ; wait for extruder temp
G90 ; use absolute coordinates
M83 ; use relative distances for extrusion
G28 W
G80
G92 E0.0
M203 E100 ; set max feedrate
M92 E140 ; E-steps per filament milimeter

G1 Z0.250 F7200.000
G1 X50.0 E80.0 F1000.0
M73 P0 R128
G1 X160.0 E20.0 F1000.0
G1 Z0.200 F7200.000
G1 X220.0 E13 F1000.0
G1 X240.0 E0 F1000.0

G92 E0.0
G21 ; set units to millimeters
G90 ; use absolute coordinates
M83 ; use relative distances for extrusion
M900 K200 ; Filament gcode
;BEFORE_LAYER_CHANGE
G92 E0.0
;0.2


G1 Z0.200 F10800.000
;AFTER_LAYER_CHANGE
;0.2
G1 E-4.00000 F4800.00000
G1 Z0.800 F10800.000
G1 X63.284 Y43.010
G1 Z0.200
G1 E4.00000 F3000.00000
M204 S1000
G1 F1200
G1 X63.763 Y42.299 E0.02687
G1 X64.468 Y41.831 E0.02653
G1 X65.294 Y41.665 E0.02642
G1 X188.807 Y41.665 E3.87267
G1 X189.637 Y41.830 E0.02653
G1 X190.342 Y42.297 E0.02653
G1 X190.818 Y42.997 E0.02653
G1 X190.992 Y43.826 E0.02653
G1 X190.992 Y163.864 E3.76373
G1 X190.821 Y164.700 E0.02676
G1 X190.344 Y165.408 E0.02676
G1 X189.639 Y165.876 E0.02653
G1 X188.813 Y166.042 E0.02642
G1 X65.303 Y166.042 E3.87255
G1 X64.460 Y165.873 E0.02698
G1 X63.749 Y165.394 E0.02687
G1 X63.282 Y164.692 E0.02642
G1 X63.115 Y163.866 E0.02642
G1 X63.115 Y43.853 E3.76293
G1 X63.272 Y43.068 E0.02510
G1 X65.891 Y44.440 F10800.000
G1 F1200
G1 X188.216 Y44.440 E3.83544
G1 X188.216 Y163.266 E3.72570
G1 X65.891 Y163.266 E3.83544
G1 X65.891 Y44.500 E3.72382
M73 P0 R127
G1 X65.513 Y44.063 F10800.000
G1 F1200
G1 X188.593 Y44.063 E3.85909
G1 X188.593 Y163.643 E3.74935
G1 X65.513 Y163.643 E3.85909
G1 X65.513 Y44.123 E3.74747
G1 X65.900 Y44.165 F10800.000
G1 E-2.40000 F4800.00000
G1 F8640
G1 X68.393 Y44.122 E-1.52000
G1 E-0.08000 F4800.00000
G1 Z0.800 F10800.000
G1 X66.004 Y162.390
G1 Z0.200
G1 E4.00000 F3000.00000
G1 F1200
G1 X66.597 Y162.983 E0.02634
G1 X67.131 Y162.983 E0.01676
G1 X66.173 Y162.026 E0.04251
G1 X66.173 Y161.492 E0.01676
G1 X67.665 Y162.983 E0.06621
G1 X68.199 Y162.983 E0.01676
G1 X66.173 Y160.958 E0.08990
G1 X66.173 Y160.424 E0.01676
G1 X68.732 Y162.983 E0.11360
G1 X69.266 Y162.983 E0.01676
G1 X66.173 Y159.890 E0.13730
G1 X66.173 Y159.357 E0.01676
G1 X69.800 Y162.983 E0.16100
G1 X70.334 Y162.983 E0.01676
G1 X66.173 Y158.823 E0.18470
G1 X66.173 Y158.289 E0.01676
G1 X70.868 Y162.983 E0.20840
G1 X71.402 Y162.983 E0.01676
G1 X66.173 Y157.755 E0.23210
G1 X66.173 Y157.221 E0.01676
G1 X71.936 Y162.983 E0.25580
G1 X72.470 Y162.983 E0.01676
G1 X66.173 Y156.687 E0.27950
G1 X66.173 Y156.153 E0.01676
G1 X73.003 Y162.983 E0.30320
G1 X73.537 Y162.983 E0.01676
G1 X66.173 Y155.619 E0.32690
G1 X66.173 Y155.086 E0.01676
G1 X74.071 Y162.983 E0.35060
G1 X74.605 Y162.983 E0.01676
G1 X66.173 Y154.552 E0.37429
G1 X66.173 Y154.018 E0.01676
G1 X75.139 Y162.983 E0.39799
G1 X75.673 Y162.983 E0.01676
G1 X66.173 Y153.484 E0.42169
G1 X66.173 Y152.950 E0.01676
G1 X76.207 Y162.983 E0.44539
G1 X76.740 Y162.983 E0.01676
G1 X66.173 Y152.416 E0.46909
G1 X66.173 Y151.882 E0.01676
G1 X77.274 Y162.983 E0.49279
G1 X77.808 Y162.983 E0.01676
G1 X66.173 Y151.349 E0.51649
G1 X66.173 Y150.815 E0.01676
G1 X78.342 Y162.983 E0.54019
G1 X78.876 Y162.983 E0.01676
G1 X66.173 Y150.281 E0.56389
G1 X66.173 Y149.747 E0.01676
G1 X79.410 Y162.983 E0.58759
G1 X79.944 Y162.983 E0.01676
G1 X66.173 Y149.213 E0.61129
G1 X66.173 Y148.679 E0.01676
G1 X80.478 Y162.983 E0.63498
G1 X81.011 Y162.983 E0.01676
G1 X66.173 Y148.145 E0.65868
G1 X66.173 Y147.611 E0.01676
G1 X81.545 Y162.983 E0.68238
G1 X82.079 Y162.983 E0.01676
G1 X66.173 Y147.078 E0.70608
G1 X66.173 Y146.544 E0.01676
G1 X82.613 Y162.983 E0.72978
G1 X83.147 Y162.983 E0.01676
G1 X66.173 Y146.010 E0.75348
G1 X66.173 Y145.476 E0.01676
G1 X83.681 Y162.983 E0.77718
G1 X84.215 Y162.983 E0.01676
G1 X66.173 Y144.942 E0.80088
G1 X66.173 Y144.408 E0.01676
G1 X84.749 Y162.983 E0.82458
G1 X85.282 Y162.983 E0.01676
G1 X66.173 Y143.874 E0.84828
G1 X66.173 Y143.340 E0.01676
G1 X85.816 Y162.983 E0.87198
G1 X86.350 Y162.983 E0.01676
G1 X66.173 Y142.807 E0.89568
G1 X66.173 Y142.273 E0.01676
G1 X86.884 Y162.983 E0.91937
G1 X87.418 Y162.983 E0.01676
G1 X66.173 Y141.739 E0.94307
G1 X66.173 Y141.205 E0.01676
G1 X87.952 Y162.983 E0.96677
G1 X88.486 Y162.983 E0.01676
G1 X66.173 Y140.671 E0.99047
M73 P1 R126
G1 X66.173 Y140.137 E0.01676
G1 X89.019 Y162.983 E1.01417
G1 X89.553 Y162.983 E0.01676
G1 X66.173 Y139.603 E1.03787
G1 X66.173 Y139.070 E0.01676
G1 X90.087 Y162.983 E1.06157
G1 X90.621 Y162.983 E0.01676
G1 X66.173 Y138.536 E1.08527
G1 X66.173 Y138.002 E0.01676
G1 X91.155 Y162.983 E1.10897
G1 X91.689 Y162.983 E0.01676
G1 X66.173 Y137.468 E1.13267
G1 X66.173 Y136.934 E0.01676
G1 X92.223 Y162.983 E1.15637
G1 X92.757 Y162.983 E0.01676
G1 X66.173 Y136.400 E1.18006
G1 X66.173 Y135.866 E0.01676
G1 X93.290 Y162.983 E1.20376
G1 X93.824 Y162.983 E0.01676
G1 X66.173 Y135.332 E1.22746
G1 X66.173 Y134.799 E0.01676
G1 X94.358 Y162.983 E1.25116
G1 X94.892 Y162.983 E0.01676
G1 X66.173 Y134.265 E1.27486
G1 X66.173 Y133.731 E0.01676
G1 X95.426 Y162.983 E1.29856
G1 X95.960 Y162.983 E0.01676
G1 X66.173 Y133.197 E1.32226
G1 X66.173 Y132.663 E0.01676
G1 X96.494 Y162.983 E1.34596
G1 X97.028 Y162.983 E0.01676
G1 X66.173 Y132.129 E1.36966
G1 X66.173 Y131.595 E0.01676
G1 X97.561 Y162.983 E1.39336
G1 X98.095 Y162.983 E0.01676
G1 X66.173 Y131.062 E1.41706
G1 X66.173 Y130.528 E0.01676
G1 X98.629 Y162.983 E1.44076
G1 X99.163 Y162.983 E0.01676
G1 X66.173 Y129.994 E1.46445
G1 X66.173 Y129.460 E0.01676
G1 X99.697 Y162.983 E1.48815
G1 X100.231 Y162.983 E0.01676
G1 X66.173 Y128.926 E1.51185
G1 X66.173 Y128.392 E0.01676
G1 X100.765 Y162.983 E1.53555
G1 X101.298 Y162.983 E0.01676
G1 X66.173 Y127.858 E1.55925
G1 X66.173 Y127.324 E0.01676
G1 X101.832 Y162.983 E1.58295
G1 X102.366 Y162.983 E0.01676
G1 X66.173 Y126.791 E1.60665
G1 X66.173 Y126.257 E0.01676
G1 X102.900 Y162.983 E1.63035
G1 X103.434 Y162.983 E0.01676
G1 X66.173 Y125.723 E1.65405
M73 P2 R125
G1 X66.173 Y125.189 E0.01676
G1 X103.968 Y162.983 E1.67775
G1 X104.502 Y162.983 E0.01676
G1 X66.173 Y124.655 E1.70145
G1 X66.173 Y124.121 E0.01676
G1 X105.036 Y162.983 E1.72515
G1 X105.569 Y162.983 E0.01676
G1 X66.173 Y123.587 E1.74884
G1 X66.173 Y123.053 E0.01676
G1 X106.103 Y162.983 E1.77254
G1 X106.637 Y162.983 E0.01676
G1 X66.173 Y122.520 E1.79624
G1 X66.173 Y121.986 E0.01676
G1 X107.171 Y162.983 E1.81994
G1 X107.705 Y162.983 E0.01676
G1 X66.173 Y121.452 E1.84364
G1 X66.173 Y120.918 E0.01676
G1 X108.239 Y162.983 E1.86734
G1 X108.773 Y162.983 E0.01676
G1 X66.173 Y120.384 E1.89104
G1 X66.173 Y119.850 E0.01676
G1 X109.306 Y162.983 E1.91474
G1 X109.840 Y162.983 E0.01676
G1 X66.173 Y119.316 E1.93844
G1 X66.173 Y118.783 E0.01676
G1 X110.374 Y162.983 E1.96214
G1 X110.908 Y162.983 E0.01676
G1 X66.173 Y118.249 E1.98584
G1 X66.173 Y117.715 E0.01676
G1 X111.442 Y162.983 E2.00953
G1 X111.976 Y162.983 E0.01676
G1 X66.173 Y117.181 E2.03323
G1 X66.173 Y116.647 E0.01676
G1 X112.510 Y162.983 E2.05693
G1 X113.044 Y162.983 E0.01676
G1 X66.173 Y116.113 E2.08063
G1 X66.173 Y115.579 E0.01676
G1 X113.577 Y162.983 E2.10433
G1 X114.111 Y162.983 E0.01676
G1 X66.173 Y115.045 E2.12803
M73 P3 R124
G1 X66.173 Y114.512 E0.01676
G1 X114.645 Y162.983 E2.15173
G1 X115.179 Y162.983 E0.01676
G1 X66.173 Y113.978 E2.17543
G1 X66.173 Y113.444 E0.01676
G1 X115.713 Y162.983 E2.19913
G1 X116.247 Y162.983 E0.01676
G1 X66.173 Y112.910 E2.22283
G1 X66.173 Y112.376 E0.01676
G1 X116.781 Y162.983 E2.24653
G1 X117.315 Y162.983 E0.01676
G1 X66.173 Y111.842 E2.27023
G1 X66.173 Y111.308 E0.01676
G1 X117.848 Y162.983 E2.29392
G1 X118.382 Y162.983 E0.01676
G1 X66.173 Y110.775 E2.31762
G1 X66.173 Y110.241 E0.01676
G1 X118.916 Y162.983 E2.34132
G1 X119.450 Y162.983 E0.01676
G1 X66.173 Y109.707 E2.36502
G1 X66.173 Y109.173 E0.01676
G1 X119.984 Y162.983 E2.38872
G1 X120.518 Y162.983 E0.01676
G1 X66.173 Y108.639 E2.41242
G1 X66.173 Y108.105 E0.01676
G1 X121.052 Y162.983 E2.43612
G1 X121.585 Y162.983 E0.01676
G1 X66.173 Y107.571 E2.45982
G1 X66.173 Y107.037 E0.01676
G1 X122.119 Y162.983 E2.48352
G1 X122.653 Y162.983 E0.01676
G1 X66.173 Y106.504 E2.50722
G1 X66.173 Y105.970 E0.01676
G1 X123.187 Y162.983 E2.53092
M73 P4 R123
G1 X123.721 Y162.983 E0.01676
G1 X66.173 Y105.436 E2.55461
G1 X66.173 Y104.902 E0.01676
G1 X124.255 Y162.983 E2.57831
G1 X124.789 Y162.983 E0.01676
G1 X66.173 Y104.368 E2.60201
G1 X66.173 Y103.834 E0.01676
G1 X125.323 Y162.983 E2.62571
G1 X125.856 Y162.983 E0.01676
G1 X66.173 Y103.300 E2.64941
G1 X66.173 Y102.766 E0.01676
G1 X126.390 Y162.983 E2.67311
G1 X126.924 Y162.983 E0.01676
G1 X66.173 Y102.233 E2.69681
G1 X66.173 Y101.699 E0.01676
G1 X127.458 Y162.983 E2.72051
G1 X127.992 Y162.983 E0.01676
G1 X66.173 Y101.165 E2.74421
G1 X66.173 Y100.631 E0.01676
G1 X128.526 Y162.983 E2.76791
G1 X129.060 Y162.983 E0.01676
G1 X66.173 Y100.097 E2.79161
G1 X66.173 Y99.563 E0.01676
G1 X129.593 Y162.983 E2.81531
G1 X130.127 Y162.983 E0.01676
G1 X66.173 Y99.029 E2.83900
G1 X66.173 Y98.496 E0.01676
G1 X130.661 Y162.983 E2.86270
M73 P4 R122
G1 X131.195 Y162.983 E0.01676
G1 X66.173 Y97.962 E2.88640
G1 X66.173 Y97.428 E0.01676
G1 X131.729 Y162.983 E2.91010
G1 X132.263 Y162.983 E0.01676
G1 X66.173 Y96.894 E2.93380
G1 X66.173 Y96.360 E0.01676
G1 X132.797 Y162.983 E2.95750
G1 X133.331 Y162.983 E0.01676
G1 X66.173 Y95.826 E2.98120
G1 X66.173 Y95.292 E0.01676
G1 X133.864 Y162.983 E3.00490
G1 X134.398 Y162.983 E0.01676
G1 X66.173 Y94.758 E3.02860
G1 X66.173 Y94.225 E0.01676
G1 X134.932 Y162.983 E3.05230
G1 X135.466 Y162.983 E0.01676
G1 X66.173 Y93.691 E3.07600
G1 X66.173 Y93.157 E0.01676
G1 X136.000 Y162.983 E3.09969
G1 X136.534 Y162.983 E0.01676
G1 X66.173 Y92.623 E3.12339
G1 X66.173 Y92.089 E0.01676
G1 X137.068 Y162.983 E3.14709
G1 X137.602 Y162.983 E0.01676
G1 X66.173 Y91.555 E3.17079
M73 P5 R121
G1 X66.173 Y91.021 E0.01676
G1 X138.135 Y162.983 E3.19449
G1 X138.669 Y162.983 E0.01676
G1 X66.173 Y90.488 E3.21819
G1 X66.173 Y89.954 E0.01676
G1 X139.203 Y162.983 E3.24189
G1 X139.737 Y162.983 E0.01676
G1 X66.173 Y89.420 E3.26559
G1 X66.173 Y88.886 E0.01676
G1 X140.271 Y162.983 E3.28929
G1 X140.805 Y162.983 E0.01676
G1 X66.173 Y88.352 E3.31299
G1 X66.173 Y87.818 E0.01676
G1 X141.339 Y162.983 E3.33669
G1 X141.872 Y162.983 E0.01676
G1 X66.173 Y87.284 E3.36039
G1 X66.173 Y86.750 E0.01676
G1 X142.406 Y162.983 E3.38408
G1 X142.940 Y162.983 E0.01676
G1 X66.173 Y86.217 E3.40778
G1 X66.173 Y85.683 E0.01676
G1 X143.474 Y162.983 E3.43148
G1 X144.008 Y162.983 E0.01676
G1 X66.173 Y85.149 E3.45518
M73 P6 R120
G1 X66.173 Y84.615 E0.01676
G1 X144.542 Y162.983 E3.47888
G1 X145.076 Y162.983 E0.01676
G1 X66.173 Y84.081 E3.50258
G1 X66.173 Y83.547 E0.01676
G1 X145.610 Y162.983 E3.52628
G1 X146.143 Y162.983 E0.01676
G1 X66.173 Y83.013 E3.54998
G1 X66.173 Y82.479 E0.01676
G1 X146.677 Y162.983 E3.57368
G1 X147.211 Y162.983 E0.01676
G1 X66.173 Y81.946 E3.59738
G1 X66.173 Y81.412 E0.01676
G1 X147.745 Y162.983 E3.62108
G1 X148.279 Y162.983 E0.01676
G1 X66.173 Y80.878 E3.64478
G1 X66.173 Y80.344 E0.01676
G1 X148.813 Y162.983 E3.66847
G1 X149.347 Y162.983 E0.01676
G1 X66.173 Y79.810 E3.69217
G1 X66.173 Y79.276 E0.01676
G1 X149.880 Y162.983 E3.71587
M73 P7 R119
G1 X150.414 Y162.983 E0.01676
G1 X66.173 Y78.742 E3.73957
G1 X66.173 Y78.209 E0.01676
G1 X150.948 Y162.983 E3.76327
G1 X151.482 Y162.983 E0.01676
G1 X66.173 Y77.675 E3.78697
G1 X66.173 Y77.141 E0.01676
G1 X152.016 Y162.983 E3.81067
G1 X152.550 Y162.983 E0.01676
G1 X66.173 Y76.607 E3.83437
G1 X66.173 Y76.073 E0.01676
G1 X153.084 Y162.983 E3.85807
G1 X153.618 Y162.983 E0.01676
G1 X66.173 Y75.539 E3.88177
G1 X66.173 Y75.005 E0.01676
G1 X154.151 Y162.983 E3.90547
G1 X154.685 Y162.983 E0.01676
G1 X66.173 Y74.471 E3.92916
G1 X66.173 Y73.938 E0.01676
G1 X155.219 Y162.983 E3.95286
M73 P8 R118
G1 X155.753 Y162.983 E0.01676
G1 X66.173 Y73.404 E3.97656
G1 X66.173 Y72.870 E0.01676
G1 X156.287 Y162.983 E4.00026
G1 X156.821 Y162.983 E0.01676
G1 X66.173 Y72.336 E4.02396
G1 X66.173 Y71.802 E0.01676
G1 X157.355 Y162.983 E4.04766
G1 X157.889 Y162.983 E0.01676
G1 X66.173 Y71.268 E4.07136
G1 X66.173 Y70.734 E0.01676
G1 X158.422 Y162.983 E4.09506
G1 X158.956 Y162.983 E0.01676
G1 X66.173 Y70.201 E4.11876
G1 X66.173 Y69.667 E0.01676
G1 X159.490 Y162.983 E4.14246
G1 X160.024 Y162.983 E0.01676
G1 X66.173 Y69.133 E4.16616
G1 X66.173 Y68.599 E0.01676
G1 X160.558 Y162.983 E4.18986
M73 P8 R116
G1 X161.092 Y162.983 E0.01676
G1 X66.173 Y68.065 E4.21355
G1 X66.173 Y67.531 E0.01676
G1 X161.626 Y162.983 E4.23725
G1 X162.159 Y162.983 E0.01676
G1 X66.173 Y66.997 E4.26095
G1 X66.173 Y66.463 E0.01676
G1 X162.693 Y162.983 E4.28465
G1 X163.227 Y162.983 E0.01676
G1 X66.173 Y65.930 E4.30835
G1 X66.173 Y65.396 E0.01676
G1 X163.761 Y162.983 E4.33205
G1 X164.295 Y162.983 E0.01676
G1 X66.173 Y64.862 E4.35575
G1 X66.173 Y64.328 E0.01676
G1 X164.829 Y162.983 E4.37945
G1 X165.363 Y162.983 E0.01676
G1 X66.173 Y63.794 E4.40315
M73 P9 R115
G1 X66.173 Y63.260 E0.01676
G1 X165.897 Y162.983 E4.42685
G1 X166.430 Y162.983 E0.01676
G1 X66.173 Y62.726 E4.45055
G1 X66.173 Y62.192 E0.01676
G1 X166.964 Y162.983 E4.47424
G1 X167.498 Y162.983 E0.01676
G1 X66.173 Y61.659 E4.49794
G1 X66.173 Y61.125 E0.01676
G1 X168.032 Y162.983 E4.52164
G1 X168.566 Y162.983 E0.01676
G1 X66.173 Y60.591 E4.54534
G1 X66.173 Y60.057 E0.01676
G1 X169.100 Y162.983 E4.56904
G1 X169.634 Y162.983 E0.01676
G1 X66.173 Y59.523 E4.59274
G1 X66.173 Y58.989 E0.01676
G1 X170.167 Y162.983 E4.61644
M73 P10 R114
G1 X170.701 Y162.983 E0.01676
G1 X66.173 Y58.455 E4.64014
G1 X66.173 Y57.922 E0.01676
G1 X171.235 Y162.983 E4.66384
G1 X171.769 Y162.983 E0.01676
G1 X66.173 Y57.388 E4.68754
G1 X66.173 Y56.854 E0.01676
G1 X172.303 Y162.983 E4.71124
G1 X172.837 Y162.983 E0.01676
G1 X66.173 Y56.320 E4.73494
G1 X66.173 Y55.786 E0.01676
G1 X173.371 Y162.983 E4.75863
G1 X173.905 Y162.983 E0.01676
G1 X66.173 Y55.252 E4.78233
G1 X66.173 Y54.718 E0.01676
G1 X174.438 Y162.983 E4.80603
M73 P11 R113
G1 X174.972 Y162.983 E0.01676
G1 X66.173 Y54.184 E4.82973
G1 X66.173 Y53.651 E0.01676
G1 X175.506 Y162.983 E4.85343
G1 X176.040 Y162.983 E0.01676
G1 X66.173 Y53.117 E4.87713
G1 X66.173 Y52.583 E0.01676
G1 X176.574 Y162.983 E4.90083
G1 X177.108 Y162.983 E0.01676
G1 X66.173 Y52.049 E4.92453
G1 X66.173 Y51.515 E0.01676
G1 X177.642 Y162.983 E4.94823
G1 X178.176 Y162.983 E0.01676
G1 X66.173 Y50.981 E4.97193
G1 X66.173 Y50.447 E0.01676
G1 X178.709 Y162.983 E4.99563
M73 P12 R112
G1 X179.243 Y162.983 E0.01676
G1 X66.173 Y49.914 E5.01932
G1 X66.173 Y49.380 E0.01676
G1 X179.777 Y162.983 E5.04302
G1 X180.311 Y162.983 E0.01676
G1 X66.173 Y48.846 E5.06672
G1 X66.173 Y48.312 E0.01676
G1 X180.845 Y162.983 E5.09042
G1 X181.379 Y162.983 E0.01676
G1 X66.173 Y47.778 E5.11412
G1 X66.173 Y47.244 E0.01676
G1 X181.913 Y162.983 E5.13782
G1 X182.446 Y162.983 E0.01676
G1 X66.173 Y46.710 E5.16152
G1 X66.173 Y46.176 E0.01676
G1 X182.980 Y162.983 E5.18522
M73 P13 R111
G1 X183.514 Y162.983 E0.01676
G1 X66.173 Y45.643 E5.20892
G1 X66.173 Y45.109 E0.01676
G1 X184.048 Y162.983 E5.23262
G1 X184.582 Y162.983 E0.01676
G1 X66.322 Y44.723 E5.24973
G1 X66.856 Y44.723 E0.01676
G1 X185.116 Y162.983 E5.24973
G1 X185.650 Y162.983 E0.01676
G1 X67.389 Y44.723 E5.24973
G1 X67.923 Y44.723 E0.01676
