; generated by PrusaSlicer 2.1.0+win64 on 2019-11-07 at 01:45:28 UTC

; 

; external perimeters extrusion width = 0.60mm
; perimeters extrusion width = 0.43mm
; infill extrusion width = 0.45mm
; solid infill extrusion width = 0.70mm
; top infill extrusion width = 0.43mm
; first layer extrusion width = 0.42mm

M73 P0 R313
M201 X9000 Y9000 Z500 E10000 ; sets maximum accelerations, mm/sec^2
M203 X500 Y500 Z12 E120 ; sets maximum feedrates, mm/sec
M204 P2000 R1500 T2000 ; sets acceleration (P, T) and retract acceleration (R), mm/sec^2
M205 X10.00 Y10.00 Z0.20 E2.50 ; sets the jerk limits, mm/sec
M205 S0 T0 ; sets the minimum extruding and travel feed rate, mm/sec
M107
M862.3 P "MK2SMM" ; printer model check
M862.1 P0.4 ; nozzle diameter check
M115 U3.2.3 ; tell printer latest fw version
M204 S2000 T1500 ; MK2 firmware only supports the old M204 format
; Start G-Code sequence START
T3
M104 S215 ; set extruder temp
M140 S60 ; set bed temp
M190 S60 ; wait for bed temp
M109 S215 ; wait for extruder temp
G21 ; set units to millimeters
G90 ; use absolute coordinates
M83 ; use relative distances for extrusion
G28 W
G80
G92 E0.0
M203 E100 ; set max feedrate
M92 E140 ; E-steps per filament milimeter

G1 Z0.250 F7200.000
G1 X50.0 E80.0 F1000.0
M73 P0 R313
G1 X160.0 E20.0 F1000.0
G1 Z0.200 F7200.000
G1 X220.0 E13 F1000.0
G1 X240.0 E0 F1000.0

G92 E0.0
G21 ; set units to millimeters
G90 ; use absolute coordinates
M83 ; use relative distances for extrusion
T3
M900 K200 ; Filament gcode
;BEFORE_LAYER_CHANGE
G92 E0.0
;0.2


G1 Z0.200 F10800.000
;AFTER_LAYER_CHANGE
;0.2
G1 E-4.00000 F4800.00000
G1 Z0.800 F10800.000
G1 X58.934 Y9.547
G1 Z0.200
G1 E4.00000 F3000.00000
M204 S1000
G1 F1200
G1 X59.973 Y8.693 E0.04217
G1 X61.199 Y8.140 E0.04217
G1 X62.533 Y7.928 E0.04234
G1 X166.664 Y7.926 E3.26496
G1 X167.639 Y8.022 E0.03071
G1 X168.573 Y8.300 E0.03054
G1 X169.436 Y8.751 E0.03054
G1 X170.198 Y9.358 E0.03054
G1 X170.830 Y10.099 E0.03054
G1 X171.309 Y10.947 E0.03054
G1 X171.620 Y11.876 E0.03071
G1 X171.746 Y12.841 E0.03054
G1 X171.749 Y153.034 E4.39564
G1 X166.698 Y193.838 E1.28915
G1 X166.501 Y194.718 E0.02828
G1 X166.153 Y195.550 E0.02828
G1 X165.471 Y196.539 E0.03766
G1 X164.391 Y197.747 E0.05081
G1 X163.708 Y198.327 E0.02810
G1 X163.070 Y198.713 E0.02340
G1 X162.381 Y199.002 E0.02340
G1 X161.658 Y199.186 E0.02340
G1 X160.921 Y199.263 E0.02322
G1 X68.503 Y199.265 E2.89770
G1 X67.301 Y199.113 E0.03801
G1 X66.163 Y198.678 E0.03818
G1 X65.046 Y197.880 E0.04304
G1 X63.617 Y196.281 E0.06725
G1 X63.006 Y195.259 E0.03732
G1 X62.648 Y194.118 E0.03749
G1 X57.573 Y153.234 E1.29174
G1 X57.568 Y12.995 E4.39710
G1 X57.721 Y11.781 E0.03836
G1 X58.156 Y10.643 E0.03818
G1 X58.900 Y9.596 E0.04029
G1 E-2.40000 F4800.00000
G1 F8640
G1 X59.973 Y8.693 E-0.74046
G1 X61.199 Y8.140 E-0.70985
G1 X61.330 Y8.119 E-0.06969
G1 E-0.08000 F4800.00000
G1 Z0.800 F10800.000
G1 X114.692 Y156.679
G1 Z0.200
G1 E4.00000 F3000.00000
G1 F1200
G1 X113.594 Y157.352 E0.04040
G1 X112.171 Y157.731 E0.04616
G1 X62.219 Y157.731 E1.56621
G1 X61.020 Y157.473 E0.03843
G1 X59.933 Y156.897 E0.03857
G1 X58.994 Y156.013 E0.04044
G1 X58.326 Y154.957 E0.03918
G1 X57.945 Y153.530 E0.04631
G1 X57.945 Y12.578 E4.41944
G1 X58.201 Y11.384 E0.03829
G1 X58.779 Y10.292 E0.03873
G1 X59.702 Y9.320 E0.04203
G1 X60.723 Y8.683 E0.03774
G1 X62.146 Y8.304 E0.04619
G1 X112.146 Y8.307 E1.56769
G1 X113.181 Y8.519 E0.03314
G1 X114.065 Y8.921 E0.03044
G1 X114.607 Y9.371 E0.02210
G1 X115.725 Y8.682 E0.04118
G1 X117.147 Y8.304 E0.04615
G1 X167.148 Y8.307 E1.56773
G1 X168.194 Y8.524 E0.03350
G1 X169.171 Y8.990 E0.03394
G1 X170.269 Y9.960 E0.04595
G1 X171.015 Y11.131 E0.04355
G1 X171.372 Y12.508 E0.04458
G1 X171.372 Y153.457 E4.41937
M73 P0 R312
G1 X171.115 Y154.655 E0.03843
G1 X170.539 Y155.742 E0.03857
G1 X169.655 Y156.682 E0.04044
G1 X168.599 Y157.350 E0.03918
G1 X167.172 Y157.731 E0.04631
G1 X117.219 Y157.731 E1.56622
G1 X115.977 Y157.457 E0.03988
G1 X114.982 Y156.931 E0.03529
G1 X114.737 Y156.718 E0.01016
G1 X114.661 Y156.136 F10800.000
G1 F1200
G1 X114.326 Y156.464 E0.01469
G1 X113.468 Y156.996 E0.03166
G1 X112.145 Y157.353 E0.04295
G1 X62.239 Y157.353 E1.56477
G1 X61.127 Y157.110 E0.03569
G1 X60.135 Y156.577 E0.03533
G1 X59.271 Y155.757 E0.03735
G1 X58.661 Y154.781 E0.03608
G1 X58.322 Y153.505 E0.04139
G1 X58.322 Y12.597 E4.41807
G1 X58.547 Y11.537 E0.03399
G1 X59.099 Y10.492 E0.03706
G1 X59.956 Y9.599 E0.03882
G1 X60.897 Y9.018 E0.03465
G1 X62.171 Y8.681 E0.04132
G1 X112.127 Y8.684 E1.56634
G1 X113.044 Y8.871 E0.02937
G1 X113.884 Y9.253 E0.02890
G1 X114.649 Y9.905 E0.03154
G1 X114.992 Y9.570 E0.01502
G1 X115.850 Y9.038 E0.03166
G1 X117.172 Y8.681 E0.04295
G1 X167.128 Y8.684 E1.56631
G1 X168.093 Y8.888 E0.03093
G1 X168.983 Y9.317 E0.03097
G1 X169.998 Y10.223 E0.04266
G1 X170.681 Y11.307 E0.04016
G1 X170.995 Y12.531 E0.03964
G1 X170.995 Y153.437 E4.41799
G1 X170.752 Y154.549 E0.03569
G1 X170.219 Y155.541 E0.03533
G1 X169.399 Y156.405 E0.03735
G1 X168.423 Y157.015 E0.03608
G1 X167.147 Y157.353 E0.04139
G1 X117.239 Y157.353 E1.56483
G1 X116.130 Y157.112 E0.03559
G1 X115.181 Y156.610 E0.03366
G1 X114.706 Y156.177 E0.02017
G1 X114.650 Y155.607 F10800.000
G1 F1200
G1 X114.107 Y156.156 E0.02420
G1 X113.293 Y156.661 E0.03005
G1 X112.121 Y156.976 E0.03805
G1 X62.259 Y156.976 E1.56338
G1 X61.282 Y156.766 E0.03133
G1 X60.336 Y156.257 E0.03367
G1 X59.550 Y155.502 E0.03418
G1 X58.997 Y154.607 E0.03299
G1 X58.700 Y153.481 E0.03652
G1 X58.700 Y12.617 E4.41671
G1 X58.892 Y11.690 E0.02969
G1 X59.420 Y10.693 E0.03535
G1 X60.210 Y9.879 E0.03555
G1 X61.069 Y9.355 E0.03157
G1 X62.195 Y9.058 E0.03650
G1 X112.108 Y9.061 E1.56499
G1 X112.908 Y9.223 E0.02559
G1 X113.702 Y9.584 E0.02735
G1 X114.670 Y10.424 E0.04018
G1 X115.211 Y9.878 E0.02410
G1 X116.025 Y9.373 E0.03005
G1 X117.197 Y9.058 E0.03806
G1 X167.107 Y9.061 E1.56490
G1 X167.991 Y9.251 E0.02832
G1 X168.792 Y9.644 E0.02799
G1 X169.725 Y10.485 E0.03937
G1 X170.345 Y11.481 E0.03678
G1 X170.618 Y12.555 E0.03474
G1 X170.618 Y153.417 E4.41664
G1 X170.407 Y154.394 E0.03133
G1 X169.899 Y155.339 E0.03367
G1 X169.144 Y156.126 E0.03418
G1 X168.249 Y156.679 E0.03299
G1 X167.123 Y156.976 E0.03652
G1 X117.259 Y156.976 E1.56345
G1 X116.283 Y156.766 E0.03129
G1 X115.380 Y156.289 E0.03203
G1 X114.694 Y155.648 E0.02944
G1 X114.677 Y155.036 F10800.000
G1 F1200
G1 X113.888 Y155.848 E0.03550
G1 X113.118 Y156.326 E0.02842
G1 X112.096 Y156.599 E0.03316
G1 X62.279 Y156.599 E1.56199
G1 X61.437 Y156.421 E0.02698
G1 X60.539 Y155.938 E0.03197
G1 X59.830 Y155.248 E0.03101
G1 X59.353 Y154.482 E0.02830
G1 X59.077 Y153.456 E0.03332
G1 X59.077 Y12.637 E4.41528
M73 P0 R311
G1 X59.255 Y11.795 E0.02698
G1 X59.739 Y10.896 E0.03200
G1 X60.462 Y10.160 E0.03236
G1 X61.194 Y9.711 E0.02692
G1 X62.220 Y9.435 E0.03332
G1 X112.088 Y9.438 E1.56357
G1 X112.809 Y9.588 E0.02310
G1 X113.518 Y9.915 E0.02447
G1 X114.425 Y10.713 E0.03787
G1 X114.634 Y11.005 E0.01127
G1 X115.430 Y10.186 E0.03581
G1 X116.200 Y9.708 E0.02842
G1 X117.222 Y9.435 E0.03316
G1 X167.088 Y9.438 E1.56351
G1 X167.848 Y9.601 E0.02439
G1 X168.562 Y9.944 E0.02483
G1 X169.421 Y10.709 E0.03608
G1 X169.988 Y11.605 E0.03323
G1 X170.241 Y12.579 E0.03156
G1 X170.241 Y153.397 E4.41526
G1 X170.062 Y154.239 E0.02698
G1 X169.580 Y155.137 E0.03197
G1 X168.890 Y155.846 E0.03101
G1 X168.124 Y156.323 E0.02830
G1 X167.098 Y156.599 E0.03332
G1 X117.279 Y156.599 E1.56204
G1 X116.436 Y156.420 E0.02700
G1 X115.580 Y155.968 E0.03036
G1 X114.853 Y155.278 E0.03141
G1 X114.713 Y155.085 E0.00751
G1 X114.635 Y154.257 F10800.000
G1 F1200
G1 X114.293 Y154.890 E0.02256
G1 X113.635 Y155.568 E0.02962
G1 X112.945 Y155.989 E0.02535
G1 X112.072 Y156.222 E0.02833
G1 X62.298 Y156.222 E1.56063
G1 X61.589 Y156.074 E0.02271
G1 X60.780 Y155.647 E0.02867
G1 X60.135 Y155.026 E0.02807
G1 X59.709 Y154.353 E0.02498
G1 X59.454 Y153.430 E0.03004
G1 X59.454 Y12.656 E4.41387
G1 X59.601 Y11.947 E0.02271
G1 X60.028 Y11.139 E0.02865
G1 X60.682 Y10.467 E0.02939
G1 X61.322 Y10.067 E0.02366
G1 X62.246 Y9.812 E0.03006
G1 X112.068 Y9.815 E1.56212
G1 X112.709 Y9.952 E0.02055
G1 X113.332 Y10.244 E0.02159
G1 X114.152 Y10.974 E0.03441
G1 X114.679 Y11.784 E0.03030
G1 X115.025 Y11.144 E0.02282
G1 X115.683 Y10.466 E0.02962
G1 X116.373 Y10.045 E0.02535
G1 X117.246 Y9.812 E0.02833
G1 X167.068 Y9.815 E1.56212
G1 X167.709 Y9.952 E0.02055
G1 X168.332 Y10.244 E0.02159
G1 X169.151 Y10.973 E0.03437
G1 X169.631 Y11.731 E0.02811
G1 X169.864 Y12.604 E0.02835
G1 X169.864 Y153.378 E4.41387
G1 X169.716 Y154.087 E0.02271
G1 X169.289 Y154.896 E0.02867
G1 X168.668 Y155.541 E0.02807
G1 X167.995 Y155.967 E0.02498
G1 X167.072 Y156.222 E0.03004
G1 X117.298 Y156.222 E1.56063
G1 X116.589 Y156.074 E0.02271
G1 X115.780 Y155.647 E0.02867
G1 X115.134 Y155.025 E0.02811
G1 X114.668 Y154.308 E0.02685
G1 X114.795 Y153.307 F10800.000
G1 F1200
G1 X114.501 Y153.318 E0.00921
G1 X114.370 Y153.935 E0.01979
G1 X114.001 Y154.651 E0.02524
G1 X113.414 Y155.261 E0.02655
G1 X112.817 Y155.634 E0.02206
G1 X112.046 Y155.845 E0.02508
G1 X62.316 Y155.845 E1.55924
G1 X61.741 Y155.728 E0.01841
G1 X60.981 Y155.327 E0.02693
G1 X60.415 Y154.772 E0.02486
G1 X60.063 Y154.223 E0.02044
G1 X59.831 Y153.403 E0.02672
G1 X59.831 Y12.674 E4.41245
G1 X59.948 Y12.099 E0.01841
G1 X60.349 Y11.339 E0.02693
G1 X60.904 Y10.773 E0.02486
G1 X61.453 Y10.422 E0.02044
G1 X62.273 Y10.189 E0.02672
G1 X112.048 Y10.193 E1.56066
G1 X112.573 Y10.304 E0.01681
G1 X113.104 Y10.545 E0.01829
G1 X113.881 Y11.238 E0.03263
G1 X114.276 Y11.859 E0.02309
G1 X114.521 Y12.726 E0.02827
G1 X114.816 Y12.717 E0.00926
G1 X114.947 Y12.099 E0.01981
G1 X115.317 Y11.383 E0.02524
G1 X115.904 Y10.773 E0.02655
G1 X116.501 Y10.400 E0.02206
G1 X117.272 Y10.189 E0.02508
G1 X167.048 Y10.193 E1.56069
G1 X167.573 Y10.304 E0.01681
G1 X168.104 Y10.545 E0.01829
G1 X168.881 Y11.238 E0.03263
G1 X169.275 Y11.858 E0.02306
G1 X169.487 Y12.630 E0.02510
G1 X169.487 Y153.360 E4.41248
M73 P1 R310
G1 X169.370 Y153.935 E0.01841
G1 X168.969 Y154.695 E0.02693
G1 X168.414 Y155.261 E0.02486
G1 X167.865 Y155.612 E0.02044
G1 X167.045 Y155.845 E0.02672
G1 X117.316 Y155.845 E1.55921
G1 X116.741 Y155.728 E0.01841
G1 X115.981 Y155.327 E0.02693
G1 X115.415 Y154.772 E0.02486
G1 X115.063 Y154.222 E0.02047
G1 X114.812 Y153.365 E0.02802
G1 X116.224 Y155.037 F10800.000
G1 F1200
G1 X115.695 Y154.519 E0.02324
G1 X115.397 Y154.046 E0.01752
G1 X115.208 Y153.377 E0.02179
G1 X115.208 Y12.692 E4.41108
G1 X115.295 Y12.247 E0.01423
G1 X115.639 Y11.582 E0.02344
G1 X116.157 Y11.053 E0.02324
G1 X116.630 Y10.755 E0.01752
G1 X117.299 Y10.566 E0.02179
G1 X167.027 Y10.570 E1.55918
G1 X167.470 Y10.667 E0.01423
G1 X167.918 Y10.875 E0.01548
G1 X168.609 Y11.500 E0.02920
G1 X168.920 Y11.988 E0.01818
G1 X169.110 Y12.657 E0.02179
G1 X169.110 Y153.342 E4.41108
G1 X169.022 Y153.787 E0.01423
G1 X168.679 Y154.452 E0.02344
G1 X168.161 Y154.981 E0.02324
G1 X167.688 Y155.279 E0.01752
G1 X167.019 Y155.468 E0.02179
G1 X117.334 Y155.468 E1.55784
G1 X116.889 Y155.381 E0.01423
G1 X116.278 Y155.065 E0.02156
G1 X116.453 Y154.732 F10800.000
G1 F1200
G1 X115.976 Y154.267 E0.02089
G1 X115.751 Y153.913 E0.01318
G1 X115.585 Y153.349 E0.01842
G1 X115.585 Y12.712 E4.40958
G1 X115.659 Y12.350 E0.01157
G1 X115.958 Y11.785 E0.02004
G1 X116.409 Y11.334 E0.01999
G1 X116.763 Y11.109 E0.01318
G1 X117.327 Y10.943 E0.01842
G1 X167.005 Y10.947 E1.55760
G1 X167.364 Y11.030 E0.01157
G1 X167.730 Y11.202 E0.01268
G1 X168.335 Y11.760 E0.02580
G1 X168.567 Y12.122 E0.01347
G1 X168.733 Y12.685 E0.01841
G1 X168.733 Y153.322 E4.40958
G1 X168.659 Y153.684 E0.01157
G1 X168.360 Y154.249 E0.02004
G1 X167.909 Y154.700 E0.01999
G1 X167.554 Y154.925 E0.01318
G1 X166.991 Y155.091 E0.01842
G1 X117.353 Y155.091 E1.55634
G1 X116.992 Y155.017 E0.01157
G1 X116.507 Y154.760 E0.01722
G1 X116.675 Y154.431 F10800.000
G1 F1200
G1 X116.257 Y154.015 E0.01851
G1 X116.103 Y153.775 E0.00892
G1 X115.962 Y153.319 E0.01496
G1 X115.962 Y12.729 E4.40812
G1 X116.007 Y12.496 E0.00743
G1 X116.246 Y12.030 E0.01642
G1 X116.661 Y11.615 E0.01841
G1 X116.901 Y11.461 E0.00892
G1 X117.357 Y11.320 E0.01496
G1 X166.983 Y11.324 E1.55600
G1 X167.221 Y11.379 E0.00767
G1 X167.541 Y11.530 E0.01109
G1 X168.060 Y12.018 E0.02233
G1 X168.215 Y12.259 E0.00898
G1 X168.356 Y12.715 E0.01495
G1 X168.356 Y153.305 E4.40812
G1 X168.310 Y153.538 E0.00743
G1 X168.072 Y154.004 E0.01642
G1 X167.656 Y154.419 E0.01841
G1 X167.417 Y154.573 E0.00892
G1 X166.961 Y154.714 E0.01496
G1 X117.371 Y154.714 E1.55488
M73 P1 R309
G1 X117.138 Y154.669 E0.00743
G1 X116.728 Y154.459 E0.01444
G1 X117.240 Y154.305 F10800.000
G1 F1200
G1 X116.917 Y154.142 E0.01136
G1 X116.537 Y153.761 E0.01687
G1 X116.452 Y153.632 E0.00484
G1 X116.339 Y153.288 E0.01136
G1 X116.339 Y12.750 E4.40647
G1 X116.371 Y12.599 E0.00484
G1 X116.534 Y12.275 E0.01136
G1 X116.915 Y11.895 E0.01687
G1 X117.044 Y11.810 E0.00484
G1 X117.388 Y11.697 E0.01136
G1 X166.961 Y11.701 E1.55431
G1 X167.078 Y11.728 E0.00377
G1 X167.351 Y11.858 E0.00947
G1 X167.782 Y12.274 E0.01880
G1 X167.866 Y12.402 E0.00479
G1 X167.979 Y12.746 E0.01136
G1 X167.979 Y153.284 E4.40647
G1 X167.947 Y153.435 E0.00484
G1 X167.783 Y153.759 E0.01136
G1 X167.403 Y154.139 E0.01687
G1 X167.274 Y154.224 E0.00484
G1 X166.930 Y154.337 E0.01136
G1 X117.392 Y154.337 E1.55323
G1 X117.299 Y154.317 E0.00296
G1 X117.377 Y153.953 F10800.000
G1 F1200
G1 X117.159 Y153.850 E0.00757
G1 X116.816 Y153.507 E0.01522
G1 X116.716 Y153.253 E0.00856
G1 X116.723 Y12.735 E4.40582
G1 X116.826 Y12.517 E0.00757
G1 X117.169 Y12.174 E0.01522
G1 X117.423 Y12.074 E0.00856
G1 X166.940 Y12.081 E1.55258
G1 X167.159 Y12.184 E0.00757
G1 X167.502 Y12.527 E0.01522
G1 X167.602 Y12.781 E0.00856
G1 X167.595 Y153.299 E4.40582
G1 X167.492 Y153.517 E0.00757
G1 X167.149 Y153.860 E0.01522
G1 X166.894 Y153.960 E0.00856
G1 X117.437 Y153.960 E1.55072
G1 X117.122 Y153.280 F10800.000
G1 F1200
G1 X117.093 Y153.211 E0.00235
G1 X117.093 Y12.823 E4.40175
G1 X117.122 Y12.754 E0.00235
G1 X117.396 Y12.480 E0.01215
G1 X117.465 Y12.451 E0.00235
G1 X166.853 Y12.451 E1.54851
G1 X166.922 Y12.480 E0.00235
G1 X167.196 Y12.754 E0.01215
G1 X167.224 Y12.823 E0.00235
G1 X167.224 Y153.211 E4.40175
G1 X167.196 Y153.280 E0.00235
G1 X166.922 Y153.554 E0.01215
G1 X166.853 Y153.583 E0.00235
G1 X117.465 Y153.583 E1.54851
G1 X117.396 Y153.554 E0.00235
G1 X117.164 Y153.322 E0.01027
G1 X117.470 Y153.095 F10800.000
G1 F1200
G1 X117.470 Y12.939 E4.39450
M73 P1 R308
G1 X117.581 Y12.828 E0.00490
G1 X166.737 Y12.828 E1.54126
G1 X166.847 Y12.939 E0.00490
G1 X166.847 Y153.095 E4.39450
G1 X166.737 Y153.206 E0.00490
G1 X117.581 Y153.206 E1.54126
G1 X117.513 Y153.138 E0.00302
G1 E-2.40000 F4800.00000
G1 F8640
G1 X117.512 Y150.258 E-1.52000
G1 E-0.08000 F4800.00000
G1 Z0.800 F10800.000
G1 X113.679 Y154.452
G1 Z0.200
G1 E4.00000 F3000.00000
G1 F1200
G1 X113.161 Y154.981 E0.02324
G1 X112.688 Y155.279 E0.01752
G1 X112.019 Y155.468 E0.02179
G1 X62.334 Y155.468 E1.55784
G1 X61.889 Y155.381 E0.01423
G1 X61.224 Y155.037 E0.02344
G1 X60.695 Y154.519 E0.02324
G1 X60.397 Y154.046 E0.01752
G1 X60.208 Y153.377 E0.02179
G1 X60.208 Y12.692 E4.41108
G1 X60.295 Y12.247 E0.01423
G1 X60.639 Y11.582 E0.02344
G1 X61.157 Y11.053 E0.02324
G1 X61.630 Y10.755 E0.01752
G1 X62.299 Y10.566 E0.02179
G1 X112.027 Y10.570 E1.55918
G1 X112.470 Y10.667 E0.01423
G1 X112.918 Y10.875 E0.01548
G1 X113.609 Y11.500 E0.02920
G1 X113.920 Y11.988 E0.01818
G1 X114.110 Y12.657 E0.02179
G1 X114.110 Y153.342 E4.41108
G1 X114.022 Y153.787 E0.01423
G1 X113.707 Y154.398 E0.02156
G1 X113.374 Y154.222 F10800.000
G1 F1200
G1 X112.909 Y154.700 E0.02089
G1 X112.554 Y154.925 E0.01318
G1 X111.991 Y155.091 E0.01842
G1 X62.353 Y155.091 E1.55634
G1 X61.992 Y155.017 E0.01157
G1 X61.427 Y154.718 E0.02004
G1 X60.976 Y154.267 E0.01999
G1 X60.751 Y153.913 E0.01318
G1 X60.585 Y153.349 E0.01842
G1 X60.585 Y12.712 E4.40958
G1 X60.659 Y12.350 E0.01157
G1 X60.958 Y11.785 E0.02004
G1 X61.409 Y11.334 E0.01999
G1 X61.763 Y11.109 E0.01318
G1 X62.327 Y10.943 E0.01842
G1 X112.005 Y10.947 E1.55760
G1 X112.364 Y11.030 E0.01157
G1 X112.730 Y11.202 E0.01268
G1 X113.335 Y11.760 E0.02580
G1 X113.567 Y12.122 E0.01347
