; generated by PrusaSlicer 2.1.0+win64 on 2019-11-07 at 01:52:22 UTC

; 

; external perimeters extrusion width = 0.60mm
; perimeters extrusion width = 0.43mm
; infill extrusion width = 0.45mm
; solid infill extrusion width = 0.70mm
; top infill extrusion width = 0.43mm
; first layer extrusion width = 0.42mm

M73 P0 R113
M201 X9000 Y9000 Z500 E10000 ; sets maximum accelerations, mm/sec^2
M203 X500 Y500 Z12 E120 ; sets maximum feedrates, mm/sec
M204 P2000 R1500 T2000 ; sets acceleration (P, T) and retract acceleration (R), mm/sec^2
M205 X10.00 Y10.00 Z0.20 E2.50 ; sets the jerk limits, mm/sec
M205 S0 T0 ; sets the minimum extruding and travel feed rate, mm/sec
M107
M862.3 P "MK2SMM" ; printer model check
M862.1 P0.4 ; nozzle diameter check
M115 U3.2.3 ; tell printer latest fw version
M204 S2000 T1500 ; MK2 firmware only supports the old M204 format
; Start G-Code sequence START
T2
M104 S215 ; set extruder temp
M140 S60 ; set bed temp
M190 S60 ; wait for bed temp
M109 S215 ; wait for extruder temp
G21 ; set units to millimeters
G90 ; use absolute coordinates
M83 ; use relative distances for extrusion
G28 W
G80
G92 E0.0
M203 E100 ; set max feedrate
M92 E140 ; E-steps per filament milimeter

G1 Z0.250 F7200.000
G1 X50.0 E80.0 F1000.0
M73 P0 R113
G1 X160.0 E20.0 F1000.0
G1 Z0.200 F7200.000
G1 X220.0 E13 F1000.0
G1 X240.0 E0 F1000.0

G92 E0.0
G21 ; set units to millimeters
G90 ; use absolute coordinates
M83 ; use relative distances for extrusion
T2
M900 K200 ; Filament gcode
;BEFORE_LAYER_CHANGE
G92 E0.0
;0.2


G1 Z0.200 F10800.000
;AFTER_LAYER_CHANGE
;0.2
G1 E-4.00000 F4800.00000
G1 Z0.800 F10800.000
G1 X66.953 Y22.003
G1 Z0.200
G1 E4.00000 F3000.00000
M204 S1000
G1 F1200
G1 X67.914 Y21.368 E0.03610
G1 X68.993 Y20.966 E0.03610
G1 X70.129 Y20.816 E0.03593
G1 X180.227 Y20.815 E3.45204
G1 X181.202 Y20.911 E0.03071
G1 X182.145 Y21.193 E0.03089
G1 X183.012 Y21.649 E0.03071
G1 X183.776 Y22.262 E0.03071
G1 X184.408 Y23.011 E0.03071
G1 X184.885 Y23.866 E0.03071
G1 X185.189 Y24.797 E0.03071
G1 X185.310 Y25.769 E0.03071
G1 X185.312 Y166.439 E4.41062
G1 X185.240 Y167.255 E0.02566
G1 X185.041 Y168.043 E0.02549
G1 X184.719 Y168.789 E0.02549
G1 X184.282 Y169.475 E0.02549
G1 X183.480 Y170.316 E0.03645
G1 X182.508 Y170.954 E0.03645
G1 X181.417 Y171.354 E0.03645
G1 X180.263 Y171.496 E0.03645
G1 X70.176 Y171.496 E3.45169
G1 X69.372 Y171.425 E0.02532
G1 X68.584 Y171.226 E0.02549
G1 X67.838 Y170.904 E0.02549
G1 X67.152 Y170.467 E0.02549
G1 X66.307 Y169.661 E0.03662
G1 X65.671 Y168.688 E0.03645
G1 X65.272 Y167.596 E0.03645
G1 X65.131 Y166.442 E0.03645
G1 X65.131 Y25.873 E4.40747
G1 X65.202 Y25.057 E0.02566
G1 X65.401 Y24.269 E0.02549
G1 X65.723 Y23.523 E0.02549
G1 X66.160 Y22.837 E0.02549
G1 X66.912 Y22.046 E0.03422
G1 X66.344 Y23.176 F10800.000
G1 F1200
G1 X67.657 Y21.908 E0.05724
G1 X68.488 Y21.491 E0.02916
G1 X69.712 Y21.193 E0.03948
G1 X180.707 Y21.196 E3.48019
G1 X181.656 Y21.380 E0.03029
G1 X182.564 Y21.771 E0.03101
G1 X183.783 Y22.794 E0.04990
G1 X184.574 Y24.012 E0.04551
G1 X184.935 Y25.395 E0.04481
G1 X184.935 Y166.916 E4.43729
G1 X184.634 Y168.149 E0.03979
G1 X184.098 Y169.136 E0.03521
G1 X182.785 Y170.404 E0.05724
G1 X181.954 Y170.821 E0.02916
G1 X180.731 Y171.119 E0.03948
G1 X69.711 Y171.119 E3.48093
G1 X68.478 Y170.818 E0.03979
G1 X67.491 Y170.283 E0.03521
G1 X66.223 Y168.970 E0.05724
G1 X65.806 Y168.139 E0.02916
G1 X65.508 Y166.916 E0.03948
G1 X65.508 Y25.396 E4.43724
M73 P1 R112
G1 X65.809 Y24.163 E0.03979
G1 X66.315 Y23.229 E0.03333
G1 X66.646 Y23.410 F10800.000
G1 F1200
G1 X67.853 Y22.231 E0.05292
G1 X68.601 Y21.851 E0.02629
G1 X69.735 Y21.570 E0.03664
G1 X180.689 Y21.573 E3.47887
G1 X181.562 Y21.746 E0.02791
G1 X182.388 Y22.105 E0.02823
G1 X183.518 Y23.064 E0.04647
G1 X184.217 Y24.138 E0.04018
G1 X184.557 Y25.419 E0.04157
G1 X184.557 Y166.892 E4.43578
G1 X184.274 Y168.033 E0.03686
G1 X183.782 Y168.929 E0.03205
G1 X182.589 Y170.081 E0.05199
G1 X181.841 Y170.461 E0.02629
G1 X180.707 Y170.742 E0.03664
G1 X69.735 Y170.742 E3.47946
G1 X68.594 Y170.459 E0.03686
G1 X67.698 Y169.967 E0.03205
G1 X66.546 Y168.774 E0.05199
G1 X66.166 Y168.026 E0.02629
G1 X65.885 Y166.892 E0.03664
G1 X65.885 Y25.420 E4.43577
G1 X66.168 Y24.279 E0.03686
G1 X66.617 Y23.463 E0.02920
G1 X66.940 Y23.640 F10800.000
G1 F1200
G1 X68.052 Y22.553 E0.04873
G1 X68.715 Y22.211 E0.02340
G1 X69.759 Y21.947 E0.03376
G1 X180.669 Y21.950 E3.47752
G1 X181.467 Y22.111 E0.02550
G1 X182.209 Y22.439 E0.02545
G1 X183.251 Y23.332 E0.04302
G1 X183.884 Y24.316 E0.03669
G1 X184.180 Y25.444 E0.03655
G1 X184.180 Y166.868 E4.43428
G1 X183.914 Y167.917 E0.03393
G1 X183.498 Y168.679 E0.02723
G1 X182.391 Y169.759 E0.04849
G1 X181.727 Y170.101 E0.02340
G1 X180.683 Y170.365 E0.03376
G1 X69.759 Y170.365 E3.47796
G1 X68.710 Y170.099 E0.03393
G1 X67.948 Y169.683 E0.02723
G1 X66.868 Y168.576 E0.04849
G1 X66.526 Y167.912 E0.02340
G1 X66.262 Y166.868 E0.03376
G1 X66.262 Y25.444 E4.43427
G1 X66.528 Y24.395 E0.03393
G1 X66.912 Y23.692 E0.02510
G1 X67.241 Y23.875 F10800.000
G1 F1200
G1 X68.251 Y22.874 E0.04459
G1 X68.832 Y22.571 E0.02054
G1 X69.783 Y22.324 E0.03083
G1 X180.650 Y22.327 E3.47614
G1 X181.369 Y22.476 E0.02304
G1 X182.029 Y22.771 E0.02266
G1 X182.983 Y23.598 E0.03960
G1 X183.527 Y24.443 E0.03149
G1 X183.803 Y25.469 E0.03331
G1 X183.803 Y166.844 E4.43271
M73 P1 R111
G1 X183.556 Y167.798 E0.03092
G1 X183.182 Y168.472 E0.02415
G1 X182.191 Y169.438 E0.04339
G1 X181.611 Y169.741 E0.02054
G1 X180.659 Y169.988 E0.03083
G1 X69.783 Y169.988 E3.47643
G1 X68.829 Y169.741 E0.03092
G1 X68.155 Y169.367 E0.02415
G1 X67.189 Y168.376 E0.04339
G1 X66.886 Y167.796 E0.02054
G1 X66.639 Y166.844 E0.03083
G1 X66.639 Y25.468 E4.43274
G1 X66.886 Y24.514 E0.03092
G1 X67.212 Y23.928 E0.02102
G1 X67.539 Y24.112 F10800.000
G1 F1200
G1 X67.575 Y24.049 E0.00227
G1 X68.452 Y23.194 E0.03842
G1 X68.951 Y22.929 E0.01770
G1 X69.808 Y22.701 E0.02783
G1 X180.631 Y22.704 E3.47475
G1 X181.234 Y22.829 E0.01933
G1 X181.849 Y23.103 E0.02110
G1 X182.713 Y23.863 E0.03609
G1 X183.193 Y24.620 E0.02809
G1 X183.426 Y25.493 E0.02835
G1 X183.426 Y166.819 E4.43116
G1 X183.198 Y167.677 E0.02784
G1 X182.867 Y168.263 E0.02109
G1 X181.990 Y169.118 E0.03842
G1 X181.492 Y169.383 E0.01770
G1 X180.634 Y169.611 E0.02783
G1 X69.808 Y169.611 E3.47485
G1 X68.950 Y169.383 E0.02784
G1 X68.364 Y169.052 E0.02109
G1 X67.509 Y168.175 E0.03842
G1 X67.244 Y167.677 E0.01770
G1 X67.016 Y166.819 E0.02783
G1 X67.016 Y25.493 E4.43116
G1 X67.244 Y24.635 E0.02784
G1 X67.510 Y24.165 E0.01694
G1 X67.832 Y24.346 F10800.000
G1 F1200
G1 X67.859 Y24.299 E0.00170
G1 X68.656 Y23.512 E0.03512
G1 X69.072 Y23.286 E0.01484
G1 X69.834 Y23.078 E0.02477
G1 X180.610 Y23.082 E3.47330
G1 X181.135 Y23.193 E0.01682
G1 X181.666 Y23.434 E0.01829
G1 X182.443 Y24.127 E0.03263
G1 X182.837 Y24.747 E0.02306
G1 X183.049 Y25.519 E0.02510
G1 X183.049 Y166.793 E4.42954
G1 X182.841 Y167.555 E0.02477
G1 X182.583 Y168.013 E0.01649
G1 X181.786 Y168.800 E0.03512
G1 X181.370 Y169.026 E0.01484
G1 X180.608 Y169.234 E0.02477
G1 X69.834 Y169.234 E3.47323
G1 X69.072 Y169.026 E0.02477
G1 X68.614 Y168.768 E0.01649
G1 X67.827 Y167.971 E0.03512
G1 X67.602 Y167.555 E0.01484
G1 X67.393 Y166.793 E0.02477
G1 X67.393 Y25.519 E4.42954
M73 P2 R110
G1 X67.602 Y24.757 E0.02477
G1 X67.803 Y24.398 E0.01291
G1 X67.770 Y25.546 F10800.000
G1 F1200
G1 X67.957 Y24.884 E0.02158
G1 X68.173 Y24.509 E0.01354
G1 X68.862 Y23.829 E0.03038
G1 X69.197 Y23.643 E0.01202
G1 X69.861 Y23.455 E0.02163
G1 X180.589 Y23.459 E3.47180
G1 X181.032 Y23.556 E0.01424
G1 X181.480 Y23.764 E0.01548
G1 X182.171 Y24.389 E0.02920
G1 X182.483 Y24.877 E0.01818
G1 X182.672 Y25.546 E0.02179
G1 X182.672 Y166.766 E4.42785
G1 X182.485 Y167.428 E0.02158
G1 X182.270 Y167.803 E0.01354
G1 X181.580 Y168.483 E0.03038
G1 X181.245 Y168.669 E0.01202
G1 X180.581 Y168.857 E0.02162
G1 X69.861 Y168.857 E3.47155
G1 X69.199 Y168.670 E0.02158
G1 X68.824 Y168.455 E0.01354
G1 X68.144 Y167.765 E0.03038
G1 X67.958 Y167.430 E0.01202
G1 X67.770 Y166.766 E0.02162
G1 X67.770 Y25.606 E4.42597
G1 X68.147 Y25.606 F10800.000
G1 F1200
G1 X68.313 Y25.012 E0.01934
G1 X68.458 Y24.757 E0.00919
G1 X69.072 Y24.143 E0.02726
G1 X69.327 Y23.998 E0.00919
G1 X69.889 Y23.832 E0.01838
G1 X180.567 Y23.836 E3.47022
G1 X180.926 Y23.919 E0.01157
G1 X181.292 Y24.091 E0.01268
G1 X181.897 Y24.649 E0.02580
G1 X182.129 Y25.011 E0.01347
G1 X182.295 Y25.574 E0.01841
G1 X182.295 Y166.738 E4.42609
G1 X182.130 Y167.300 E0.01838
G1 X181.985 Y167.555 E0.00919
G1 X181.370 Y168.169 E0.02726
G1 X181.115 Y168.315 E0.00919
G1 X180.553 Y168.480 E0.01838
G1 X69.889 Y168.480 E3.46979
G1 X69.327 Y168.315 E0.01838
G1 X69.072 Y168.169 E0.00919
G1 X68.458 Y167.555 E0.02726
G1 X68.313 Y167.300 E0.00919
G1 X68.147 Y166.738 E0.01838
G1 X68.147 Y25.666 E4.42321
G1 X68.524 Y25.604 F10800.000
G1 F1200
G1 X68.665 Y25.147 E0.01500
G1 X68.769 Y24.970 E0.00641
G1 X69.285 Y24.454 E0.02289
G1 X69.462 Y24.350 E0.00641
G1 X69.919 Y24.209 E0.01500
G1 X180.545 Y24.213 E3.46861
G1 X180.783 Y24.268 E0.00767
G1 X181.103 Y24.419 E0.01109
G1 X181.622 Y24.907 E0.02233
G1 X181.777 Y25.148 E0.00898
G1 X181.918 Y25.604 E0.01495
G1 X181.918 Y166.708 E4.42424
M73 P3 R109
G1 X181.777 Y167.165 E0.01500
G1 X181.673 Y167.342 E0.00641
G1 X181.157 Y167.858 E0.02289
G1 X180.981 Y167.962 E0.00641
G1 X180.523 Y168.103 E0.01500
G1 X69.919 Y168.103 E3.46793
G1 X69.462 Y167.962 E0.01500
G1 X69.285 Y167.858 E0.00641
G1 X68.769 Y167.342 E0.02289
G1 X68.665 Y167.165 E0.00641
G1 X68.524 Y166.708 E0.01500
G1 X68.524 Y25.664 E4.42236
G1 X69.015 Y25.289 F10800.000
G1 F1200
G1 X69.077 Y25.189 E0.00369
G1 X69.504 Y24.762 E0.01893
G1 X69.604 Y24.700 E0.00369
G1 X69.950 Y24.586 E0.01144
G1 X180.523 Y24.590 E3.46692
G1 X180.640 Y24.617 E0.00377
G1 X180.913 Y24.747 E0.00947
G1 X181.344 Y25.163 E0.01880
G1 X181.428 Y25.291 E0.00479
G1 X181.541 Y25.635 E0.01136
G1 X181.541 Y166.677 E4.42225
G1 X181.427 Y167.023 E0.01144
G1 X181.365 Y167.123 E0.00369
G1 X180.938 Y167.550 E0.01893
G1 X180.838 Y167.612 E0.00369
G1 X180.492 Y167.726 E0.01144
G1 X69.950 Y167.726 E3.46595
G1 X69.604 Y167.612 E0.01144
G1 X69.504 Y167.550 E0.00369
G1 X69.077 Y167.123 E0.01893
G1 X69.015 Y167.023 E0.00369
G1 X68.901 Y166.677 E0.01144
G1 X68.901 Y25.635 E4.42225
G1 X68.996 Y25.346 E0.00955
G1 X69.360 Y25.443 F10800.000
G1 F1200
G1 X69.731 Y25.063 E0.01666
G1 X69.985 Y24.963 E0.00856
G1 X180.471 Y24.963 E3.46419
G1 X180.721 Y25.073 E0.00856
G1 X181.064 Y25.416 E0.01522
G1 X181.164 Y25.670 E0.00856
G1 X181.164 Y166.642 E4.42005
G1 X181.064 Y166.896 E0.00856
G1 X180.711 Y167.249 E0.01566
G1 X180.457 Y167.349 E0.00856
G1 X69.985 Y167.349 E3.46375
G1 X69.731 Y167.249 E0.00856
G1 X69.378 Y166.896 E0.01566
G1 X69.278 Y166.642 E0.00856
G1 X69.278 Y25.670 E4.42005
M73 P4 R108
G1 X69.340 Y25.500 E0.00569
G1 X69.684 Y25.643 F10800.000
G1 F1200
G1 X69.958 Y25.369 E0.01215
G1 X70.027 Y25.340 E0.00235
G1 X180.415 Y25.340 E3.46112
G1 X180.484 Y25.369 E0.00235
G1 X180.758 Y25.643 E0.01215
G1 X180.787 Y25.712 E0.00235
G1 X180.787 Y166.600 E4.41743
G1 X180.758 Y166.669 E0.00235
G1 X180.484 Y166.943 E0.01215
G1 X180.415 Y166.972 E0.00235
G1 X70.027 Y166.972 E3.46112
G1 X69.958 Y166.943 E0.00235
G1 X69.684 Y166.669 E0.01215
G1 X69.655 Y166.600 E0.00235
G1 X69.661 Y25.698 E4.41786
G1 X70.033 Y25.828 F10800.000
G1 F1200
G1 X70.143 Y25.717 E0.00490
G1 X180.299 Y25.717 E3.45387
G1 X180.410 Y25.828 E0.00490
G1 X180.410 Y166.484 E4.41018
G1 X180.299 Y166.595 E0.00490
G1 X70.143 Y166.595 E3.45387
G1 X70.033 Y166.484 E0.00490
G1 X70.033 Y25.888 E4.40829
G1 X70.431 Y26.116 F10800.000
G1 F1200
G1 X180.011 Y26.116 E3.43580
G1 X180.011 Y166.196 E4.39211
M73 P5 R107
G1 X70.431 Y166.196 E3.43580
G1 X70.431 Y26.176 E4.39023
G1 X70.813 Y26.235 F10800.000
G1 X70.808 Y26.493
G1 F1200
G1 X179.634 Y26.493 E3.41216
G1 X179.634 Y165.819 E4.36846
G1 X70.808 Y165.819 E3.41216
G1 X70.808 Y26.553 E4.36658
G1 X71.185 Y26.870 F10800.000
G1 F1200
G1 X179.257 Y26.870 E3.38851
G1 X179.257 Y165.442 E4.34482
G1 X71.185 Y165.442 E3.38851
G1 X71.185 Y26.930 E4.34294
M73 P6 R106
G1 X71.562 Y27.247 F10800.000
G1 F1200
G1 X178.880 Y27.247 E3.36487
G1 X178.880 Y165.065 E4.32117
G1 X71.562 Y165.065 E3.36487
G1 X71.562 Y27.307 E4.31929
G1 E-2.40000 F4800.00000
G1 F8640
G1 X74.442 Y27.306 E-1.52000
G1 E-0.08000 F4800.00000
G1 Z0.800 F10800.000
G1 X178.767 Y28.124
G1 Z0.200
G1 E4.00000 F3000.00000
G1 F1200
G1 X178.172 Y27.530 E0.02641
G1 X177.638 Y27.530 E0.01679
G1 X178.597 Y28.489 E0.04261
G1 X178.597 Y29.023 E0.01679
G1 X177.104 Y27.530 E0.06636
G1 X176.569 Y27.530 E0.01679
G1 X178.597 Y29.558 E0.09011
G1 X178.597 Y30.092 E0.01679
G1 X176.035 Y27.530 E0.11386
G1 X175.500 Y27.530 E0.01679
G1 X178.597 Y30.627 E0.13760
G1 X178.597 Y31.161 E0.01679
G1 X174.966 Y27.530 E0.16135
G1 X174.432 Y27.530 E0.01679
G1 X178.597 Y31.695 E0.18510
G1 X178.597 Y32.230 E0.01679
G1 X173.897 Y27.530 E0.20884
G1 X173.363 Y27.530 E0.01679
G1 X178.597 Y32.764 E0.23259
G1 X178.597 Y33.299 E0.01679
G1 X172.828 Y27.530 E0.25634
G1 X172.294 Y27.530 E0.01679
G1 X178.597 Y33.833 E0.28008
G1 X178.597 Y34.368 E0.01679
G1 X171.760 Y27.530 E0.30383
G1 X171.225 Y27.530 E0.01679
G1 X178.597 Y34.902 E0.32758
G1 X178.597 Y35.436 E0.01679
G1 X170.691 Y27.530 E0.35132
G1 X170.156 Y27.530 E0.01679
G1 X178.597 Y35.971 E0.37507
G1 X178.597 Y36.505 E0.01679
G1 X169.622 Y27.530 E0.39882
G1 X169.088 Y27.530 E0.01679
G1 X178.597 Y37.040 E0.42256
G1 X178.597 Y37.574 E0.01679
G1 X168.553 Y27.530 E0.44631
G1 X168.019 Y27.530 E0.01679
G1 X178.597 Y38.108 E0.47006
G1 X178.597 Y38.643 E0.01679
G1 X167.484 Y27.530 E0.49381
G1 X166.950 Y27.530 E0.01679
G1 X178.597 Y39.177 E0.51755
G1 X178.597 Y39.712 E0.01679
G1 X166.416 Y27.530 E0.54130
G1 X165.881 Y27.530 E0.01679
G1 X178.597 Y40.246 E0.56505
G1 X178.597 Y40.780 E0.01679
G1 X165.347 Y27.530 E0.58879
G1 X164.812 Y27.530 E0.01679
G1 X178.597 Y41.315 E0.61254
G1 X178.597 Y41.849 E0.01679
G1 X164.278 Y27.530 E0.63629
G1 X163.743 Y27.530 E0.01679
G1 X178.597 Y42.384 E0.66003
G1 X178.597 Y42.918 E0.01679
G1 X163.209 Y27.530 E0.68378
G1 X162.675 Y27.530 E0.01679
G1 X178.597 Y43.452 E0.70753
G1 X178.597 Y43.987 E0.01679
G1 X162.140 Y27.530 E0.73127
G1 X161.606 Y27.530 E0.01679
G1 X178.597 Y44.521 E0.75502
G1 X178.597 Y45.056 E0.01679
G1 X161.071 Y27.530 E0.77877
G1 X160.537 Y27.530 E0.01679
G1 X178.597 Y45.590 E0.80251
G1 X178.597 Y46.124 E0.01679
G1 X160.003 Y27.530 E0.82626
G1 X159.468 Y27.530 E0.01679
G1 X178.597 Y46.659 E0.85001
G1 X178.597 Y47.193 E0.01679
G1 X158.934 Y27.530 E0.87376
G1 X158.399 Y27.530 E0.01679
G1 X178.597 Y47.728 E0.89750
G1 X178.597 Y48.262 E0.01679
G1 X157.865 Y27.530 E0.92125
G1 X157.331 Y27.530 E0.01679
G1 X178.597 Y48.796 E0.94500
G1 X178.597 Y49.331 E0.01679
G1 X156.796 Y27.530 E0.96874
G1 X156.262 Y27.530 E0.01679
G1 X178.597 Y49.865 E0.99249
M73 P7 R105
G1 X178.597 Y50.400 E0.01679
G1 X155.727 Y27.530 E1.01624
G1 X155.193 Y27.530 E0.01679
G1 X178.597 Y50.934 E1.03998
G1 X178.597 Y51.468 E0.01679
G1 X154.659 Y27.530 E1.06373
G1 X154.124 Y27.530 E0.01679
G1 X178.597 Y52.003 E1.08748
G1 X178.597 Y52.537 E0.01679
G1 X153.590 Y27.530 E1.11122
G1 X153.055 Y27.530 E0.01679
G1 X178.597 Y53.072 E1.13497
G1 X178.597 Y53.606 E0.01679
G1 X152.521 Y27.530 E1.15872
G1 X151.987 Y27.530 E0.01679
G1 X178.597 Y54.141 E1.18246
G1 X178.597 Y54.675 E0.01679
G1 X151.452 Y27.530 E1.20621
G1 X150.918 Y27.530 E0.01679
G1 X178.597 Y55.209 E1.22996
G1 X178.597 Y55.744 E0.01679
G1 X150.383 Y27.530 E1.25371
G1 X149.849 Y27.530 E0.01679
G1 X178.597 Y56.278 E1.27745
G1 X178.597 Y56.813 E0.01679
G1 X149.315 Y27.530 E1.30120
G1 X148.780 Y27.530 E0.01679
G1 X178.597 Y57.347 E1.32495
G1 X178.597 Y57.881 E0.01679
G1 X148.246 Y27.530 E1.34869
G1 X147.711 Y27.530 E0.01679
G1 X178.597 Y58.416 E1.37244
G1 X178.597 Y58.950 E0.01679
G1 X147.177 Y27.530 E1.39619
G1 X146.642 Y27.530 E0.01679
G1 X178.597 Y59.485 E1.41993
G1 X178.597 Y60.019 E0.01679
G1 X146.108 Y27.530 E1.44368
G1 X145.574 Y27.530 E0.01679
G1 X178.597 Y60.553 E1.46743
G1 X178.597 Y61.088 E0.01679
G1 X145.039 Y27.530 E1.49117
G1 X144.505 Y27.530 E0.01679
G1 X178.597 Y61.622 E1.51492
