;FLAVOR:RepRap
;TIME:6918
;Filament used: 3.47272m
;Layer height: 0.1
;Generated with Cura_SteamEngine 2.4.0
M190 S60
M104 S205
M109 S205
G21 ;metric values
G90 ;absolute positioning
M82 ;set extruder to absolute mode
M107 ;start with the fan off
G28 ;Home all axes (max endstops)

M0 Add PROBE
M106 S255 ;	Turn fan on 100% power, cool the probe
M117 Auto leveling...
G29   ; DAQ -- auto level
M500
G1 x0 y0
M0 Remove PROBE

G1 Z75.0 F9000 ;move the platform down 15mm
G92 E0 ;zero the extruded length
G1 F200 E3 ;extrude 3mm of feed stock
G92 E0 ;zero the extruded length again

G1 Z100 F9000
M0 CLEAN ME...

M106 S191 ;	Turn fan on 50% power

G1 F9000
M117 Printing...
;LAYER_COUNT:17
;LAYER:0
M107
G1 F1500 E-6.5
G1 Z21
G0 F3600 X-26.178 Y54.163 Z1.125
;TYPE:SKIRT
G1 Z0.125
G1 F1500 E0
G1 F1800 X-26.168 Y-54.406 E2.25689
G1 X-26.128 Y-54.956 E2.26835
G1 X-26.053 Y-55.334 E2.27636
G1 X-25.794 Y-56.362 E2.2984
G1 X-25.621 Y-56.886 E2.30987
G1 X-25.354 Y-57.412 E2.32213
G1 X-24.856 Y-58.229 E2.34202
G1 X-24.536 Y-58.677 E2.35347
G1 X-24.089 Y-59.132 E2.36673
G1 X-23.33 Y-59.785 E2.38754
G1 X-22.888 Y-60.113 E2.39898
G1 X-22.246 Y-60.439 E2.41395
G1 X-21.412 Y-60.768 E2.43259
G1 X-20.887 Y-60.932 E2.44402
G1 X-20.298 Y-61.023 E2.45641
G1 X-19.322 Y-61.095 E2.47675
G1 X-19.038 Y-61.105 E2.48266
G1 X19.847 Y-61.065 E3.29099
G1 X20.396 Y-61.024 E3.30243
G1 X21.075 Y-60.86 E3.31695
G1 X22.023 Y-60.535 E3.33778
G1 X22.53 Y-60.319 E3.34924
G1 X23.122 Y-59.941 E3.36384
G1 X23.781 Y-59.429 E3.38119
G1 X24.191 Y-59.06 E3.39265
G1 X24.536 Y-58.645 E3.40387
G1 X25.085 Y-57.881 E3.42343
G1 X25.373 Y-57.412 E3.43487
G1 X25.511 Y-57.115 E3.44168
G1 X25.77 Y-56.488 E3.45578
G1 X25.943 Y-55.965 E3.46723
G1 X26.013 Y-55.621 E3.47453
G1 X26.123 Y-54.914 E3.4894
G1 X26.168 Y-54.33 E3.50158
G1 X26.171 Y54.397 E5.76175
G1 X26.092 Y55.169 E5.77788
G1 X25.923 Y55.983 E5.79516
G1 X25.772 Y56.513 E5.80662
G1 X25.594 Y56.924 E5.81593
G1 X25.155 Y57.793 E5.83617
G1 X24.871 Y58.266 E5.84764
G1 X24.671 Y58.526 E5.85446
G1 X24.343 Y58.916 E5.86505
G1 X23.789 Y59.453 E5.88109
G1 X23.206 Y59.913 E5.89652
G1 X22.75 Y60.222 E5.90798
G1 X22.246 Y60.465 E5.91961
G1 X21.412 Y60.794 E5.93824
G1 X20.887 Y60.958 E5.94968
G1 X20.298 Y61.049 E5.96207
G1 X19.322 Y61.121 E5.98241
G1 X19.038 Y61.131 E5.98832
G1 X-19.847 Y61.091 E6.79664
G1 X-20.396 Y61.05 E6.80809
G1 X-21.082 Y60.883 E6.82276
G1 X-22.039 Y60.553 E6.84381
G1 X-22.545 Y60.337 E6.85524
G1 X-23.112 Y59.977 E6.86921
G1 X-23.733 Y59.501 E6.88547
G1 X-24.145 Y59.135 E6.89693
G1 X-24.495 Y58.72 E6.90821
G1 X-25.073 Y57.925 E6.92864
G1 X-25.363 Y57.457 E6.94009
G1 X-25.585 Y56.946 E6.95167
G1 X-25.874 Y56.121 E6.96984
G1 X-26.057 Y55.348 E6.98636
G1 X-26.147 Y54.646 E7.00107
G1 X-26.178 Y54.163 E7.01113
G0 F3600 X-25.778 Y54.163
G1 F1800 X-25.768 Y-54.406 E9.26802
G1 X-25.728 Y-54.926 E9.27886
G1 X-25.665 Y-55.237 E9.28545
G1 X-25.406 Y-56.265 E9.30749
G1 X-25.24 Y-56.759 E9.31832
G1 X-25.012 Y-57.204 E9.32872
G1 X-24.514 Y-58.021 E9.34861
G1 X-24.21 Y-58.444 E9.35944
G1 X-23.828 Y-58.828 E9.3707
G1 X-23.069 Y-59.481 E9.39151
G1 X-22.649 Y-59.79 E9.40235
G1 X-22.1 Y-60.067 E9.41513
G1 X-21.266 Y-60.396 E9.43377
G1 X-20.768 Y-60.549 E9.4446
G1 X-20.268 Y-60.624 E9.45511
G1 X-19.292 Y-60.696 E9.47545
G1 X-19.039 Y-60.705 E9.48071
G1 X19.846 Y-60.665 E10.28904
G1 X20.366 Y-60.625 E10.29988
G1 X20.946 Y-60.481 E10.3123
G1 X21.894 Y-60.156 E10.33314
G1 X22.372 Y-59.95 E10.34396
G1 X22.877 Y-59.625 E10.35644
G1 X23.536 Y-59.113 E10.37379
G1 X23.922 Y-58.763 E10.38462
G1 X24.211 Y-58.412 E10.39407
G1 X24.76 Y-57.648 E10.41363
G1 X25.031 Y-57.203 E10.42446
G1 X25.141 Y-56.962 E10.42997
G1 X25.4 Y-56.335 E10.44407
G1 X25.562 Y-55.84 E10.4549
G1 X25.618 Y-55.56 E10.46083
G1 X25.728 Y-54.853 E10.4757
G1 X25.768 Y-54.33 E10.48661
G1 X25.771 Y54.397 E12.74678
G1 X25.7 Y55.088 E12.76122
G1 X25.531 Y55.902 E12.7785
G1 X25.386 Y56.403 E12.78934
G1 X25.237 Y56.744 E12.79708
G1 X24.798 Y57.613 E12.81732
G1 X24.528 Y58.059 E12.82816
G1 X24.365 Y58.268 E12.83367
G1 X24.037 Y58.658 E12.84426
G1 X23.541 Y59.139 E12.85862
G1 X22.958 Y59.599 E12.87406
G1 X22.525 Y59.89 E12.8849
G1 X22.1 Y60.093 E12.89469
G1 X21.266 Y60.422 E12.91333
G1 X20.768 Y60.575 E12.92416
G1 X20.268 Y60.65 E12.93467
G1 X19.292 Y60.722 E12.95502
G1 X19.039 Y60.731 E12.96028
G1 X-19.846 Y60.691 E13.7686
G1 X-20.366 Y60.651 E13.77944
G1 X-20.951 Y60.505 E13.79198
G1 X-21.908 Y60.175 E13.81302
G1 X-22.387 Y59.968 E13.82387
G1 X-22.868 Y59.659 E13.83575
G1 X-23.489 Y59.183 E13.85202
G1 X-23.878 Y58.836 E13.86285
G1 X-24.171 Y58.484 E13.87237
G1 X-24.749 Y57.689 E13.89281
G1 X-25.022 Y57.246 E13.90362
G1 X-25.208 Y56.814 E13.9134
G1 X-25.497 Y55.989 E13.93157
G1 X-25.66 Y55.297 E13.94635
G1 X-25.75 Y54.595 E13.96106
G1 X-25.778 Y54.163 E13.97006
G0 F3600 X-25.378 Y54.163
G1 F1800 X-25.368 Y-54.406 E16.22695
G1 X-25.328 Y-54.894 E16.23713
G1 X-25.277 Y-55.139 E16.24233
G1 X-25.018 Y-56.167 E16.26437
G1 X-24.86 Y-56.63 E16.27454
G1 X-24.671 Y-56.995 E16.28308
G1 X-24.173 Y-57.812 E16.30297
G1 X-23.885 Y-58.208 E16.31315
G1 X-23.568 Y-58.525 E16.32247
G1 X-22.809 Y-59.178 E16.34328
G1 X-22.413 Y-59.466 E16.35346
G1 X-21.953 Y-59.695 E16.36414
G1 X-21.119 Y-60.024 E16.38278
G1 X-20.65 Y-60.166 E16.39297
G1 X-20.239 Y-60.225 E16.4016
G1 X-19.263 Y-60.297 E16.42194
G1 X-19.039 Y-60.305 E16.4266
G1 X19.846 Y-60.265 E17.23493
G1 X20.334 Y-60.225 E17.24511
G1 X20.816 Y-60.103 E17.25544
G1 X21.764 Y-59.778 E17.27627
G1 X22.212 Y-59.582 E17.28644
G1 X22.632 Y-59.309 E17.29685
G1 X23.291 Y-58.797 E17.3142
G1 X23.651 Y-58.466 E17.32437
G1 X23.886 Y-58.179 E17.33208
G1 X24.435 Y-57.415 E17.35163
G1 X24.772 Y-56.809 E17.36605
G1 X25.031 Y-56.182 E17.38015
G1 X25.222 Y-55.498 E17.39491
G1 X25.332 Y-54.791 E17.40979
G1 X25.368 Y-54.33 E17.4194
G1 X25.371 Y54.397 E19.67957
G1 X25.308 Y55.007 E19.69232
G1 X25.139 Y55.821 E19.7096
G1 X25.001 Y56.29 E19.71976
G1 X24.88 Y56.564 E19.72599
G1 X24.441 Y57.433 E19.74623
G1 X24.059 Y58.011 E19.76063
G1 X23.731 Y58.401 E19.77122
G1 X23.293 Y58.825 E19.7839
G1 X22.71 Y59.285 E19.79933
G1 X22.303 Y59.556 E19.8095
G1 X21.953 Y59.721 E19.81754
G1 X21.119 Y60.05 E19.83618
G1 X20.65 Y60.192 E19.84636
G1 X20.239 Y60.251 E19.855
G1 X19.263 Y60.323 E19.87534
G1 X19.039 Y60.331 E19.88
G1 X-19.846 Y60.291 E20.68832
G1 X-20.334 Y60.251 E20.6985
G1 X-20.821 Y60.127 E20.70895
G1 X-21.778 Y59.797 E20.72999
G1 X-22.226 Y59.6 E20.74017
G1 X-22.625 Y59.342 E20.75004
G1 X-23.246 Y58.866 E20.76631
G1 X-23.609 Y58.538 E20.77648
G1 X-23.847 Y58.249 E20.78426
G1 X-24.425 Y57.454 E20.80469
G1 X-24.68 Y57.036 E20.81487
G1 X-24.83 Y56.682 E20.82286
G1 X-25.119 Y55.857 E20.84104
G1 X-25.264 Y55.246 E20.85409
G1 X-25.354 Y54.544 E20.8688
G1 X-25.378 Y54.163 E20.87674
G0 F3600 X-24.978 Y54.163
G1 F1800 X-24.968 Y-54.406 E23.13362
G1 X-24.889 Y-55.041 E23.14693
G1 X-24.63 Y-56.069 E23.16896
G1 X-24.481 Y-56.5 E23.17844
G1 X-24.329 Y-56.787 E23.18519
G1 X-23.831 Y-57.604 E23.20508
G1 X-23.561 Y-57.971 E23.21456
G1 X-23.307 Y-58.222 E23.22198
G1 X-22.548 Y-58.875 E23.24279
G1 X-22.178 Y-59.141 E23.25227
G1 X-21.806 Y-59.323 E23.26087
G1 X-20.972 Y-59.652 E23.27951
G1 X-20.535 Y-59.781 E23.28898
G1 X-20.209 Y-59.826 E23.29582
G1 X-19.233 Y-59.898 E23.31617
G1 X-19.039 Y-59.905 E23.3202
G1 X19.846 Y-59.865 E24.12853
G1 X20.3 Y-59.825 E24.138
G1 X20.686 Y-59.724 E24.1463
G1 X21.634 Y-59.399 E24.16713
G1 X22.051 Y-59.215 E24.1766
G1 X22.386 Y-58.993 E24.18496
G1 X23.045 Y-58.481 E24.20231
G1 X23.379 Y-58.171 E24.21178
G1 X23.561 Y-57.945 E24.21781
G1 X24.11 Y-57.181 E24.23737
G1 X24.402 Y-56.657 E24.24984
G1 X24.661 Y-56.03 E24.26394
G1 X24.827 Y-55.437 E24.27674
G1 X24.937 Y-54.73 E24.29161
G1 X24.968 Y-54.33 E24.29995
G1 X24.971 Y54.397 E26.56013
G1 X24.917 Y54.926 E26.57118
G1 X24.748 Y55.74 E26.58846
G1 X24.523 Y56.383 E26.60262
G1 X24.084 Y57.252 E26.62286
G1 X23.753 Y57.753 E26.63534
G1 X23.425 Y58.143 E26.64594
G1 X23.046 Y58.511 E26.65692
G1 X22.463 Y58.971 E26.67236
G1 X22.081 Y59.221 E26.68185
G1 X21.806 Y59.349 E26.68815
G1 X20.972 Y59.678 E26.70679
G1 X20.535 Y59.807 E26.71626
G1 X20.209 Y59.852 E26.7231
G1 X19.233 Y59.924 E26.74344
G1 X19.039 Y59.931 E26.74748
G1 X-19.846 Y59.891 E27.55581
G1 X-20.3 Y59.851 E27.56528
G1 X-20.691 Y59.749 E27.57368
G1 X-21.648 Y59.419 E27.59472
G1 X-22.064 Y59.233 E27.6042
G1 X-22.382 Y59.025 E27.61209
G1 X-23.003 Y58.549 E27.62836
G1 X-23.339 Y58.241 E27.63784
G1 X-23.524 Y58.014 E27.64392
G1 X-24.102 Y57.219 E27.66435
G1 X-24.337 Y56.828 E27.67384
G1 X-24.453 Y56.55 E27.6801
G1 X-24.742 Y55.725 E27.69827
G1 X-24.867 Y55.196 E27.70957
G1 X-24.957 Y54.494 E27.72428
G1 X-24.978 Y54.163 E27.73118
G0 F3600 X-24.578 Y54.163
G1 F1800 X-24.568 Y-54.406 E29.98806
G1 X-24.501 Y-54.943 E29.99931
G1 X-24.242 Y-55.971 E30.02135
G1 X-24.102 Y-56.366 E30.03006
G1 X-23.988 Y-56.579 E30.03509
G1 X-23.49 Y-57.396 E30.05498
G1 X-23.238 Y-57.731 E30.06369
G1 X-23.046 Y-57.919 E30.06928
G1 X-22.287 Y-58.572 E30.09009
G1 X-21.945 Y-58.814 E30.0988
G1 X-21.659 Y-58.951 E30.10539
G1 X-20.825 Y-59.28 E30.12403
G1 X-20.423 Y-59.395 E30.13272
G1 X-20.18 Y-59.427 E30.13781
G1 X-19.204 Y-59.499 E30.15816
G1 X-19.04 Y-59.505 E30.16157
G1 X19.845 Y-59.465 E30.96989
G1 X20.262 Y-59.425 E30.9786
G1 X20.556 Y-59.346 E30.98493
G1 X21.504 Y-59.021 E31.00576
G1 X21.886 Y-58.848 E31.01448
G1 X22.141 Y-58.677 E31.02086
G1 X22.8 Y-58.165 E31.03821
G1 X23.105 Y-57.878 E31.04692
G1 X23.237 Y-57.712 E31.05133
G1 X23.786 Y-56.948 E31.07088
G1 X24.032 Y-56.504 E31.08143
G1 X24.291 Y-55.877 E31.09554
G1 X24.432 Y-55.375 E31.10638
G1 X24.542 Y-54.668 E31.12125
G1 X24.568 Y-54.33 E31.1283
G1 X24.571 Y54.397 E33.38847
G1 X24.525 Y54.844 E33.39781
G1 X24.356 Y55.658 E33.41509
G1 X24.166 Y56.203 E33.42709
G1 X23.727 Y57.072 E33.44733
G1 X23.447 Y57.496 E33.45789
G1 X23.119 Y57.886 E33.46848
G1 X22.798 Y58.197 E33.47777
G1 X22.215 Y58.657 E33.49321
G1 X21.863 Y58.884 E33.50192
G1 X21.659 Y58.977 E33.50658
G1 X20.825 Y59.306 E33.52522
G1 X20.423 Y59.421 E33.53391
G1 X20.18 Y59.453 E33.539
G1 X19.204 Y59.525 E33.55935
G1 X19.04 Y59.531 E33.56276
G1 X-19.845 Y59.491 E34.37108
G1 X-20.262 Y59.451 E34.37979
G1 X-20.56 Y59.371 E34.38621
G1 X-21.517 Y59.041 E34.40725
G1 X-21.899 Y58.867 E34.41597
G1 X-22.138 Y58.707 E34.42195
G1 X-22.759 Y58.231 E34.43822
G1 X-23.066 Y57.946 E34.44693
G1 X-23.2 Y57.779 E34.45138
G1 X-23.778 Y56.984 E34.47181
G1 X-23.991 Y56.623 E34.48052
G1 X-24.075 Y56.417 E34.48515
G1 X-24.364 Y55.592 E34.50332
G1 X-24.47 Y55.145 E34.51287
G1 X-24.56 Y54.443 E34.52758
G1 X-24.578 Y54.163 E34.53341
G1 F1500 E28.03341
G1 Z1.125
G0 F3600 X-21.794 Y54.072 Z1.125
;TYPE:WALL-INNER
G1 Z0.125
G1 F1500 E34.53341
G1 F1800 X-21.794 Y-54.04 E36.7808
G1 X-21.785 Y-54.293 E36.78606
G1 X-21.76 Y-54.506 E36.79052
G1 X-21.718 Y-54.73 E36.79526
G1 X-21.668 Y-54.916 E36.79926
G1 X-21.586 Y-55.151 E36.80444
G1 X-21.502 Y-55.338 E36.8087
G1 X-21.395 Y-55.536 E36.81338
G1 X-21.284 Y-55.709 E36.81765
G1 X-21.162 Y-55.867 E36.8218
G1 X-21.014 Y-56.031 E36.82639
G1 X-20.872 Y-56.164 E36.83044
G1 X-20.711 Y-56.292 E36.83471
G1 X-20.545 Y-56.401 E36.83884
G1 X-20.378 Y-56.491 E36.84278
G1 X-20.2 Y-56.568 E36.84681
G1 X-20.017 Y-56.628 E36.85082
G1 X-19.829 Y-56.672 E36.85483
G1 X-19.663 Y-56.694 E36.85831
G1 X-19.432 Y-56.705 E36.86312
G1 X19.434 Y-56.704 E37.67105
G1 X19.647 Y-56.695 E37.67548
G1 X19.818 Y-56.672 E37.67907
G1 X19.995 Y-56.633 E37.68284
G1 X20.168 Y-56.579 E37.6866
G1 X20.346 Y-56.506 E37.6906
G1 X20.495 Y-56.429 E37.69409
G1 X20.674 Y-56.317 E37.69848
G1 X20.812 Y-56.215 E37.70205
G1 X20.954 Y-56.09 E37.70598
G1 X21.094 Y-55.945 E37.71017
G1 X21.226 Y-55.785 E37.71448
G1 X21.348 Y-55.612 E37.71888
G1 X21.447 Y-55.444 E37.72293
G1 X21.54 Y-55.259 E37.72724
G1 X21.687 Y-54.878 E37.73573
G1 X21.733 Y-54.662 E37.74032
G1 X21.765 Y-54.474 E37.74428
G1 X21.786 Y-54.262 E37.74871
G1 X21.794 Y-54.06 E37.75291
G1 X21.794 Y54.066 E40.00059
G1 X21.785 Y54.313 E40.00573
G1 X21.76 Y54.535 E40.01037
G1 X21.721 Y54.745 E40.01481
G1 X21.664 Y54.955 E40.01934
G1 X21.589 Y55.168 E40.02403
G1 X21.498 Y55.371 E40.02866
G1 X21.403 Y55.55 E40.03287
G1 X21.28 Y55.739 E40.03756
G1 X21.162 Y55.893 E40.04159
G1 X21.014 Y56.057 E40.04618
G1 X20.872 Y56.19 E40.05023
G1 X20.711 Y56.318 E40.0545
G1 X20.545 Y56.427 E40.05863
G1 X20.378 Y56.517 E40.06257
G1 X20.2 Y56.594 E40.0666
G1 X20.017 Y56.654 E40.07061
G1 X19.829 Y56.698 E40.07462
G1 X19.663 Y56.72 E40.0781
G1 X19.432 Y56.731 E40.08291
G1 X-19.434 Y56.73 E40.89084
G1 X-19.647 Y56.721 E40.89527
G1 X-19.818 Y56.698 E40.89886
G1 X-19.995 Y56.659 E40.90263
G1 X-20.168 Y56.605 E40.90639
G1 X-20.346 Y56.532 E40.91039
G1 X-20.495 Y56.455 E40.91388
G1 X-20.667 Y56.347 E40.9181
G1 X-20.812 Y56.24 E40.92185
G1 X-20.96 Y56.109 E40.92596
G1 X-21.096 Y55.969 E40.93001
G1 X-21.228 Y55.809 E40.93433
G1 X-21.345 Y55.642 E40.93856
G1 X-21.447 Y55.47 E40.94272
G1 X-21.541 Y55.282 E40.94709
G1 X-21.613 Y55.102 E40.95112
G1 X-21.694 Y54.846 E40.9567
G1 X-21.733 Y54.683 E40.96019
G1 X-21.768 Y54.472 E40.96463
G1 X-21.786 Y54.284 E40.96856
G1 X-21.794 Y54.072 E40.97297
G0 F3600 X-21.695 Y54.071
G0 X-1.308 Y-30.214
G0 X-1.282 Y-30.31
G1 F1800 X-.942 Y-30.229 E40.98023
G1 X-.595 Y-30.174 E40.98754
G1 X-.247 Y-30.143 E40.9948
G1 X0.102 Y-30.139 E41.00206
G1 X0.452 Y-30.158 E41.00934
G1 X0.798 Y-30.204 E41.0166
G1 X1.141 Y-30.273 E41.02387
G1 X1.479 Y-30.367 E41.03116
G1 X1.81 Y-30.487 E41.03848
G1 X2.129 Y-30.628 E41.04573
G1 X2.439 Y-30.794 E41.05304
G1 X2.735 Y-30.982 E41.06033
G1 X3.016 Y-31.189 E41.06759
G1 X3.281 Y-31.416 E41.07484
G1 X3.531 Y-31.662 E41.08213
G1 X3.762 Y-31.926 E41.08942
G1 X3.973 Y-32.206 E41.09671
G1 X4.162 Y-32.499 E41.10396
G1 X4.332 Y-32.805 E41.11124
G1 X4.479 Y-33.125 E41.11856
G1 X4.601 Y-33.454 E41.12585
G1 X4.699 Y-33.789 E41.13311
G1 X4.773 Y-34.13 E41.14036
G1 X4.823 Y-34.477 E41.14765
G1 X4.847 Y-34.826 E41.15492
G1 X4.846 Y-35.177 E41.16222
G1 X4.82 Y-35.526 E41.16949
G1 X4.767 Y-35.873 E41.17679
G1 X4.691 Y-36.216 E41.18409
G1 X4.59 Y-36.549 E41.19132
G1 X4.466 Y-36.876 E41.19859
G1 X4.319 Y-37.194 E41.20588
G1 X4.147 Y-37.501 E41.21319
G1 X3.955 Y-37.793 E41.22046
G1 X3.743 Y-38.07 E41.22771
G1 X3.511 Y-38.333 E41.235
G1 X3.259 Y-38.579 E41.24232
G1 X2.991 Y-38.804 E41.24959
G1 X2.71 Y-39.009 E41.25682
G1 X2.411 Y-39.195 E41.26414
G1 X2.102 Y-39.357 E41.2714
G1 X1.783 Y-39.497 E41.27864
G1 X1.451 Y-39.615 E41.28596
G1 X1.113 Y-39.707 E41.29324
G1 X0.77 Y-39.776 E41.30052
G1 X0.421 Y-39.819 E41.30783
G1 X0.072 Y-39.836 E41.31509
G1 X-.277 Y-39.83 E41.32235
G1 X-.626 Y-39.796 E41.32964
G1 X-.971 Y-39.738 E41.33691
G1 X-1.313 Y-39.656 E41.34422
G1 X-1.645 Y-39.548 E41.35148
G1 X-1.969 Y-39.419 E41.35873
G1 X-2.284 Y-39.265 E41.36601
G1 X-2.588 Y-39.089 E41.37332
G1 X-2.876 Y-38.891 E41.38058
G1 X-3.151 Y-38.673 E41.38788
G1 X-3.409 Y-38.435 E41.39517
G1 X-3.647 Y-38.182 E41.40239
G1 X-3.869 Y-37.911 E41.40968
G1 X-4.071 Y-37.623 E41.41699
G1 X-4.25 Y-37.321 E41.42429
G1 X-4.408 Y-37.009 E41.43156
G1 X-4.542 Y-36.686 E41.43883
G1 X-4.652 Y-36.354 E41.4461
G1 X-4.739 Y-36.014 E41.45339
G1 X-4.8 Y-35.671 E41.46063
G1 X-4.838 Y-35.322 E41.46793
G1 X-4.849 Y-34.972 E41.47521
G1 X-4.836 Y-34.622 E41.48249
G1 X-4.797 Y-34.274 E41.48977
G1 X-4.733 Y-33.929 E41.49706
G1 X-4.644 Y-33.589 E41.50437
G1 X-4.531 Y-33.259 E41.51162
G1 X-4.395 Y-32.936 E41.51891
G1 X-4.235 Y-32.625 E41.52618
G1 X-4.054 Y-32.326 E41.53344
G1 X-3.852 Y-32.04 E41.54072
G1 X-3.628 Y-31.768 E41.54805
G1 X-3.386 Y-31.516 E41.55531
G1 X-3.128 Y-31.281 E41.56256
G1 X-2.853 Y-31.066 E41.56982
G1 X-2.563 Y-30.868 E41.57712
G1 X-2.257 Y-30.694 E41.58444
G1 X-1.943 Y-30.543 E41.59168
G1 X-1.616 Y-30.414 E41.59899
G1 X-1.282 Y-30.31 E41.60626
G0 F3600 X-1.177 Y-30.696
;TYPE:WALL-OUTER
G1 F1800 X-.864 Y-30.622 E41.61294
G1 X-.546 Y-30.571 E41.61964
G1 X-.227 Y-30.543 E41.6263
G1 X0.093 Y-30.539 E41.63295
G1 X0.415 Y-30.557 E41.63965
G1 X0.733 Y-30.599 E41.64632
G1 X1.048 Y-30.662 E41.653
G1 X1.357 Y-30.748 E41.65967
G1 X1.66 Y-30.858 E41.66637
