;FLAVOR:RepRap
;TIME:5125
;Filament used: 3.82419m
;Layer height: 0.15
;Generated with Cura_SteamEngine 2.4.0
M190 S85
M104 S230
M109 S230
G21 ;metric values
G90 ;absolute positioning
M82 ;set extruder to absolute mode
M107 ;start with the fan off
G28 ;Home all axes (max endstops)

M0 Add PROBE
M106 S255 ;	Turn fan on 100% power, cool the probe
M117 Auto leveling...
G29   ; DAQ -- auto level
M500
G1 x0 y0
M0 Remove PROBE

G1 Z75.0 F9000 ;move the platform down 15mm
G92 E0 ;zero the extruded length
G1 F200 E3 ;extrude 3mm of feed stock
G92 E0 ;zero the extruded length again

G1 Z100 F9000
M0 CLEAN ME...

M106 S191 ;	Turn fan on 50% power

G1 F9000
M117 Printing...
;LAYER_COUNT:12
;LAYER:0
M107
G1 F1500 E-6.5
G1 Z21
G0 F3600 X26.194 Y53.16 Z1.17
;TYPE:SKIRT
G1 Z0.17
G1 F1500 E0
G1 F1800 X26.191 Y53.315 E0.00438
G1 X26.129 Y54.851 E0.04784
G1 X26.067 Y55.399 E0.06343
G1 X25.934 Y55.909 E0.07833
G1 X25.598 Y56.908 E0.10813
G1 X25.385 Y57.417 E0.12373
G1 X25.165 Y57.795 E0.1361
G1 X24.787 Y58.366 E0.15546
G1 X24.45 Y58.802 E0.17103
G1 X24.103 Y59.143 E0.18479
G1 X23.337 Y59.805 E0.21341
G1 X22.895 Y60.134 E0.22899
G1 X22.246 Y60.465 E0.24958
G1 X21.412 Y60.794 E0.27493
G1 X20.887 Y60.958 E0.29048
G1 X20.298 Y61.049 E0.30733
G1 X19.322 Y61.121 E0.335
G1 X19.038 Y61.131 E0.34303
G1 X-19.872 Y61.088 E1.44306
G1 X-20.422 Y61.047 E1.45865
G1 X-20.844 Y60.961 E1.47083
G1 X-21.401 Y60.813 E1.48712
G1 X-21.922 Y60.633 E1.50271
G1 X-22.384 Y60.396 E1.51739
G1 X-23.205 Y59.902 E1.54447
G1 X-23.655 Y59.584 E1.56005
G1 X-24.121 Y59.13 E1.57845
G1 X-24.731 Y58.424 E1.60482
G1 X-25.06 Y57.982 E1.6204
G1 X-25.2 Y57.744 E1.62821
G1 X-25.419 Y57.338 E1.64125
G1 X-25.708 Y56.649 E1.66237
G1 X-25.963 Y55.818 E1.68695
G1 X-26.086 Y55.281 E1.70252
G1 X-26.127 Y54.864 E1.71437
G1 X-26.191 Y53.359 E1.75695
G1 X-26.194 Y53.196 E1.76156
G1 X-26.144 Y-54.596 E4.80896
G1 X-26.104 Y-55.145 E4.82452
G1 X-25.977 Y-55.709 E4.84087
G1 X-25.675 Y-56.693 E4.86997
G1 X-25.475 Y-57.207 E4.88556
G1 X-25.154 Y-57.759 E4.90361
G1 X-24.545 Y-58.628 E4.93361
G1 X-24.197 Y-59.055 E4.94919
G1 X-23.729 Y-59.475 E4.96696
G1 X-23.055 Y-59.986 E4.99088
G1 X-22.593 Y-60.286 E5.00645
G1 X-22.081 Y-60.521 E5.02238
G1 X-21.34 Y-60.796 E5.04472
G1 X-20.811 Y-60.949 E5.06029
G1 X-20.298 Y-61.023 E5.07494
G1 X-19.322 Y-61.095 E5.10261
G1 X-19.038 Y-61.105 E5.11064
G1 X19.872 Y-61.062 E6.21067
G1 X20.422 Y-61.021 E6.22627
G1 X20.844 Y-60.935 E6.23844
G1 X21.401 Y-60.787 E6.25473
G1 X21.922 Y-60.607 E6.27032
G1 X22.384 Y-60.37 E6.285
G1 X23.205 Y-59.876 E6.31209
G1 X23.655 Y-59.558 E6.32766
G1 X24.038 Y-59.197 E6.34254
G1 X24.53 Y-58.664 E6.36305
G1 X24.874 Y-58.234 E6.37862
G1 X25.139 Y-57.781 E6.39346
G1 X25.653 Y-56.749 E6.42605
G1 X25.863 Y-56.239 E6.44164
G1 X25.976 Y-55.813 E6.4541
G1 X26.056 Y-55.42 E6.46544
G1 X26.132 Y-54.664 E6.48692
G1 X26.194 Y53.16 E9.53523
G0 F3600 X25.791 Y53.299
G1 F1800 X25.729 Y54.835 E9.57869
G1 X25.668 Y55.353 E9.59343
G1 X25.555 Y55.782 E9.60597
G1 X25.219 Y56.781 E9.63577
G1 X25.015 Y57.261 E9.65052
G1 X24.831 Y57.574 E9.66078
G1 X24.453 Y58.145 E9.68014
G1 X24.133 Y58.556 E9.69487
G1 X23.841 Y58.84 E9.70638
G1 X23.075 Y59.502 E9.735
G1 X22.656 Y59.812 E9.74974
G1 X22.1 Y60.093 E9.76735
G1 X21.266 Y60.422 E9.7927
G1 X20.768 Y60.575 E9.80743
G1 X20.268 Y60.65 E9.82172
G1 X19.292 Y60.722 E9.84939
G1 X19.038 Y60.731 E9.85657
G1 X-19.872 Y60.688 E10.9566
G1 X-20.391 Y60.647 E10.97132
G1 X-20.741 Y60.574 E10.98143
G1 X-21.298 Y60.426 E10.99772
G1 X-21.79 Y60.254 E11.01246
G1 X-22.178 Y60.053 E11.02481
G1 X-22.999 Y59.559 E11.0519
G1 X-23.424 Y59.257 E11.06664
G1 X-23.819 Y58.869 E11.08229
G1 X-24.429 Y58.163 E11.10867
G1 X-24.848 Y57.554 E11.12957
G1 X-25.067 Y57.148 E11.14261
G1 X-25.325 Y56.531 E11.16152
G1 X-25.58 Y55.7 E11.18609
G1 X-25.695 Y55.192 E11.20082
G1 X-25.727 Y54.847 E11.21061
G1 X-25.791 Y53.342 E11.2532
G1 X-25.794 Y53.196 E11.25733
G1 X-25.744 Y-54.596 E14.30473
G1 X-25.704 Y-55.115 E14.31944
G1 X-25.594 Y-55.592 E14.33328
G1 X-25.292 Y-56.576 E14.36238
G1 X-25.102 Y-57.061 E14.37711
G1 X-24.826 Y-57.529 E14.39247
G1 X-24.217 Y-58.398 E14.42247
G1 X-23.886 Y-58.801 E14.43721
G1 X-23.487 Y-59.156 E14.45231
G1 X-22.813 Y-59.667 E14.47622
G1 X-22.375 Y-59.949 E14.49095
G1 X-21.942 Y-60.146 E14.5044
G1 X-21.201 Y-60.421 E14.52674
G1 X-20.7 Y-60.564 E14.54147
G1 X-20.268 Y-60.624 E14.5538
G1 X-19.292 Y-60.696 E14.58147
G1 X-19.038 Y-60.705 E14.58866
G1 X19.872 Y-60.662 E15.68869
G1 X20.391 Y-60.621 E15.70341
G1 X20.741 Y-60.548 E15.71351
G1 X21.298 Y-60.4 E15.72981
G1 X21.79 Y-60.228 E15.74454
G1 X22.178 Y-60.027 E15.7569
G1 X22.999 Y-59.533 E15.78398
G1 X23.424 Y-59.231 E15.79872
G1 X23.744 Y-58.926 E15.81122
G1 X24.236 Y-58.393 E15.83173
G1 X24.559 Y-57.984 E15.84646
G1 X24.781 Y-57.603 E15.85893
G1 X25.295 Y-56.571 E15.89152
G1 X25.491 Y-56.088 E15.90626
G1 X25.584 Y-55.733 E15.91663
G1 X25.664 Y-55.34 E15.92797
G1 X25.732 Y-54.664 E15.94718
G1 X25.794 Y53.16 E18.99549
G1 X25.791 Y53.299 E18.99942
G0 F3600 X25.394 Y53.16
G1 F1800 X25.392 Y53.283 E19.00289
G1 X25.33 Y54.819 E19.04635
G1 X25.27 Y55.305 E19.0602
G1 X25.175 Y55.654 E19.07042
G1 X24.839 Y56.653 E19.10022
G1 X24.646 Y57.103 E19.11406
G1 X24.498 Y57.353 E19.12228
G1 X24.12 Y57.924 E19.14164
G1 X23.817 Y58.309 E19.15549
G1 X23.58 Y58.538 E19.1648
G1 X22.814 Y59.2 E19.19343
G1 X22.418 Y59.489 E19.20729
G1 X21.953 Y59.721 E19.22198
G1 X21.119 Y60.05 E19.24732
G1 X20.65 Y60.192 E19.26118
G1 X20.239 Y60.251 E19.27292
G1 X19.263 Y60.323 E19.30058
G1 X19.039 Y60.331 E19.30692
G1 X-19.871 Y60.288 E20.40695
G1 X-20.359 Y60.248 E20.42079
G1 X-20.638 Y60.187 E20.42887
G1 X-21.195 Y60.039 E20.44516
G1 X-21.657 Y59.876 E20.45901
G1 X-21.972 Y59.711 E20.46906
G1 X-22.793 Y59.217 E20.49615
G1 X-23.19 Y58.931 E20.50999
G1 X-23.516 Y58.607 E20.52298
G1 X-24.126 Y57.901 E20.54936
G1 X-24.496 Y57.364 E20.56779
G1 X-24.715 Y56.958 E20.58083
G1 X-24.943 Y56.414 E20.59751
G1 X-25.198 Y55.583 E20.62208
G1 X-25.303 Y55.105 E20.63592
G1 X-25.327 Y54.83 E20.64372
G1 X-25.391 Y53.325 E20.68631
G1 X-25.394 Y53.197 E20.68993
G1 X-25.344 Y-54.595 E23.73733
G1 X-25.304 Y-55.083 E23.75117
G1 X-25.212 Y-55.474 E23.76253
G1 X-24.91 Y-56.458 E23.79163
G1 X-24.729 Y-56.913 E23.80547
G1 X-24.499 Y-57.3 E23.8182
G1 X-23.89 Y-58.169 E23.8482
G1 X-23.577 Y-58.545 E23.86203
G1 X-23.245 Y-58.838 E23.87455
G1 X-22.571 Y-59.349 E23.89846
G1 X-22.159 Y-59.612 E23.91228
G1 X-21.803 Y-59.771 E23.9233
G1 X-21.062 Y-60.046 E23.94565
G1 X-20.591 Y-60.178 E23.95948
G1 X-20.239 Y-60.225 E23.96952
G1 X-19.263 Y-60.297 E23.99718
G1 X-19.039 Y-60.305 E24.00352
G1 X19.871 Y-60.262 E25.10355
G1 X20.359 Y-60.222 E25.11739
G1 X20.638 Y-60.161 E25.12547
G1 X21.195 Y-60.013 E25.14176
G1 X21.657 Y-59.85 E25.15561
G1 X21.972 Y-59.685 E25.16566
G1 X22.793 Y-59.191 E25.19275
G1 X23.19 Y-58.905 E25.20659
G1 X23.45 Y-58.655 E25.21678
G1 X23.942 Y-58.122 E25.23729
G1 X24.244 Y-57.736 E25.25114
G1 X24.423 Y-57.424 E25.26131
G1 X24.937 Y-56.392 E25.29391
G1 X25.119 Y-55.938 E25.30774
G1 X25.192 Y-55.653 E25.31605
G1 X25.272 Y-55.26 E25.32739
G1 X25.332 Y-54.664 E25.34433
G1 X25.394 Y53.16 E28.39263
G0 F3600 X24.994 Y53.161
G1 F1800 X24.992 Y53.267 E28.39563
G1 X24.93 Y54.803 E28.43909
G1 X24.872 Y55.255 E28.45197
G1 X24.796 Y55.527 E28.45996
G1 X24.46 Y56.526 E28.48975
G1 X24.164 Y57.132 E28.50882
G1 X23.786 Y57.703 E28.52818
G1 X23.502 Y58.06 E28.54108
G1 X23.318 Y58.235 E28.54826
G1 X22.552 Y58.897 E28.57688
G1 X22.183 Y59.164 E28.58976
G1 X21.806 Y59.349 E28.60163
G1 X20.972 Y59.678 E28.62697
G1 X20.535 Y59.807 E28.63986
G1 X20.209 Y59.852 E28.64916
G1 X19.233 Y59.924 E28.67683
G1 X19.039 Y59.931 E28.68231
G1 X-19.871 Y59.888 E29.78234
G1 X-20.536 Y59.801 E29.80131
G1 X-21.093 Y59.653 E29.8176
G1 X-21.521 Y59.498 E29.83047
G1 X-21.765 Y59.368 E29.83828
G1 X-22.586 Y58.874 E29.86537
G1 X-22.955 Y58.606 E29.87827
G1 X-23.213 Y58.346 E29.88862
G1 X-23.823 Y57.64 E29.915
G1 X-24.144 Y57.174 E29.931
G1 X-24.363 Y56.768 E29.94404
G1 X-24.561 Y56.297 E29.95848
G1 X-24.816 Y55.466 E29.98306
G1 X-24.928 Y54.813 E30.00179
G1 X-24.992 Y53.308 E30.04437
G1 X-24.994 Y53.197 E30.04751
G1 X-24.944 Y-54.595 E33.09491
G1 X-24.904 Y-55.049 E33.1078
G1 X-24.83 Y-55.357 E33.11675
G1 X-24.528 Y-56.341 E33.14585
G1 X-24.356 Y-56.763 E33.15874
G1 X-24.171 Y-57.07 E33.16887
G1 X-23.562 Y-57.939 E33.19887
G1 X-23.269 Y-58.288 E33.21175
G1 X-23.004 Y-58.519 E33.22169
G1 X-22.33 Y-59.03 E33.2456
G1 X-21.944 Y-59.272 E33.25848
G1 X-21.664 Y-59.396 E33.26714
G1 X-20.923 Y-59.671 E33.28948
G1 X-20.483 Y-59.791 E33.30238
G1 X-20.209 Y-59.826 E33.31019
G1 X-19.233 Y-59.898 E33.33785
G1 X-19.039 Y-59.905 E33.34334
G1 X19.871 Y-59.862 E34.44337
G1 X20.536 Y-59.775 E34.46233
G1 X21.093 Y-59.627 E34.47863
G1 X21.521 Y-59.472 E34.4915
G1 X21.765 Y-59.342 E34.49931
G1 X22.586 Y-58.848 E34.5264
G1 X22.955 Y-58.58 E34.53929
G1 X23.156 Y-58.384 E34.54723
G1 X23.648 Y-57.851 E34.56774
G1 X23.927 Y-57.49 E34.58064
G1 X24.065 Y-57.246 E34.58856
G1 X24.579 Y-56.214 E34.62115
G1 X24.8 Y-55.574 E34.6403
G1 X24.88 Y-55.181 E34.65164
G1 X24.932 Y-54.663 E34.66635
G1 X24.994 Y53.161 E37.71466
G0 F3600 X24.592 Y53.251
G1 F1800 X24.53 Y54.787 E37.75812
G1 X24.417 Y55.399 E37.77571
G1 X24.081 Y56.398 E37.80551
G1 X23.83 Y56.911 E37.82166
G1 X23.452 Y57.482 E37.84102
G1 X23.057 Y57.933 E37.85796
G1 X22.291 Y58.595 E37.88659
G1 X21.949 Y58.837 E37.89843
G1 X21.659 Y58.977 E37.90754
G1 X20.825 Y59.306 E37.93288
G1 X20.423 Y59.421 E37.9447
G1 X20.18 Y59.453 E37.95163
G1 X19.204 Y59.525 E37.9793
G1 X19.04 Y59.531 E37.98394
G1 X-19.87 Y59.488 E39.08397
G1 X-20.433 Y59.414 E39.10002
G1 X-20.99 Y59.266 E39.11632
G1 X-21.559 Y59.025 E39.13379
G1 X-22.38 Y58.531 E39.16087
G1 X-22.717 Y58.282 E39.17272
G1 X-22.911 Y58.084 E39.18056
G1 X-23.521 Y57.378 E39.20693
G1 X-23.792 Y56.984 E39.22045
G1 X-24.011 Y56.578 E39.23349
G1 X-24.178 Y56.179 E39.24572
G1 X-24.433 Y55.348 E39.2703
G1 X-24.528 Y54.796 E39.28613
G1 X-24.592 Y53.291 E39.32872
G1 X-24.594 Y53.197 E39.33138
G1 X-24.544 Y-54.595 E42.37878
G1 X-24.504 Y-55.012 E42.39062
G1 X-24.447 Y-55.239 E42.39724
G1 X-24.145 Y-56.223 E42.42634
G1 X-23.985 Y-56.611 E42.4382
G1 X-23.844 Y-56.841 E42.44583
G1 X-23.235 Y-57.71 E42.47583
G1 X-22.963 Y-58.028 E42.48766
G1 X-22.762 Y-58.2 E42.49514
G1 X-22.088 Y-58.711 E42.51905
G1 X-21.732 Y-58.931 E42.53088
G1 X-21.524 Y-59.021 E42.53729
G1 X-20.783 Y-59.296 E42.55963
G1 X-20.18 Y-59.427 E42.57708
G1 X-19.204 Y-59.499 E42.60475
G1 X-19.04 Y-59.505 E42.60939
G1 X19.87 Y-59.462 E43.70942
G1 X20.433 Y-59.388 E43.72547
G1 X20.99 Y-59.24 E43.74176
G1 X21.559 Y-58.999 E43.75923
G1 X22.38 Y-58.505 E43.78632
G1 X22.863 Y-58.112 E43.80393
G1 X23.355 Y-57.579 E43.82443
G1 X23.707 Y-57.068 E43.84197
G1 X24.221 Y-56.036 E43.87457
G1 X24.408 Y-55.494 E43.89078
G1 X24.488 Y-55.101 E43.90212
G1 X24.532 Y-54.663 E43.91456
G1 X24.594 Y53.161 E46.96287
G1 X24.592 Y53.251 E46.96541
G1 F1500 E40.46541
G1 Z1.17
G0 F3600 X21.794 Y54.066 Z1.17
;TYPE:WALL-INNER
G1 Z0.17
G1 F1500 E46.96541
G1 F1800 X21.786 Y54.303 E46.97212
G1 X21.76 Y54.535 E46.97872
G1 X21.721 Y54.745 E46.98475
G1 X21.664 Y54.955 E46.99091
G1 X21.589 Y55.168 E46.99729
G1 X21.498 Y55.371 E47.00358
G1 X21.403 Y55.55 E47.00931
G1 X21.28 Y55.739 E47.01568
G1 X21.162 Y55.893 E47.02117
G1 X21.014 Y56.057 E47.02741
G1 X20.872 Y56.19 E47.03291
G1 X20.711 Y56.318 E47.03873
G1 X20.545 Y56.427 E47.04434
G1 X20.378 Y56.517 E47.04971
G1 X20.2 Y56.594 E47.05519
G1 X20.017 Y56.654 E47.06063
G1 X19.829 Y56.698 E47.06609
G1 X19.663 Y56.72 E47.07083
G1 X19.432 Y56.731 E47.07736
G1 X-19.434 Y56.73 E48.17615
G1 X-19.646 Y56.721 E48.18215
G1 X-19.822 Y56.698 E48.18717
G1 X-19.987 Y56.662 E48.19194
G1 X-20.18 Y56.6 E48.19767
G1 X-20.333 Y56.538 E48.20234
G1 X-20.507 Y56.447 E48.20789
G1 X-20.664 Y56.349 E48.21312
G1 X-20.824 Y56.23 E48.21876
G1 X-20.955 Y56.115 E48.22369
G1 X-21.101 Y55.963 E48.22965
G1 X-21.226 Y55.813 E48.23517
G1 X-21.346 Y55.64 E48.24112
G1 X-21.45 Y55.467 E48.24683
G1 X-21.535 Y55.295 E48.25225
G1 X-21.614 Y55.098 E48.25825
G1 X-21.698 Y54.832 E48.26614
G1 X-21.734 Y54.683 E48.27047
G1 X-21.768 Y54.472 E48.27651
G1 X-21.786 Y54.282 E48.28191
G1 X-21.794 Y54.071 E48.28788
G1 X-21.794 Y-54.04 E51.3443
G1 X-21.785 Y-54.293 E51.35145
G1 X-21.76 Y-54.511 E51.35766
G1 X-21.718 Y-54.73 E51.36396
G1 X-21.668 Y-54.916 E51.36941
G1 X-21.586 Y-55.151 E51.37644
G1 X-21.502 Y-55.338 E51.38224
G1 X-21.395 Y-55.536 E51.3886
G1 X-21.284 Y-55.709 E51.39441
G1 X-21.162 Y-55.867 E51.40006
G1 X-21.01 Y-56.035 E51.40646
G1 X-20.872 Y-56.164 E51.4118
G1 X-20.711 Y-56.292 E51.41762
G1 X-20.545 Y-56.401 E51.42323
G1 X-20.378 Y-56.491 E51.42859
G1 X-20.2 Y-56.568 E51.43408
G1 X-20.017 Y-56.628 E51.43952
G1 X-19.829 Y-56.672 E51.44498
G1 X-19.663 Y-56.694 E51.44971
G1 X-19.432 Y-56.705 E51.45625
G1 X19.434 Y-56.704 E52.55504
G1 X19.646 Y-56.695 E52.56104
G1 X19.82 Y-56.672 E52.566
G1 X19.992 Y-56.635 E52.57097
G1 X20.177 Y-56.575 E52.57647
G1 X20.333 Y-56.512 E52.58123
G1 X20.507 Y-56.421 E52.58678
G1 X20.664 Y-56.323 E52.59201
G1 X20.824 Y-56.204 E52.59765
G1 X20.954 Y-56.089 E52.60255
G1 X21.107 Y-55.931 E52.60877
G1 X21.218 Y-55.796 E52.61371
G1 X21.347 Y-55.613 E52.62004
G1 X21.45 Y-55.441 E52.62571
G1 X21.541 Y-55.258 E52.63149
G1 X21.687 Y-54.88 E52.64294
G1 X21.733 Y-54.66 E52.6493
G1 X21.768 Y-54.446 E52.65543
G1 X21.786 Y-54.262 E52.66066
G1 X21.794 Y-54.046 E52.66677
G1 X21.794 Y54.066 E55.72321
G0 F3600 X21.695 Y54.065
G0 X1.168 Y-30.177
G0 X1.145 Y-30.274
G1 F1800 X1.485 Y-30.37 E55.7332
G1 X1.812 Y-30.489 E55.74304
G1 X2.132 Y-30.63 E55.75292
G1 X2.442 Y-30.796 E55.76287
G1 X2.737 Y-30.984 E55.77276
G1 X3.019 Y-31.191 E55.78265
G1 X3.286 Y-31.42 E55.79259
G1 X3.534 Y-31.666 E55.80247
G1 X3.764 Y-31.929 E55.81234
G1 X3.975 Y-32.21 E55.82228
G1 X4.164 Y-32.503 E55.83213
G1 X4.334 Y-32.809 E55.84203
G1 X4.48 Y-33.129 E55.85197
G1 X4.602 Y-33.457 E55.86187
G1 X4.7 Y-33.793 E55.87176
G1 X4.773 Y-34.135 E55.88165
G1 X4.823 Y-34.481 E55.89153
G1 X4.847 Y-34.83 E55.90142
G1 X4.846 Y-35.181 E55.91135
G1 X4.82 Y-35.532 E55.9213
G1 X4.766 Y-35.877 E55.93117
G1 X4.69 Y-36.219 E55.94107
G1 X4.589 Y-36.553 E55.95094
G1 X4.465 Y-36.88 E55.96083
G1 X4.316 Y-37.197 E55.97073
G1 X4.145 Y-37.504 E55.98066
G1 X3.953 Y-37.796 E55.99054
G1 X3.74 Y-38.074 E56.00044
G1 X3.508 Y-38.336 E56.01034
G1 X3.256 Y-38.581 E56.02027
G1 X2.989 Y-38.806 E56.03014
G1 X2.706 Y-39.011 E56.04002
G1 X2.408 Y-39.197 E56.04996
G1 X2.098 Y-39.359 E56.05984
G1 X1.776 Y-39.5 E56.06978
G1 X1.446 Y-39.615 E56.07966
G1 X1.11 Y-39.707 E56.08951
G1 X0.765 Y-39.776 E56.09946
G1 X0.417 Y-39.819 E56.10937
G1 X0.068 Y-39.836 E56.11925
G1 X-.283 Y-39.829 E56.12917
G1 X-.629 Y-39.795 E56.139
G1 X-.974 Y-39.737 E56.14889
G1 X-1.315 Y-39.655 E56.15881
G1 X-1.649 Y-39.547 E56.16873
G1 X-1.973 Y-39.418 E56.17859
G1 X-2.288 Y-39.263 E56.18852
G1 X-2.591 Y-39.086 E56.19844
G1 X-2.88 Y-38.889 E56.20833
G1 X-3.154 Y-38.671 E56.21822
G1 X-3.411 Y-38.433 E56.22813
G1 X-3.65 Y-38.179 E56.23799
G1 X-3.872 Y-37.908 E56.24789
G1 X-4.073 Y-37.62 E56.25782
G1 X-4.253 Y-37.318 E56.26776
G1 X-4.409 Y-37.005 E56.27765
G1 X-4.543 Y-36.682 E56.28753
G1 X-4.653 Y-36.352 E56.29737
G1 X-4.74 Y-36.011 E56.30732
G1 X-4.801 Y-35.666 E56.31722
G1 X-4.838 Y-35.317 E56.32714
G1 X-4.849 Y-34.967 E56.33704
G1 X-4.835 Y-34.617 E56.34694
G1 X-4.796 Y-34.271 E56.35679
G1 X-4.732 Y-33.926 E56.36671
G1 X-4.643 Y-33.586 E56.37664
G1 X-4.53 Y-33.256 E56.38651
G1 X-4.393 Y-32.932 E56.39645
G1 X-4.233 Y-32.622 E56.40631
G1 X-4.051 Y-32.322 E56.41623
G1 X-3.849 Y-32.037 E56.42611
G1 X-3.626 Y-31.766 E56.43603
G1 X-3.384 Y-31.514 E56.44591
G1 X-3.125 Y-31.279 E56.4558
G1 X-2.85 Y-31.063 E56.46568
G1 X-2.559 Y-30.867 E56.4756
G1 X-2.253 Y-30.693 E56.48555
G1 X-1.939 Y-30.542 E56.4954
G1 X-1.614 Y-30.413 E56.50529
G1 X-1.279 Y-30.309 E56.5152
G1 X-.939 Y-30.228 E56.52509
G1 X-.591 Y-30.173 E56.53505
G1 X-.242 Y-30.143 E56.54495
G1 X0.106 Y-30.139 E56.55479
G1 X0.456 Y-30.158 E56.5647
G1 X0.802 Y-30.204 E56.57457
G1 X1.145 Y-30.274 E56.58446
