;FLAVOR:RepRap
;TIME:5112
;Filament used: 3.76805m
;Layer height: 0.15
;Generated with Cura_SteamEngine 2.4.0
M190 S105
;;M104 S240
;;M109 S240
G21 ;metric values
G90 ;absolute positioning
M82 ;set extruder to absolute mode
M107 ;start with the fan off
G28 ;Home all axes (max endstops)

M0 Add PROBE
M106 S255 ;	Turn fan on 100% power, cool the probe
M117 Auto leveling...
G29   ; DAQ -- auto level
M500
G1 x0 y0
M0 Remove PROBE

M104 S240
M109 S240

G1 Z75.0 F9000 ;move the platform down 15mm
G92 E0 ;zero the extruded length
G1 F200 E3 ;extrude 3mm of feed stock
G92 E0 ;zero the extruded length again

G1 Z100 F9000
M0 CLEAN ME...

M106 S191 ;	Turn fan on 50% power

G1 F9000
M117 Printing...
;LAYER_COUNT:12
;LAYER:0
M107
G1 F1500 E-6.5
G1 Z21
G0 F3600 X-25.778 Y54.163 Z1.15
;TYPE:SKIRT
G1 Z0.15
G1 F1500 E0
G1 F1800 X-25.768 Y-54.406 E2.70826
G1 X-25.728 Y-54.926 E2.72127
G1 X-25.665 Y-55.237 E2.72919
G1 X-25.406 Y-56.265 E2.75563
G1 X-25.24 Y-56.759 E2.76863
G1 X-25.012 Y-57.204 E2.78111
G1 X-24.514 Y-58.021 E2.80498
G1 X-24.21 Y-58.444 E2.81797
G1 X-23.828 Y-58.828 E2.83148
G1 X-23.069 Y-59.481 E2.85646
G1 X-22.649 Y-59.79 E2.86946
G1 X-22.1 Y-60.067 E2.8848
G1 X-21.266 Y-60.396 E2.90717
G1 X-20.768 Y-60.549 E2.92016
G1 X-20.268 Y-60.624 E2.93278
G1 X-19.292 Y-60.696 E2.95719
G1 X-19.039 Y-60.705 E2.9635
G1 X19.846 Y-60.665 E3.93349
G1 X20.366 Y-60.625 E3.9465
G1 X20.946 Y-60.481 E3.96141
G1 X21.894 Y-60.156 E3.98641
G1 X22.372 Y-59.95 E3.99939
G1 X22.877 Y-59.625 E4.01437
G1 X23.536 Y-59.113 E4.03519
G1 X23.922 Y-58.763 E4.04819
G1 X24.211 Y-58.412 E4.05953
G1 X24.76 Y-57.648 E4.083
G1 X25.031 Y-57.203 E4.096
G1 X25.141 Y-56.962 E4.10261
G1 X25.4 Y-56.335 E4.11953
G1 X25.562 Y-55.84 E4.13252
G1 X25.618 Y-55.56 E4.13964
G1 X25.728 Y-54.853 E4.15749
G1 X25.768 Y-54.33 E4.17058
G1 X25.771 Y54.397 E6.88278
G1 X25.7 Y55.088 E6.90011
G1 X25.531 Y55.902 E6.92085
G1 X25.386 Y56.403 E6.93386
G1 X25.237 Y56.744 E6.94314
G1 X24.798 Y57.613 E6.96743
G1 X24.528 Y58.059 E6.98043
G1 X24.365 Y58.268 E6.98704
G1 X24.037 Y58.658 E6.99976
G1 X23.541 Y59.139 E7.01699
G1 X22.958 Y59.599 E7.03552
G1 X22.525 Y59.89 E7.04853
G1 X22.1 Y60.093 E7.06028
G1 X21.266 Y60.422 E7.08264
G1 X20.768 Y60.575 E7.09564
G1 X20.268 Y60.65 E7.10825
G1 X19.292 Y60.722 E7.13266
G1 X19.039 Y60.731 E7.13898
G1 X-19.846 Y60.691 E8.10897
G1 X-20.366 Y60.651 E8.12198
G1 X-20.951 Y60.505 E8.13702
G1 X-21.908 Y60.175 E8.16227
G1 X-22.387 Y59.968 E8.17529
G1 X-22.868 Y59.659 E8.18955
G1 X-23.489 Y59.183 E8.20907
G1 X-23.878 Y58.836 E8.22207
G1 X-24.171 Y58.484 E8.2335
G1 X-24.749 Y57.689 E8.25801
G1 X-25.022 Y57.246 E8.27099
G1 X-25.208 Y56.814 E8.28273
G1 X-25.497 Y55.989 E8.30453
G1 X-25.66 Y55.297 E8.32227
G1 X-25.75 Y54.595 E8.33992
G1 X-25.778 Y54.163 E8.35072
G0 F3600 X-25.378 Y54.163
G1 F1800 X-25.368 Y-54.406 E11.05899
G1 X-25.328 Y-54.894 E11.0712
G1 X-25.277 Y-55.139 E11.07744
G1 X-25.018 Y-56.167 E11.10389
G1 X-24.86 Y-56.63 E11.11609
G1 X-24.671 Y-56.995 E11.12634
G1 X-24.173 Y-57.812 E11.15021
G1 X-23.885 Y-58.208 E11.16243
G1 X-23.568 Y-58.525 E11.17361
G1 X-22.809 Y-59.178 E11.19859
G1 X-22.413 Y-59.466 E11.2108
G1 X-21.953 Y-59.695 E11.22362
G1 X-21.119 Y-60.024 E11.24598
G1 X-20.65 Y-60.166 E11.25821
G1 X-20.239 Y-60.225 E11.26856
G1 X-19.263 Y-60.297 E11.29298
G1 X-19.039 Y-60.305 E11.29857
G1 X19.846 Y-60.265 E12.26856
G1 X20.334 Y-60.225 E12.28077
G1 X20.816 Y-60.103 E12.29318
G1 X21.764 Y-59.778 E12.31817
G1 X22.212 Y-59.582 E12.33037
G1 X22.632 Y-59.309 E12.34287
G1 X23.291 Y-58.797 E12.36369
G1 X23.651 Y-58.466 E12.37588
G1 X23.886 Y-58.179 E12.38514
G1 X24.435 Y-57.415 E12.40861
G1 X24.772 Y-56.809 E12.4259
G1 X25.031 Y-56.182 E12.44283
G1 X25.222 Y-55.498 E12.46054
G1 X25.332 Y-54.791 E12.47839
G1 X25.368 Y-54.33 E12.48992
G1 X25.371 Y54.397 E15.20213
G1 X25.308 Y55.007 E15.21743
G1 X25.139 Y55.821 E15.23817
G1 X25.001 Y56.29 E15.25036
G1 X24.88 Y56.564 E15.25783
G1 X24.441 Y57.433 E15.28212
G1 X24.059 Y58.011 E15.2994
G1 X23.731 Y58.401 E15.31211
G1 X23.293 Y58.825 E15.32732
G1 X22.71 Y59.285 E15.34584
G1 X22.303 Y59.556 E15.35804
G1 X21.953 Y59.721 E15.36769
G1 X21.119 Y60.05 E15.39006
G1 X20.65 Y60.192 E15.40228
G1 X20.239 Y60.251 E15.41264
G1 X19.263 Y60.323 E15.43705
G1 X19.039 Y60.331 E15.44264
G1 X-19.846 Y60.291 E16.41263
G1 X-20.334 Y60.251 E16.42485
G1 X-20.821 Y60.127 E16.43738
G1 X-21.778 Y59.797 E16.46264
G1 X-22.226 Y59.6 E16.47484
G1 X-22.625 Y59.342 E16.4867
G1 X-23.246 Y58.866 E16.50622
G1 X-23.609 Y58.538 E16.51842
G1 X-23.847 Y58.249 E16.52776
G1 X-24.425 Y57.454 E16.55228
G1 X-24.68 Y57.036 E16.56449
G1 X-24.83 Y56.682 E16.57408
G1 X-25.119 Y55.857 E16.59589
G1 X-25.264 Y55.246 E16.61155
G1 X-25.354 Y54.544 E16.62921
G1 X-25.378 Y54.163 E16.63873
G0 F3600 X-24.978 Y54.163
G1 F1800 X-24.968 Y-54.406 E19.347
G1 X-24.889 Y-55.041 E19.36296
G1 X-24.63 Y-56.069 E19.3894
G1 X-24.481 Y-56.5 E19.40078
G1 X-24.329 Y-56.787 E19.40888
G1 X-23.831 Y-57.604 E19.43275
G1 X-23.561 Y-57.971 E19.44411
G1 X-23.307 Y-58.222 E19.45302
G1 X-22.548 Y-58.875 E19.478
G1 X-22.178 Y-59.141 E19.48936
G1 X-21.806 Y-59.323 E19.49969
G1 X-20.972 Y-59.652 E19.52206
G1 X-20.535 Y-59.781 E19.53343
G1 X-20.209 Y-59.826 E19.54163
G1 X-19.233 Y-59.898 E19.56605
G1 X-19.039 Y-59.905 E19.57089
G1 X19.846 Y-59.865 E20.54088
G1 X20.3 Y-59.825 E20.55225
G1 X20.686 Y-59.724 E20.5622
G1 X21.634 Y-59.399 E20.5872
G1 X22.051 Y-59.215 E20.59857
G1 X22.386 Y-58.993 E20.6086
G1 X23.045 Y-58.481 E20.62941
G1 X23.379 Y-58.171 E20.64078
G1 X23.561 Y-57.945 E20.64802
G1 X24.11 Y-57.181 E20.67149
G1 X24.402 Y-56.657 E20.68645
G1 X24.661 Y-56.03 E20.70337
G1 X24.827 Y-55.437 E20.71873
G1 X24.937 Y-54.73 E20.73658
G1 X24.968 Y-54.33 E20.74659
G1 X24.971 Y54.397 E23.4588
G1 X24.917 Y54.926 E23.47206
G1 X24.748 Y55.74 E23.4928
G1 X24.523 Y56.383 E23.50979
G1 X24.084 Y57.252 E23.53408
G1 X23.753 Y57.753 E23.54906
G1 X23.425 Y58.143 E23.56177
G1 X23.046 Y58.511 E23.57495
G1 X22.463 Y58.971 E23.59347
G1 X22.081 Y59.221 E23.60486
G1 X21.806 Y59.349 E23.61243
G1 X20.972 Y59.678 E23.63479
G1 X20.535 Y59.807 E23.64616
G1 X20.209 Y59.852 E23.65437
G1 X19.233 Y59.924 E23.67878
G1 X19.039 Y59.931 E23.68362
G1 X-19.846 Y59.891 E24.65361
G1 X-20.3 Y59.851 E24.66498
G1 X-20.691 Y59.749 E24.67506
G1 X-21.648 Y59.419 E24.70031
G1 X-22.064 Y59.233 E24.71168
G1 X-22.382 Y59.025 E24.72116
G1 X-23.003 Y58.549 E24.74068
G1 X-23.339 Y58.241 E24.75205
G1 X-23.524 Y58.014 E24.75935
G1 X-24.102 Y57.219 E24.78387
G1 X-24.337 Y56.828 E24.79525
G1 X-24.453 Y56.55 E24.80277
G1 X-24.742 Y55.725 E24.82457
G1 X-24.867 Y55.196 E24.83813
G1 X-24.957 Y54.494 E24.85579
G1 X-24.978 Y54.163 E24.86406
G0 F3600 X-24.578 Y54.163
G1 F1800 X-24.568 Y-54.406 E27.57232
G1 X-24.501 Y-54.943 E27.58582
G1 X-24.242 Y-55.971 E27.61227
G1 X-24.102 Y-56.366 E27.62272
G1 X-23.988 Y-56.579 E27.62875
G1 X-23.49 Y-57.396 E27.65262
G1 X-23.238 Y-57.731 E27.66307
G1 X-23.046 Y-57.919 E27.66978
G1 X-22.287 Y-58.572 E27.69475
G1 X-21.945 Y-58.814 E27.7052
G1 X-21.659 Y-58.951 E27.71311
G1 X-20.825 Y-59.28 E27.73548
G1 X-20.423 Y-59.395 E27.74591
G1 X-20.18 Y-59.427 E27.75202
G1 X-19.204 Y-59.499 E27.77643
G1 X-19.04 Y-59.505 E27.78053
G1 X19.845 Y-59.465 E28.75052
G1 X20.262 Y-59.425 E28.76097
G1 X20.556 Y-59.346 E28.76856
G1 X21.504 Y-59.021 E28.79356
G1 X21.886 Y-58.848 E28.80402
G1 X22.141 Y-58.677 E28.81168
G1 X22.8 Y-58.165 E28.8325
G1 X23.105 Y-57.878 E28.84295
G1 X23.237 Y-57.712 E28.84824
G1 X23.786 Y-56.948 E28.8717
G1 X24.032 Y-56.504 E28.88437
G1 X24.291 Y-55.877 E28.90129
G1 X24.432 Y-55.375 E28.9143
G1 X24.542 Y-54.668 E28.93214
G1 X24.568 Y-54.33 E28.9406
G1 X24.571 Y54.397 E31.65281
G1 X24.525 Y54.844 E31.66402
G1 X24.356 Y55.658 E31.68475
G1 X24.166 Y56.203 E31.69915
G1 X23.727 Y57.072 E31.72344
G1 X23.447 Y57.496 E31.73611
G1 X23.119 Y57.886 E31.74883
G1 X22.798 Y58.197 E31.75997
G1 X22.215 Y58.657 E31.7785
G1 X21.863 Y58.884 E31.78895
G1 X21.659 Y58.977 E31.79454
G1 X20.825 Y59.306 E31.8169
G1 X20.423 Y59.421 E31.82733
G1 X20.18 Y59.453 E31.83345
G1 X19.204 Y59.525 E31.85786
G1 X19.04 Y59.531 E31.86196
G1 X-19.845 Y59.491 E32.83195
G1 X-20.262 Y59.451 E32.8424
G1 X-20.56 Y59.371 E32.85009
G1 X-21.517 Y59.041 E32.87534
G1 X-21.899 Y58.867 E32.88582
G1 X-22.138 Y58.707 E32.89299
G1 X-22.759 Y58.231 E32.91251
G1 X-23.066 Y57.946 E32.92296
G1 X-23.2 Y57.779 E32.9283
G1 X-23.778 Y56.984 E32.95282
G1 X-23.991 Y56.623 E32.96327
G1 X-24.075 Y56.417 E32.96882
G1 X-24.364 Y55.592 E32.99063
G1 X-24.47 Y55.145 E33.00209
G1 X-24.56 Y54.443 E33.01974
G1 X-24.578 Y54.163 E33.02674
G1 F1500 E26.52674
G1 Z1.15
G0 F3600 X-21.794 Y54.072 Z1.15
;TYPE:WALL-INNER
G1 Z0.15
G1 F1500 E33.02674
G1 F1800 X-21.794 Y-54.04 E35.72361
G1 X-21.785 Y-54.293 E35.72992
G1 X-21.76 Y-54.506 E35.73527
G1 X-21.718 Y-54.73 E35.74096
G1 X-21.668 Y-54.916 E35.74576
G1 X-21.586 Y-55.151 E35.75197
G1 X-21.502 Y-55.338 E35.75708
G1 X-21.395 Y-55.536 E35.7627
G1 X-21.284 Y-55.709 E35.76783
G1 X-21.162 Y-55.867 E35.7728
G1 X-21.014 Y-56.031 E35.77832
G1 X-20.872 Y-56.164 E35.78317
G1 X-20.711 Y-56.292 E35.7883
G1 X-20.545 Y-56.401 E35.79325
G1 X-20.378 Y-56.491 E35.79799
G1 X-20.2 Y-56.568 E35.80282
G1 X-20.017 Y-56.628 E35.80763
G1 X-19.829 Y-56.672 E35.81244
G1 X-19.663 Y-56.694 E35.81662
G1 X-19.432 Y-56.705 E35.82239
G1 X19.434 Y-56.704 E36.79191
G1 X19.647 Y-56.695 E36.79722
G1 X19.818 Y-56.672 E36.80153
G1 X19.995 Y-56.633 E36.80605
G1 X20.168 Y-56.579 E36.81057
G1 X20.346 Y-56.506 E36.81537
G1 X20.495 Y-56.429 E36.81955
G1 X20.674 Y-56.317 E36.82482
G1 X20.812 Y-56.215 E36.8291
G1 X20.954 Y-56.09 E36.83382
G1 X21.094 Y-55.945 E36.83885
G1 X21.226 Y-55.785 E36.84402
G1 X21.348 Y-55.612 E36.8493
G1 X21.447 Y-55.444 E36.85417
G1 X21.54 Y-55.259 E36.85933
G1 X21.687 Y-54.878 E36.86952
G1 X21.733 Y-54.662 E36.87503
G1 X21.765 Y-54.474 E36.87979
G1 X21.786 Y-54.262 E36.8851
G1 X21.794 Y-54.06 E36.89014
G1 X21.794 Y54.066 E39.58736
G1 X21.785 Y54.313 E39.59352
G1 X21.76 Y54.535 E39.59909
G1 X21.721 Y54.745 E39.60442
G1 X21.664 Y54.955 E39.60985
G1 X21.589 Y55.168 E39.61548
G1 X21.498 Y55.371 E39.62103
G1 X21.403 Y55.55 E39.62609
G1 X21.28 Y55.739 E39.63171
G1 X21.162 Y55.893 E39.63655
G1 X21.014 Y56.057 E39.64206
G1 X20.872 Y56.19 E39.64692
G1 X20.711 Y56.318 E39.65205
G1 X20.545 Y56.427 E39.657
G1 X20.378 Y56.517 E39.66173
G1 X20.2 Y56.594 E39.66657
G1 X20.017 Y56.654 E39.67138
G1 X19.829 Y56.698 E39.67619
G1 X19.663 Y56.72 E39.68037
G1 X19.432 Y56.731 E39.68614
G1 X-19.434 Y56.73 E40.65565
G1 X-19.647 Y56.721 E40.66097
G1 X-19.818 Y56.698 E40.66528
G1 X-19.995 Y56.659 E40.6698
G1 X-20.168 Y56.605 E40.67432
G1 X-20.346 Y56.532 E40.67912
G1 X-20.495 Y56.455 E40.6833
G1 X-20.667 Y56.347 E40.68837
G1 X-20.812 Y56.24 E40.69286
G1 X-20.96 Y56.109 E40.69779
G1 X-21.096 Y55.969 E40.70266
G1 X-21.228 Y55.809 E40.70784
G1 X-21.345 Y55.642 E40.71292
G1 X-21.447 Y55.47 E40.71791
G1 X-21.541 Y55.282 E40.72315
G1 X-21.613 Y55.102 E40.72799
G1 X-21.694 Y54.846 E40.73469
G1 X-21.733 Y54.683 E40.73887
G1 X-21.768 Y54.472 E40.7442
G1 X-21.786 Y54.284 E40.74892
G1 X-21.794 Y54.072 E40.75421
G0 F3600 X-21.695 Y54.071
G0 X-1.308 Y-30.214
G0 X-1.282 Y-30.31
G1 F1800 X-.942 Y-30.229 E40.76293
G1 X-.595 Y-30.174 E40.77169
G1 X-.247 Y-30.143 E40.78041
G1 X0.102 Y-30.139 E40.78911
G1 X0.452 Y-30.158 E40.79786
G1 X0.798 Y-30.204 E40.80656
G1 X1.141 Y-30.273 E40.81529
G1 X1.479 Y-30.367 E40.82404
G1 X1.81 Y-30.487 E40.83282
G1 X2.129 Y-30.628 E40.84152
G1 X2.439 Y-30.794 E40.8503
G1 X2.735 Y-30.982 E40.85904
G1 X3.016 Y-31.189 E40.86775
G1 X3.281 Y-31.416 E40.87645
G1 X3.531 Y-31.662 E40.8852
G1 X3.762 Y-31.926 E40.89395
G1 X3.973 Y-32.206 E40.9027
G1 X4.162 Y-32.499 E40.9114
G1 X4.332 Y-32.805 E40.92013
G1 X4.479 Y-33.125 E40.92891
G1 X4.601 Y-33.454 E40.93767
G1 X4.699 Y-33.789 E40.94637
G1 X4.773 Y-34.13 E40.95508
G1 X4.823 Y-34.477 E40.96382
G1 X4.847 Y-34.826 E40.97255
G1 X4.846 Y-35.177 E40.98131
G1 X4.82 Y-35.526 E40.99004
G1 X4.767 Y-35.873 E40.99879
G1 X4.691 Y-36.216 E41.00756
G1 X4.59 Y-36.549 E41.01624
G1 X4.466 Y-36.876 E41.02496
G1 X4.319 Y-37.194 E41.0337
G1 X4.147 Y-37.501 E41.04248
G1 X3.955 Y-37.793 E41.05119
G1 X3.743 Y-38.07 E41.0599
G1 X3.511 Y-38.333 E41.06864
G1 X3.259 Y-38.579 E41.07743
G1 X2.991 Y-38.804 E41.08616
G1 X2.71 Y-39.009 E41.09483
G1 X2.411 Y-39.195 E41.10362
G1 X2.102 Y-39.357 E41.11232
G1 X1.783 Y-39.497 E41.12101
G1 X1.451 Y-39.615 E41.1298
G1 X1.113 Y-39.707 E41.13854
G1 X0.77 Y-39.776 E41.14727
G1 X0.421 Y-39.819 E41.15604
G1 X0.072 Y-39.836 E41.16475
G1 X-.277 Y-39.83 E41.17346
G1 X-.626 Y-39.796 E41.18221
G1 X-.971 Y-39.738 E41.19094
G1 X-1.313 Y-39.656 E41.19971
G1 X-1.645 Y-39.548 E41.20842
G1 X-1.969 Y-39.419 E41.21712
G1 X-2.284 Y-39.265 E41.22586
G1 X-2.588 Y-39.089 E41.23463
G1 X-2.876 Y-38.891 E41.24334
G1 X-3.151 Y-38.673 E41.2521
G1 X-3.409 Y-38.435 E41.26085
G1 X-3.647 Y-38.182 E41.26952
G1 X-3.869 Y-37.911 E41.27826
G1 X-4.071 Y-37.623 E41.28703
G1 X-4.25 Y-37.321 E41.29579
G1 X-4.408 Y-37.009 E41.30451
G1 X-4.542 Y-36.686 E41.31324
G1 X-4.652 Y-36.354 E41.32196
G1 X-4.739 Y-36.014 E41.33072
G1 X-4.8 Y-35.671 E41.33941
G1 X-4.838 Y-35.322 E41.34816
G1 X-4.849 Y-34.972 E41.3569
G1 X-4.836 Y-34.622 E41.36564
G1 X-4.797 Y-34.274 E41.37437
G1 X-4.733 Y-33.929 E41.38312
G1 X-4.644 Y-33.589 E41.39189
G1 X-4.531 Y-33.259 E41.40059
G1 X-4.395 Y-32.936 E41.40933
G1 X-4.235 Y-32.625 E41.41806
G1 X-4.054 Y-32.326 E41.42678
G1 X-3.852 Y-32.04 E41.43551
G1 X-3.628 Y-31.768 E41.4443
G1 X-3.386 Y-31.516 E41.45302
G1 X-3.128 Y-31.281 E41.46172
G1 X-2.853 Y-31.066 E41.47043
G1 X-2.563 Y-30.868 E41.47919
G1 X-2.257 Y-30.694 E41.48797
G1 X-1.943 Y-30.543 E41.49666
G1 X-1.616 Y-30.414 E41.50543
G1 X-1.282 Y-30.31 E41.51416
G0 F3600 X-1.177 Y-30.696
;TYPE:WALL-OUTER
G1 F1800 X-.864 Y-30.622 E41.52218
G1 X-.546 Y-30.571 E41.53021
G1 X-.227 Y-30.543 E41.5382
G1 X0.093 Y-30.539 E41.54618
G1 X0.415 Y-30.557 E41.55423
G1 X0.733 Y-30.599 E41.56223
G1 X1.048 Y-30.662 E41.57024
G1 X1.357 Y-30.748 E41.57825
G1 X1.66 Y-30.858 E41.58629
G1 X1.953 Y-30.988 E41.59428
G1 X2.237 Y-31.14 E41.60232
G1 X2.509 Y-31.312 E41.61035
G1 X2.767 Y-31.502 E41.61834
G1 X3.01 Y-31.711 E41.62633
G1 X3.24 Y-31.937 E41.63438
G1 X3.451 Y-32.179 E41.64239
G1 X3.645 Y-32.435 E41.6504
G1 X3.819 Y-32.705 E41.65841
G1 X3.975 Y-32.986 E41.66643
G1 X4.109 Y-33.278 E41.67444
G1 X4.221 Y-33.58 E41.68248
G1 X4.311 Y-33.888 E41.69048
G1 X4.379 Y-34.201 E41.69847
G1 X4.425 Y-34.519 E41.70649
G1 X4.447 Y-34.839 E41.71449
G1 X4.446 Y-35.161 E41.72252
G1 X4.422 Y-35.481 E41.73053
G1 X4.374 Y-35.8 E41.73857
G1 X4.304 Y-36.114 E41.7466
G1 X4.211 Y-36.42 E41.75458
G1 X4.097 Y-36.721 E41.7626
G1 X3.962 Y-37.012 E41.77061
G1 X3.805 Y-37.293 E41.77864
G1 X3.629 Y-37.561 E41.78663
G1 X3.434 Y-37.816 E41.79464
G1 X3.221 Y-38.057 E41.80266
G1 X2.99 Y-38.282 E41.81071
G1 X2.744 Y-38.489 E41.81873
G1 X2.486 Y-38.677 E41.82669
G1 X2.212 Y-38.847 E41.83474
G1 X1.928 Y-38.996 E41.84274
G1 X1.635 Y-39.125 E41.85072
G1 X1.331 Y-39.233 E41.85877
G1 X1.021 Y-39.318 E41.86679
G1 X0.706 Y-39.381 E41.8748
G1 X0.387 Y-39.42 E41.88282
G1 X0.066 Y-39.436 E41.89084
G1 X-.254 Y-39.43 E41.89882
G1 X-.574 Y-39.399 E41.90684
G1 X-.891 Y-39.346 E41.91486
G1 X-1.204 Y-39.271 E41.92289
G1 X-1.509 Y-39.172 E41.93088
G1 X-1.807 Y-39.053 E41.93889
G1 X-2.095 Y-38.912 E41.94689
G1 X-2.374 Y-38.75 E41.95494
G1 X-2.639 Y-38.569 E41.96294
G1 X-2.891 Y-38.369 E41.97097
G1 X-3.127 Y-38.151 E41.97898
G1 X-3.346 Y-37.918 E41.98696
G1 X-3.55 Y-37.669 E41.99499
G1 X-3.735 Y-37.406 E42.00301
G1 X-3.899 Y-37.129 E42.01104
G1 X-4.044 Y-36.842 E42.01906
G1 X-4.167 Y-36.546 E42.02705
G1 X-4.268 Y-36.241 E42.03507
G1 X-4.348 Y-35.929 E42.0431
G1 X-4.404 Y-35.614 E42.05108
G1 X-4.439 Y-35.294 E42.05911
G1 X-4.449 Y-34.973 E42.06713
G1 X-4.437 Y-34.652 E42.07514
G1 X-4.401 Y-34.333 E42.08315
G1 X-4.342 Y-34.016 E42.09119
G1 X-4.261 Y-33.705 E42.09921
G1 X-4.157 Y-33.402 E42.1072
G1 X-4.032 Y-33.105 E42.11524
G1 X-3.886 Y-32.82 E42.12322
G1 X-3.719 Y-32.545 E42.13125
G1 X-3.534 Y-32.283 E42.13925
G1 X-3.329 Y-32.034 E42.1473
