; generated by Slic3r Prusa Edition 1.41.2+win64 on 2019-02-03 at 11:25:33

; 

; external perimeters extrusion width = 0.60mm
; perimeters extrusion width = 0.43mm
; infill extrusion width = 0.45mm
; solid infill extrusion width = 0.70mm
; top infill extrusion width = 0.43mm
; first layer extrusion width = 0.42mm

M201 X9000 Y9000 Z500 E10000 ; sets maximum accelerations, mm/sec^2
M203 X500 Y500 Z12 E120 ; sets maximum feedrates, mm/sec
M204 P2000 R1500 T2000 ; sets acceleration (P, T) and retract acceleration (R), mm/sec^2
M205 X10.00 Y10.00 Z0.20 E2.50 ; sets the jerk limits, mm/sec
M205 S0 T0 ; sets the minimum extruding and travel feed rate, mm/sec
M107
M115 U3.1.0 ; tell printer latest fw version
M204 S2000 T1500 ; MK2 firmware only supports the old M204 format
; Start G-Code sequence START
T3
M104 S255 ; set extruder temp
M140 S100 ; set bed temp
M190 S100 ; wait for bed temp
M109 S255 ; wait for extruder temp
G21 ; set units to millimeters
G90 ; use absolute coordinates
M83 ; use relative distances for extrusion
G28 W
G80
G92 E0.0
M203 E100 ; set max feedrate
M92 E140 ; E-steps per filament milimeter

G1 Z0.250 F7200.000
G1 X50.0 E80.0  F1000.0
G1 X160.0 E20.0  F1000.0
G1 Z0.200 F7200.000
G1 X220.0 E13 F1000.0
G1 X240.0 E0 F1000.0

G92 E0.0
M900 K200; Filament gcode
G21 ; set units to millimeters
G90 ; use absolute coordinates
M83 ; use relative distances for extrusion
T3
M900 K200; Filament gcode
;BEFORE_LAYER_CHANGE
G92 E0.0
;0.2


G1 Z0.200 F10800.000
;AFTER_LAYER_CHANGE
;0.2
G1 E-4.00000 F4800.00000
G1 Z0.800 F10800.000
G1 X16.024 Y17.567
G1 Z0.200
G1 E4.00000 F3000.00000
M204 S1000
G1 F1200
G1 X17.426 Y16.424 E0.05672
G1 X18.895 Y15.368 E0.05672
G1 X20.419 Y14.404 E0.05655
G1 X22.003 Y13.531 E0.05672
G1 X23.576 Y12.782 E0.05462
G1 X26.245 Y11.753 E0.08968
G1 X27.916 Y11.250 E0.05472
G1 X29.720 Y10.825 E0.05812
G1 X32.350 Y10.409 E0.08349
G1 X35.096 Y10.225 E0.08628
G1 X95.867 Y9.926 E1.90547
G1 X215.775 Y10.196 E3.75964
G1 X217.686 Y10.270 E0.05995
G1 X219.411 Y10.441 E0.05437
G1 X221.127 Y10.713 E0.05445
G1 X223.843 Y11.354 E0.08750
G1 X225.556 Y11.899 E0.05637
G1 X227.177 Y12.522 E0.05445
G1 X229.699 Y13.716 E0.08751
G1 X232.097 Y15.138 E0.08741
G1 X233.523 Y16.134 E0.05454
G1 X234.934 Y17.249 E0.05637
G1 X236.981 Y19.138 E0.08733
G1 X238.169 Y20.412 E0.05462
G1 X239.288 Y21.762 E0.05497
G1 X240.427 Y23.321 E0.06056
G1 X241.819 Y25.565 E0.08279
G1 X242.691 Y27.241 E0.05924
G1 X243.730 Y29.666 E0.08271
G1 X244.551 Y32.170 E0.08262
G1 X245.004 Y34.008 E0.05934
G1 X245.440 Y36.606 E0.08262
G1 X245.615 Y38.541 E0.06091
G1 X246.018 Y161.593 E3.85822
G1 X245.804 Y164.383 E0.08776
G1 X245.542 Y166.103 E0.05454
G1 X245.164 Y167.872 E0.05672
G1 X244.683 Y169.604 E0.05637
G1 X244.119 Y171.253 E0.05462
G1 X242.990 Y173.880 E0.08968
G1 X242.183 Y175.422 E0.05454
G1 X241.254 Y176.967 E0.05654
G1 X240.234 Y178.454 E0.05655
G1 X239.165 Y179.830 E0.05462
G1 X237.249 Y181.943 E0.08942
G1 X235.984 Y183.141 E0.05462
G1 X234.613 Y184.294 E0.05619
G1 X232.458 Y185.849 E0.08332
G1 X230.796 Y186.866 E0.06109
G1 X228.440 Y188.070 E0.08297
G1 X225.997 Y189.058 E0.08262
G1 X224.135 Y189.651 E0.06126
G1 X221.566 Y190.258 E0.08279
G1 X218.952 Y190.637 E0.08279
G1 X217.042 Y190.768 E0.06004
G1 X95.401 Y190.863 E3.81398
G1 X34.922 Y190.634 E1.89628
G1 X33.115 Y190.539 E0.05672
G1 X31.384 Y190.345 E0.05462
G1 X28.582 Y189.812 E0.08943
G1 X26.895 Y189.356 E0.05479
G1 X25.190 Y188.785 E0.05637
G1 X23.518 Y188.111 E0.05654
G1 X21.943 Y187.365 E0.05462
G1 X19.461 Y185.949 E0.08960
G1 X18.014 Y184.970 E0.05480
G1 X16.587 Y183.876 E0.05637
G1 X15.223 Y182.696 E0.05654
G1 X13.976 Y181.479 E0.05462
G1 X12.116 Y179.369 E0.08820
G1 X10.532 Y177.201 E0.08419
G1 X9.169 Y174.939 E0.08279
G1 X8.291 Y173.194 E0.06126
G1 X7.286 Y170.747 E0.08297
G1 X6.501 Y168.225 E0.08279
G1 X6.064 Y166.318 E0.06134
G1 X5.672 Y163.710 E0.08271
G1 X5.510 Y161.035 E0.08401
G1 X4.934 Y100.227 E1.90668
G1 X5.642 Y39.807 E1.89456
G1 X5.723 Y38.048 E0.05520
G1 X5.912 Y36.255 E0.05655
G1 X6.209 Y34.471 E0.05672
G1 X6.596 Y32.778 E0.05445
G1 X7.442 Y30.048 E0.08960
G1 X8.083 Y28.428 E0.05462
G1 X8.829 Y26.823 E0.05550
G1 X9.702 Y25.207 E0.05759
G1 X10.623 Y23.722 E0.05479
G1 X12.311 Y21.413 E0.08968
G1 X13.442 Y20.091 E0.05454
G1 X14.697 Y18.789 E0.05672
G1 X15.980 Y17.608 E0.05466
G1 E-2.40000 F4800.00000
G1 F8640
G1 X17.426 Y16.424 E-0.98637
G1 X18.247 Y15.834 E-0.53363
G1 E-0.08000 F4800.00000
G1 Z0.800 F10800.000
G1 X192.170 Y142.870
G1 Z0.200
G1 E4.00000 F3000.00000
G1 F1200
G1 X192.846 Y142.004 E0.03446
G1 X193.979 Y140.683 E0.05457
G1 X195.183 Y139.437 E0.05431
G1 X195.883 Y138.776 E0.03019
G1 X197.185 Y137.652 E0.05393
G1 X197.964 Y137.040 E0.03108
G1 X199.378 Y136.028 E0.05452
G1 X200.815 Y135.123 E0.05324
G1 X202.313 Y134.294 E0.05368
G1 X203.273 Y133.821 E0.03357
G1 X204.847 Y133.133 E0.05386
G1 X205.746 Y132.788 E0.03019
G1 X207.375 Y132.246 E0.05383
G1 X208.303 Y131.983 E0.03025
G1 X210.025 Y131.579 E0.05546
G1 X211.709 Y131.287 E0.05360
G1 X213.413 Y131.092 E0.05377
G1 X215.180 Y130.994 E0.05549
G1 X216.251 Y130.986 E0.03355
G1 X217.863 Y131.047 E0.05059
G1 X218.927 Y131.135 E0.03348
G1 X220.608 Y131.353 E0.05314
G1 X222.279 Y131.669 E0.05333
G1 X223.321 Y131.916 E0.03356
G1 X224.972 Y132.390 E0.05386
G1 X225.884 Y132.698 E0.03019
G1 X227.485 Y133.318 E0.05383
G1 X228.367 Y133.708 E0.03023
G1 X229.944 Y134.491 E0.05521
G1 X231.363 Y135.301 E0.05122
G1 X232.266 Y135.872 E0.03350
G1 X233.660 Y136.846 E0.05332
G1 X235.003 Y137.904 E0.05360
G1 X236.325 Y139.080 E0.05549
G1 X237.091 Y139.828 E0.03355
G1 X238.192 Y141.007 E0.05059
G1 X238.886 Y141.819 E0.03348
G1 X239.925 Y143.158 E0.05314
G1 X240.889 Y144.559 E0.05333
G1 X241.454 Y145.468 E0.03357
G1 X242.294 Y146.971 E0.05396
G1 X242.736 Y147.858 E0.03108
G1 X243.441 Y149.445 E0.05447
G1 X244.016 Y150.968 E0.05103
G1 X244.348 Y151.985 E0.03354
G1 X244.812 Y153.675 E0.05497
G1 X245.177 Y155.390 E0.05496
G1 X245.336 Y156.368 E0.03108
G1 X245.540 Y158.095 E0.05452
G1 X245.641 Y159.796 E0.05341
G1 X245.643 Y161.502 E0.05350
G1 X245.595 Y162.572 E0.03357
G1 X245.437 Y164.286 E0.05396
G1 X245.300 Y165.267 E0.03108
G1 X244.984 Y166.975 E0.05447
G1 X244.596 Y168.556 E0.05103
G1 X244.295 Y169.581 E0.03350
G1 X243.736 Y171.200 E0.05369
G1 X243.082 Y172.792 E0.05396
G1 X242.324 Y174.364 E0.05474
G1 X241.868 Y175.213 E0.03023
G1 X240.985 Y176.687 E0.05386
G1 X240.393 Y177.579 E0.03356
G1 X239.391 Y178.946 E0.05315
G1 X238.308 Y180.257 E0.05332
G1 X237.589 Y181.050 E0.03356
G1 X236.377 Y182.268 E0.05387
G1 X235.666 Y182.919 E0.03023
G1 X234.315 Y184.049 E0.05521
G1 X233.004 Y185.023 E0.05122
G1 X232.120 Y185.620 E0.03344
G1 X230.743 Y186.461 E0.05059
G1 X229.806 Y186.977 E0.03354
G1 X228.238 Y187.747 E0.05479
G1 X226.619 Y188.426 E0.05503
G1 X225.713 Y188.758 E0.03024
G1 X224.034 Y189.288 E0.05521
G1 X222.451 Y189.689 E0.05122
G1 X221.406 Y189.904 E0.03344
G1 X219.813 Y190.157 E0.05059
G1 X218.750 Y190.278 E0.03353
G1 X217.012 Y190.392 E0.05460
G1 X215.269 Y190.404 E0.05467
G1 X214.287 Y190.365 E0.03079
G1 X212.533 Y190.215 E0.05522
G1 X210.916 Y189.983 E0.05122
G1 X209.868 Y189.784 E0.03344
G1 X208.298 Y189.411 E0.05059
G1 X207.270 Y189.117 E0.03354
G1 X205.609 Y188.557 E0.05496
G1 X203.987 Y187.901 E0.05486
G1 X203.112 Y187.498 E0.03019
G1 X201.585 Y186.713 E0.05383
G1 X200.748 Y186.233 E0.03024
G1 X199.257 Y185.285 E0.05539
G1 X197.936 Y184.335 E0.05104
G1 X197.097 Y183.671 E0.03354
G1 X195.775 Y182.520 E0.05496
G1 X194.525 Y181.296 E0.05486
G1 X193.868 Y180.589 E0.03024
G1 X192.729 Y179.247 E0.05521
G1 X191.744 Y177.943 E0.05122
G1 X191.141 Y177.064 E0.03344
G1 X190.289 Y175.693 E0.05059
G1 X189.766 Y174.761 E0.03353
G1 X188.982 Y173.193 E0.05496
G1 X188.293 Y171.584 E0.05487
G1 X187.955 Y170.681 E0.03024
G1 X187.413 Y169.006 E0.05521
G1 X186.999 Y167.425 E0.05122
G1 X186.777 Y166.382 E0.03344
G1 X186.511 Y164.791 E0.05059
G1 X186.383 Y163.729 E0.03354
G1 X186.255 Y161.981 E0.05496
G1 X186.231 Y160.231 E0.05486
G1 X186.262 Y159.269 E0.03019
G1 X186.394 Y157.557 E0.05383
G1 X186.512 Y156.600 E0.03024
G1 X186.807 Y154.858 E0.05539
G1 X187.171 Y153.271 E0.05104
G1 X187.457 Y152.240 E0.03354
G1 X188.005 Y150.575 E0.05496
G1 X188.649 Y148.948 E0.05486
G1 X189.045 Y148.070 E0.03020
G1 X189.820 Y146.535 E0.05393
G1 X190.307 Y145.672 E0.03108
G1 X191.229 Y144.199 E0.05447
G1 X192.135 Y142.919 E0.04918
G1 X192.443 Y143.137 F10800.000
G1 F1200
G1 X193.135 Y142.246 E0.03538
G1 X194.255 Y140.941 E0.05391
G1 X195.445 Y139.709 E0.05372
G1 X196.133 Y139.059 E0.02966
G1 X197.421 Y137.946 E0.05338
G1 X198.187 Y137.344 E0.03055
G1 X199.584 Y136.344 E0.05386
G1 X201.011 Y135.445 E0.05289
G1 X202.491 Y134.627 E0.05303
G1 X203.428 Y134.164 E0.03275
G1 X204.986 Y133.483 E0.05332
G1 X205.869 Y133.145 E0.02966
G1 X207.482 Y132.607 E0.05329
G1 X208.393 Y132.349 E0.02971
G1 X210.095 Y131.950 E0.05480
G1 X211.769 Y131.660 E0.05326
G1 X213.451 Y131.467 E0.05309
G1 X215.197 Y131.371 E0.05483
G1 X216.241 Y131.363 E0.03273
G1 X217.844 Y131.424 E0.05032
G1 X218.883 Y131.510 E0.03267
G1 X220.554 Y131.726 E0.05283
G1 X222.205 Y132.038 E0.05268
G1 X223.221 Y132.279 E0.03274
G1 X224.856 Y132.748 E0.05332
G1 X225.752 Y133.051 E0.02966
G1 X227.337 Y133.665 E0.05329
G1 X228.203 Y134.048 E0.02970
G1 X229.762 Y134.821 E0.05457
G1 X231.173 Y135.626 E0.05092
G1 X232.054 Y136.183 E0.03269
G1 X233.440 Y137.152 E0.05301
G1 X234.765 Y138.197 E0.05291
G1 X236.072 Y139.359 E0.05483
G1 X236.818 Y140.089 E0.03273
G1 X237.914 Y141.261 E0.05032
G1 X238.590 Y142.054 E0.03267
G1 X239.617 Y143.376 E0.05249
G1 X240.576 Y144.769 E0.05302
G1 X241.127 Y145.656 E0.03274
G1 X241.958 Y147.143 E0.05341
G1 X242.393 Y148.015 E0.03055
G1 X243.090 Y149.584 E0.05383
G1 X243.661 Y151.097 E0.05073
G1 X243.985 Y152.089 E0.03272
G1 X244.445 Y153.759 E0.05430
G1 X244.805 Y155.455 E0.05437
G1 X244.962 Y156.417 E0.03055
G1 X245.164 Y158.123 E0.05387
G1 X245.263 Y159.802 E0.05273
G1 X245.266 Y161.498 E0.05319
G1 X245.219 Y162.542 E0.03275
G1 X245.063 Y164.238 E0.05341
G1 X244.928 Y165.203 E0.03055
G1 X244.616 Y166.891 E0.05383
G1 X244.231 Y168.462 E0.05073
G1 X243.937 Y169.462 E0.03269
G1 X243.386 Y171.061 E0.05303
G1 X242.735 Y172.643 E0.05362
G1 X241.986 Y174.197 E0.05408
G1 X241.538 Y175.031 E0.02970
G1 X240.664 Y176.490 E0.05332
G1 X240.086 Y177.359 E0.03273
G1 X239.090 Y178.719 E0.05284
G1 X238.020 Y180.014 E0.05267
G1 X237.319 Y180.787 E0.03274
G1 X236.119 Y181.993 E0.05332
G1 X235.421 Y182.633 E0.02970
G1 X234.086 Y183.749 E0.05457
G1 X232.782 Y184.718 E0.05092
G1 X231.920 Y185.300 E0.03264
G1 X230.550 Y186.137 E0.05032
G1 X229.636 Y186.641 E0.03272
G1 X228.087 Y187.402 E0.05413
G1 X226.485 Y188.074 E0.05445
G1 X225.596 Y188.399 E0.02970
G1 X223.936 Y188.924 E0.05457
G1 X222.362 Y189.322 E0.05092
G1 X221.343 Y189.532 E0.03264
G1 X219.758 Y189.784 E0.05032
G1 X218.721 Y189.902 E0.03272
G1 X217.004 Y190.015 E0.05395
G1 X215.279 Y190.027 E0.05408
G1 X214.315 Y189.989 E0.03025
G1 X212.581 Y189.841 E0.05457
G1 X210.973 Y189.610 E0.05092
G1 X209.951 Y189.416 E0.03264
G1 X208.389 Y189.045 E0.05032
G1 X207.386 Y188.759 E0.03272
G1 X205.745 Y188.205 E0.05430
G1 X204.140 Y187.556 E0.05428
G1 X203.280 Y187.161 E0.02966
G1 X201.769 Y186.384 E0.05329
G1 X200.947 Y185.912 E0.02971
G1 X199.473 Y184.976 E0.05475
G1 X198.160 Y184.031 E0.05074
G1 X197.341 Y183.384 E0.03272
G1 X196.035 Y182.247 E0.05430
G1 X194.798 Y181.036 E0.05427
G1 X194.153 Y180.342 E0.02970
G1 X193.026 Y179.016 E0.05457
G1 X192.048 Y177.719 E0.05092
G1 X191.459 Y176.861 E0.03264
G1 X190.612 Y175.498 E0.05032
G1 X190.102 Y174.588 E0.03271
G1 X189.327 Y173.039 E0.05429
G1 X188.645 Y171.448 E0.05429
G1 X188.313 Y170.561 E0.02971
G1 X187.776 Y168.905 E0.05457
G1 X187.365 Y167.334 E0.05092
G1 X187.148 Y166.316 E0.03264
G1 X186.884 Y164.733 E0.05032
G1 X186.759 Y163.697 E0.03272
G1 X186.632 Y161.970 E0.05430
G1 X186.608 Y160.239 E0.05428
G1 X186.639 Y159.293 E0.02966
G1 X186.768 Y157.599 E0.05329
G1 X186.884 Y156.658 E0.02971
G1 X187.176 Y154.937 E0.05475
G1 X187.537 Y153.359 E0.05074
G1 X187.816 Y152.354 E0.03272
G1 X188.357 Y150.709 E0.05430
G1 X188.994 Y149.099 E0.05427
G1 X189.383 Y148.237 E0.02967
G1 X190.150 Y146.717 E0.05338
G1 X190.629 Y145.868 E0.03055
G1 X191.540 Y144.413 E0.05383
G1 X192.408 Y143.186 E0.04713
G1 X192.716 Y143.404 F10800.000
G1 F1200
G1 X193.424 Y142.488 E0.03630
G1 X194.530 Y141.199 E0.05325
G1 X195.707 Y139.980 E0.05314
G1 X196.382 Y139.342 E0.02914
G1 X197.657 Y138.240 E0.05283
G1 X198.410 Y137.648 E0.03001
G1 X199.790 Y136.660 E0.05321
G1 X201.198 Y135.772 E0.05220
G1 X202.670 Y134.959 E0.05272
G1 X203.583 Y134.508 E0.03193
G1 X205.125 Y133.834 E0.05277
G1 X205.993 Y133.501 E0.02913
G1 X207.589 Y132.969 E0.05275
G1 X208.484 Y132.715 E0.02918
G1 X210.165 Y132.320 E0.05414
G1 X211.817 Y132.034 E0.05257
G1 X213.488 Y131.843 E0.05274
G1 X215.213 Y131.748 E0.05417
G1 X216.231 Y131.740 E0.03191
G1 X217.826 Y131.800 E0.05006
G1 X218.839 Y131.884 E0.03186
G1 X220.489 Y132.098 E0.05218
G1 X222.131 Y132.408 E0.05237
G1 X223.121 Y132.643 E0.03192
G1 X224.739 Y133.107 E0.05277
G1 X225.620 Y133.404 E0.02913
G1 X227.188 Y134.012 E0.05275
G1 X228.039 Y134.387 E0.02916
G1 X229.580 Y135.151 E0.05392
G1 X230.982 Y135.951 E0.05061
G1 X231.841 Y136.495 E0.03188
G1 X233.210 Y137.451 E0.05236
G1 X234.527 Y138.490 E0.05257
G1 X235.818 Y139.638 E0.05417
G1 X236.546 Y140.349 E0.03191
G1 X237.636 Y141.516 E0.05006
G1 X238.295 Y142.289 E0.03187
G1 X239.316 Y143.603 E0.05219
G1 X240.263 Y144.979 E0.05237
G1 X240.800 Y145.844 E0.03192
G1 X241.623 Y147.315 E0.05286
G1 X242.050 Y148.172 E0.03001
G1 X242.740 Y149.722 E0.05318
G1 X243.307 Y151.226 E0.05042
G1 X243.623 Y152.194 E0.03190
G1 X244.077 Y153.843 E0.05364
G1 X244.434 Y155.521 E0.05377
G1 X244.588 Y156.465 E0.03002
G1 X244.788 Y158.151 E0.05322
G1 X244.887 Y159.819 E0.05238
G1 X244.889 Y161.494 E0.05254
G1 X244.843 Y162.512 E0.03192
G1 X244.689 Y164.190 E0.05286
G1 X244.557 Y165.138 E0.03001
G1 X244.249 Y166.806 E0.05318
G1 X243.865 Y168.368 E0.05042
G1 X243.579 Y169.344 E0.03188
G1 X243.031 Y170.933 E0.05272
G1 X242.389 Y172.494 E0.05292
G1 X241.649 Y174.029 E0.05343
G1 X241.208 Y174.848 E0.02916
G1 X240.342 Y176.292 E0.05277
G1 X239.779 Y177.140 E0.03192
G1 X238.796 Y178.483 E0.05219
G1 X237.732 Y179.770 E0.05236
G1 X237.048 Y180.524 E0.03192
G1 X235.861 Y181.718 E0.05277
G1 X235.175 Y182.346 E0.02916
G1 X233.857 Y183.450 E0.05392
G1 X232.561 Y184.413 E0.05061
G1 X231.719 Y184.981 E0.03184
G1 X230.357 Y185.813 E0.05006
G1 X229.466 Y186.304 E0.03190
G1 X227.925 Y187.061 E0.05381
G1 X226.352 Y187.721 E0.05351
G1 X225.478 Y188.041 E0.02917
G1 X223.838 Y188.559 E0.05392
G1 X222.274 Y188.956 E0.05061
G1 X221.279 Y189.160 E0.03184
G1 X219.702 Y189.411 E0.05006
G1 X218.691 Y189.526 E0.03190
G1 X216.985 Y189.638 E0.05363
G1 X215.281 Y189.650 E0.05342
G1 X214.343 Y189.613 E0.02945
G1 X212.629 Y189.467 E0.05392
G1 X211.031 Y189.237 E0.05061
G1 X210.034 Y189.048 E0.03184
G1 X208.480 Y188.679 E0.05006
G1 X207.502 Y188.400 E0.03190
G1 X205.881 Y187.854 E0.05364
G1 X204.293 Y187.212 E0.05369
G1 X203.449 Y186.824 E0.02914
G1 X201.953 Y186.055 E0.05275
G1 X201.146 Y185.592 E0.02917
G1 X199.689 Y184.667 E0.05410
G1 X198.384 Y183.727 E0.05043
G1 X197.585 Y183.096 E0.03190
G1 X196.295 Y181.974 E0.05364
G1 X195.071 Y180.775 E0.05369
G1 X194.438 Y180.094 E0.02917
G1 X193.324 Y178.784 E0.05392
G1 X192.352 Y177.496 E0.05061
G1 X191.777 Y176.658 E0.03184
G1 X190.934 Y175.302 E0.05006
G1 X190.437 Y174.415 E0.03189
G1 X189.671 Y172.886 E0.05363
G1 X188.996 Y171.311 E0.05370
G1 X188.670 Y170.440 E0.02917
G1 X188.139 Y168.804 E0.05392
G1 X187.731 Y167.243 E0.05061
G1 X187.519 Y166.250 E0.03184
G1 X187.256 Y164.675 E0.05006
G1 X187.134 Y163.665 E0.03190
G1 X187.009 Y161.959 E0.05364
G1 X186.985 Y160.247 E0.05369
G1 X187.015 Y159.318 E0.02914
G1 X187.143 Y157.640 E0.05275
G1 X187.257 Y156.717 E0.02917
G1 X187.544 Y155.016 E0.05410
G1 X187.904 Y153.448 E0.05043
G1 X188.176 Y152.467 E0.03190
G1 X188.710 Y150.842 E0.05364
G1 X189.340 Y149.250 E0.05369
G1 X189.722 Y148.403 E0.02914
